srs827/Robot-Cello-ResidualRL/Data-Files/Big-Logs/allegro-log-detailed.csv
timestamp_robot,time_elapsed_sec,event_flag,event_label,current_event_type,current_note_number,current_note_name,current_string,remaining_duration_sec,TCP_pose_x,TCP_pose_y,TCP_pose_z,TCP_pose_rx,TCP_pose_ry,TCP_pose_rz,q_base,q_shoulder,q_elbow,q_wrist1,q_wrist2,q_wrist3,TCP_force_x,TCP_force_y,TCP_force_z,TCP_force_rx,TCP_force_ry,TCP_force_rz
9445.416000,0.000000,3,START d_bow,Note,62,D4,A,0.498958,0.351021,0.656353,0.176843,-1.661089,-2.080772,1.037507,-2.338711,-0.584910,1.149962,-1.362194,-1.367577,-2.642334,-1.516424,0.071236,0.182787,-0.151808,-0.016101,0.107999
9445.424000,0.008000,3,START d_bow,Note,62,D4,A,0.490958,0.351012,0.656354,0.176829,-1.661040,-2.080799,1.037513,-2.338699,-0.584891,1.149967,-1.362209,-1.367577,-2.642364,-1.376531,0.043912,0.076639,-0.146667,-0.010801,0.105447
9445.432000,0.016000,3,START d_bow,Note,62,D4,A,0.482958,0.351009,0.656359,0.176866,-1.661070,-2.080837,1.037428,-2.338692,-0.584938,1.149956,-1.362221,-1.367577,-2.642349,-1.386549,0.072853,-0.107482,-0.152710,-0.010340,0.107247
9445.504000,0.088000,3,START d_bow,Note,62,D4,A,0.410958,0.351006,0.656356,0.176853,-1.661059,-2.080825,1.037497,-2.338692,-0.584929,1.149970,-1.362197,-1.367593,-2.642349,-1.536671,-0.118020,0.312112,-0.147127,-0.015874,0.100148
9445.512000,0.096000,3,START d_bow,Note,62,D4,A,0.402958,0.350994,0.656356,0.176839,-1.661042,-2.080799,1.037543,-2.338680,-0.584926,1.150004,-1.362197,-1.367577,-2.642346,-1.324370,-0.327181,0.135814,-0.140144,-0.009291,0.101399
9445.520000,0.104000,3,START d_bow,Note,62,D4,A,0.894958,0.350997,0.656364,0.176843,-1.661054,-2.080795,1.037541,-2.338676,-0.584914,1.149966,-1.362175,-1.367574,-2.642334,-1.337036,0.036435,0.029022,-0.153409,-0.012181,0.104364
9445.608000,0.192000,3,START d_bow,Note,62,D4,A,0.806958,0.351004,0.656356,0.176849,-1.661032,-2.080836,1.037502,-2.338688,-0.584922,1.149970,-1.362197,-1.367593,-2.642368,-1.326188,0.474913,-0.128946,-0.157805,-0.008163,0.109606
9445.616000,0.200000,3,START d_bow,Note,62,D4,A,0.798958,0.351012,0.656356,0.176856,-1.661044,-2.080827,1.037451,-2.338695,-0.584922,1.149956,-1.362213,-1.367574,-2.642368,-1.433473,-0.179533,-0.013054,-0.144922,-0.013376,0.105121
9445.624000,0.208000,3,START d_bow,Note,62,D4,A,0.790958,0.351010,0.656346,0.176838,-1.661032,-2.080780,1.037556,-2.338703,-0.584922,1.150001,-1.362178,-1.367581,-2.642368,-1.365565,-0.130916,0.187420,-0.143697,-0.013699,0.102235
9445.704000,0.288000,3,START d_bow,Note,62,D4,A,0.710958,0.350994,0.656363,0.176837,-1.661037,-2.080832,1.037532,-2.338672,-0.584907,1.149970,-1.362197,-1.367593,-2.642349,0.434971,-0.872981,0.278309,0.013745,0.001309,-0.013700
9445.712000,0.296000,3,START d_bow,Note,62,D4,A,0.702958,0.350981,0.656360,0.176812,-1.660990,-2.080789,1.037597,-2.338661,-0.584891,1.150013,-1.362194,-1.367562,-2.642364,-0.008033,-0.686205,0.330539,0.010585,-0.003908,-0.010985
9445.720000,0.304000,3,START d_bow,Note,62,D4,A,0.694958,0.350998,0.656363,0.176845,-1.661031,-2.080842,1.037489,-2.338676,-0.584910,1.149959,-1.362209,-1.367584,-2.642361,-0.064026,-0.576950,0.170977,0.009987,-0.002219,-0.011849
9445.752000,0.336000,3,START d_bow,Note,62,D4,A,0.662958,0.351008,0.656355,0.176827,-1.661049,-2.080778,1.037545,-2.338695,-0.584895,1.149977,-1.362194,-1.367574,-2.642349,0.287324,-0.771986,0.018767,0.015014,0.005320,-0.013450
9445.784000,0.368000,3,START d_bow,Note,62,D4,A,0.630958,0.351024,0.656373,0.176863,-1.661092,-2.080833,1.037470,-2.338695,-0.584895,1.149868,-1.362158,-1.367601,-2.642330,0.114832,-0.259822,-0.219261,0.004961,0.005995,-0.005368
9445.808000,0.392000,3,START d_bow,Note,62,D4,A,0.606958,0.351042,0.656405,0.176896,-1.661067,-2.080893,1.037389,-2.338680,-0.584851,1.149685,-1.362078,-1.367598,-2.642352,0.369397,-0.167920,-0.169631,0.004695,0.009793,-0.003434
9445.816000,0.400000,3,START d_bow,Note,62,D4,A,0.598958,0.351031,0.656428,0.176902,-1.661057,-2.080936,1.037441,-2.338649,-0.584826,1.149611,-1.362011,-1.367629,-2.642337,0.523870,-0.690801,-0.216402,0.015642,0.014514,-0.010245
9445.824000,0.408000,3,START d_bow,Note,62,D4,A,0.590958,0.351054,0.656437,0.176908,-1.661065,-2.080969,1.037430,-2.338663,-0.584790,1.149515,-1.361967,-1.367665,-2.642346,0.153618,-0.491294,-0.100371,0.012781,0.006710,-0.004766
9445.912000,0.496000,3,START d_bow,Note,62,D4,A,0.502958,0.351046,0.657057,0.176688,-1.660749,-2.081964,1.038537,-2.338089,-0.583288,1.146896,-1.360471,-1.368429,-2.642158,0.171893,-0.632548,-0.203575,0.058886,0.036471,0.037186
9445.920000,0.504000,3,START d_bow,Note,62,D4,A,0.494958,0.351026,0.657179,0.176626,-1.660675,-2.082126,1.038723,-2.337957,-0.582989,1.146440,-1.360247,-1.368522,-2.642115,0.260537,-0.448513,-0.119810,0.055717,0.042452,0.044977
9445.928000,0.512000,3,START d_bow,Note,62,D4,A,0.486958,0.351034,0.657284,0.176562,-1.660597,-2.082242,1.038993,-2.337869,-0.582686,1.145971,-1.359945,-1.368641,-2.642095,0.209602,-0.445198,-0.162274,0.065616,0.048962,0.060116
9445.936000,0.520000,3,START d_bow,Note,62,D4,A,0.478958,0.351029,0.657429,0.176535,-1.660559,-2.082479,1.039164,-2.337733,-0.582377,1.145381,-1.359639,-1.368797,-2.642031,0.355119,-1.022890,-0.068216,0.087654,0.062329,0.065775
9445.944000,0.528000,3,START d_bow,Note,62,D4,A,0.470958,0.351019,0.657576,0.176493,-1.660456,-2.082783,1.039317,-2.337586,-0.582033,1.144766,-1.359354,-1.368972,-2.642018,0.607522,-0.624391,-0.154467,0.099181,0.072442,0.081288
9446.016000,0.600000,3,START d_bow,Note,57,A3,A,0.898958,0.351118,0.659508,0.175660,-1.659507,-2.085425,1.043157,-2.335929,-0.577011,1.136319,-1.354377,-1.371247,-2.641410,0.888616,-0.126428,-1.025346,0.180194,0.171515,0.196193
9446.024000,0.608000,3,START d_bow,Note,57,A3,A,0.890958,0.351139,0.659814,0.175584,-1.659344,-2.085881,1.043604,-2.335669,-0.576278,1.134957,-1.353604,-1.371569,-2.641345,1.171981,0.073025,-1.668690,0.189210,0.203331,0.205816
9446.032000,0.616000,3,START d_bow,Note,57,A3,A,0.882958,0.351129,0.660169,0.175454,-1.659188,-2.086396,1.044226,-2.335340,-0.575416,1.133467,-1.352756,-1.371965,-2.641212,0.747167,-1.544081,-0.186829,0.202296,0.146701,0.180681
9446.112000,0.696000,3,START d_bow,Note,57,A3,A,0.802958,0.351190,0.664882,0.173641,-1.656688,-2.093364,1.052808,-2.331140,-0.563485,1.112896,-1.340904,-1.377447,-2.639857,0.789282,-0.739367,-0.847029,0.186440,0.171948,0.174912
9446.120000,0.704000,3,START d_bow,Note,57,A3,A,0.794958,0.351192,0.665476,0.173356,-1.656374,-2.094215,1.053944,-2.330610,-0.561902,1.110299,-1.339446,-1.378139,-2.639674,0.887677,-0.643646,-0.249945,0.178680,0.145393,0.180796
9446.128000,0.712000,3,START d_bow,Note,57,A3,A,0.786958,0.351195,0.666083,0.173041,-1.656054,-2.095085,1.055224,-2.330071,-0.560248,1.107625,-1.337901,-1.378896,-2.639475,0.855297,-0.352143,-0.926206,0.177855,0.167450,0.177670
9446.136000,0.720000,3,START d_bow,Note,57,A3,A,0.778958,0.351214,0.666711,0.172734,-1.655708,-2.095915,1.056481,-2.329527,-0.558542,1.104827,-1.336281,-1.379601,-2.639290,0.955608,-0.810329,-0.421479,0.179798,0.152152,0.180899
9446.144000,0.728000,3,START d_bow,Note,57,A3,A,0.770958,0.351194,0.667387,0.172426,-1.655301,-2.096892,1.057800,-2.328902,-0.556775,1.101892,-1.334583,-1.380376,-2.639099,0.356433,-2.181641,-0.263013,0.187944,0.138428,0.158881
9446.152000,0.736000,3,START d_bow,Note,57,A3,A,0.762958,0.351205,0.668053,0.172146,-1.654987,-2.097885,1.058969,-2.328320,-0.555031,1.098928,-1.332946,-1.381159,-2.638887,1.200109,-0.175116,-1.683580,0.174689,0.178347,0.180800
9446.160000,0.744000,3,START d_bow,Note,57,A3,A,0.754958,0.351228,0.668742,0.171858,-1.654634,-2.098866,1.060282,-2.327728,-0.553213,1.095815,-1.331138,-1.381974,-2.638680,0.452339,-1.930879,0.134132,0.186767,0.128846,0.165157
9446.168000,0.752000,3,START d_bow,Note,57,A3,A,0.746958,0.351242,0.669440,0.171575,-1.654303,-2.099942,1.061459,-2.327121,-0.551386,1.092679,-1.329429,-1.382806,-2.638467,0.646057,-0.990863,-0.413631,0.184101,0.144812,0.170872
9446.176000,0.760000,3,START d_bow,Note,57,A3,A,0.738958,0.351253,0.670164,0.171317,-1.653963,-2.101004,1.062768,-2.326490,-0.549544,1.089422,-1.327534,-1.383662,-2.638229,1.052068,-0.710029,-1.067718,0.174611,0.172234,0.194767
9446.184000,0.768000,3,START d_bow,Note,57,A3,A,0.730958,0.351239,0.670905,0.171007,-1.653559,-2.102189,1.064111,-2.325819,-0.547609,1.086120,-1.325687,-1.384583,-2.638017,0.946062,-0.947330,-0.513511,0.181344,0.165649,0.183386
9446.192000,0.776000,3,START d_bow,Note,57,A3,A,0.722958,0.351195,0.671678,0.170696,-1.653091,-2.103312,1.065670,-2.325090,-0.545646,1.082745,-1.323643,-1.385483,-2.637781,0.786105,-1.530741,-0.122671,0.190114,0.143868,0.164259
9446.216000,0.800000,3,START d_bow,Note,57,A3,A,0.698958,0.351111,0.674091,0.169784,-1.651771,-2.106994,1.070106,-2.322878,-0.539498,1.072011,-1.317411,-1.388346,-2.637042,0.696506,-2.244911,-0.229255,0.204742,0.162217,0.168710
9446.224000,0.808000,3,START d_bow,Note,57,A3,A,0.690958,0.351099,0.674945,0.169471,-1.651367,-2.108261,1.071516,-2.322115,-0.537310,1.068169,-1.315273,-1.389297,-2.636759,0.776217,-0.603569,-1.090579,0.180881,0.173688,0.186970
9446.232000,0.816000,3,START d_bow,Note,57,A3,A,0.682958,0.351092,0.675806,0.169195,-1.650944,-2.109624,1.072930,-2.321352,-0.535138,1.064243,-1.313055,-1.390323,-2.636499,0.883930,-0.385449,-0.887576,0.184171,0.178155,0.191282
9446.320000,0.904000,3,START d_bow,Note,57,A3,A,0.594958,0.350500,0.686409,0.164590,-1.644962,-2.125963,1.093116,-2.311584,-0.506805,1.015807,-1.285299,-1.403236,-2.633150,1.153514,-0.901095,-1.615982,0.174721,0.187668,0.172742
9446.328000,0.912000,3,START d_bow,Note,57,A3,A,0.586958,0.350392,0.687482,0.164153,-1.644338,-2.127689,1.095094,-2.310559,-0.503972,1.010881,-1.282487,-1.404544,-2.632802,1.155342,-2.010758,-0.586262,0.188616,0.167492,0.159411
9446.336000,0.920000,3,START d_bow,Note,57,A3,A,0.578958,0.350271,0.688585,0.163706,-1.643684,-2.129530,1.097049,-2.309498,-0.501061,1.005815,-1.279654,-1.405902,-2.632462,1.071275,-2.357876,-0.213318,0.188197,0.157219,0.162754
9446.400000,0.984000,3,START d_bow,Note,57,A3,A,0.514958,0.349165,0.697865,0.159593,-1.638001,-2.144479,1.114961,-2.300580,-0.475724,0.962233,-1.254644,-1.417446,-2.629439,1.240407,-0.950754,-1.633649,0.183599,0.203657,0.169216
9446.424000,1.008000,3,START d_bow,Note,57,A3,A,0.490958,0.348629,0.701550,0.157890,-1.635624,-2.150609,1.122127,-2.296986,-0.465404,0.944522,-1.244557,-1.422139,-2.628257,1.451690,-1.530803,-1.140447,0.166770,0.171437,0.151930
9446.432000,1.016000,3,START d_bow,Note,57,A3,A,0.482958,0.348425,0.702828,0.157277,-1.634821,-2.152672,1.124567,-2.295729,-0.461793,0.938379,-1.241103,-1.423696,-2.627818,1.457448,-2.204355,-0.693706,0.178026,0.161489,0.145192
9446.440000,1.024000,3,START d_bow,Note,57,A3,A,0.474958,0.348203,0.704109,0.156700,-1.633986,-2.154852,1.127067,-2.294455,-0.458215,0.932183,-1.237555,-1.425351,-2.627390,1.360570,-1.229005,-1.117124,0.170510,0.172196,0.153704
9446.504000,1.088000,3,START d_bow,Note,57,A3,A,0.410958,0.346208,0.714706,0.151525,-1.626844,-2.172980,1.148635,-2.283879,-0.427446,0.879391,-1.207273,-1.439399,-2.623769,0.618695,-1.804318,-1.131420,0.152797,0.177134,0.160406
9446.512000,1.096000,3,START d_bow,Note,57,A3,A,0.402958,0.345888,0.716096,0.150839,-1.625837,-2.175429,1.151449,-2.282449,-0.423355,0.872356,-1.203258,-1.441243,-2.623305,0.394146,-2.378383,-0.254791,0.158352,0.150602,0.137971
9446.520000,1.104000,3,START d_bow,Note,57,A3,A,0.894958,0.345599,0.717464,0.150173,-1.624935,-2.177897,1.154214,-2.281073,-0.419282,0.865288,-1.199246,-1.443154,-2.622807,1.141528,-1.226160,-0.984645,0.140130,0.169524,0.139841
9446.528000,1.112000,3,START d_bow,Note,57,A3,A,0.886958,0.345240,0.718855,0.149465,-1.623877,-2.180396,1.157071,-2.279609,-0.415145,0.858210,-1.195211,-1.445018,-2.622347,1.391379,-0.452857,-1.114328,0.150300,0.176894,0.152299
9446.536000,1.120000,3,START d_bow,Note,57,A3,A,0.878958,0.344948,0.720229,0.148763,-1.622896,-2.182826,1.160163,-2.278233,-0.410947,0.850946,-1.190908,-1.447009,-2.621852,0.889349,-1.977304,-0.903167,0.161167,0.163186,0.142764
9446.544000,1.128000,3,START d_bow,Note,57,A3,A,0.870958,0.344598,0.721664,0.148045,-1.621946,-2.185428,1.162929,-2.276756,-0.406626,0.843487,-1.186783,-1.448941,-2.621315,2.069101,-1.778824,-0.844465,0.166457,0.163831,0.148513
9446.552000,1.136000,3,START d_bow,Note,57,A3,A,0.862958,0.344189,0.723098,0.147324,-1.620846,-2.188067,1.165897,-2.275222,-0.402328,0.836073,-1.182542,-1.450904,-2.620818,2.066416,-0.332475,-1.544980,0.148620,0.186106,0.162753
9446.560000,1.144000,3,START d_bow,Note,57,A3,A,0.854958,0.343758,0.724561,0.146572,-1.619778,-2.190686,1.168821,-2.273649,-0.397929,0.828531,-1.178302,-1.452813,-2.620272,1.409985,0.537774,-1.462378,0.141940,0.190081,0.168113
9446.568000,1.152000,3,START d_bow,Note,57,A3,A,0.846958,0.343305,0.726004,0.145749,-1.618584,-2.193264,1.172248,-2.272075,-0.393459,0.820993,-1.173808,-1.454861,-2.619740,0.887598,0.106475,-1.373621,0.147994,0.195352,0.155886
9446.576000,1.160000,3,START d_bow,Note,57,A3,A,0.838958,0.342821,0.727486,0.144950,-1.617373,-2.196038,1.175484,-2.270441,-0.388914,0.813235,-1.169330,-1.456943,-2.619213,0.406059,-0.506366,-1.873121,0.140385,0.198329,0.169699
9446.584000,1.168000,3,START d_bow,Note,57,A3,A,0.830958,0.342340,0.728966,0.144215,-1.616228,-2.198955,1.178398,-2.268815,-0.384421,0.805421,-1.164983,-1.459033,-2.618691,1.868592,-0.072835,-1.528946,0.135050,0.179530,0.159530
9446.592000,1.176000,3,START d_bow,Note,57,A3,A,0.822958,0.341858,0.730443,0.143513,-1.615071,-2.201714,1.181531,-2.267197,-0.379949,0.797542,-1.160377,-1.461087,-2.618140,0.833212,-0.890239,-0.935686,0.132377,0.182774,0.178991
9446.600000,1.184000,3,START d_bow,Note,57,A3,A,0.814958,0.341375,0.731914,0.142692,-1.613879,-2.204652,1.184579,-2.265583,-0.375277,0.789569,-1.155965,-1.463246,-2.617631,1.613993,0.717428,-1.402436,0.126871,0.181512,0.157688
9446.608000,1.192000,3,START d_bow,Note,57,A3,A,0.806958,0.340853,0.733412,0.141873,-1.612669,-2.207509,1.187886,-2.263919,-0.370558,0.781464,-1.151295,-1.465404,-2.617056,1.223018,-0.148254,-1.547663,0.124818,0.192305,0.170765
9446.616000,1.200000,3,START d_bow,Note,57,A3,A,0.798958,0.340337,0.734894,0.140984,-1.611468,-2.210387,1.191162,-2.262277,-0.365733,0.773329,-1.146724,-1.467585,-2.616490,2.090228,0.442281,-1.468755,0.129527,0.188077,0.162005
9446.624000,1.208000,3,START d_bow,Note,57,A3,A,0.790958,0.339796,0.736364,0.140113,-1.610147,-2.213154,1.194772,-2.260623,-0.360945,0.765199,-1.141872,-1.469772,-2.615942,0.778273,-0.040462,-1.458076,0.135122,0.202992,0.156927
9446.632000,1.216000,3,START d_bow,Note,57,A3,A,0.782958,0.339258,0.737856,0.139258,-1.608855,-2.216000,1.198142,-2.258957,-0.356072,0.756857,-1.137059,-1.471925,-2.615398,0.694481,-0.151380,-0.994683,0.131185,0.190727,0.157982
9446.640000,1.224000,3,START d_bow,Note,57,A3,A,0.774958,0.338718,0.739333,0.138505,-1.607705,-2.218934,1.201237,-2.257308,-0.351348,0.748553,-1.132345,-1.474087,-2.614804,0.712769,-1.065322,-0.035011,0.142769,0.154505,0.151262
9446.648000,1.232000,3,START d_bow,Note,57,A3,A,0.766958,0.338179,0.740751,0.137720,-1.606522,-2.221785,1.204468,-2.255709,-0.346701,0.740486,-1.127681,-1.476265,-2.614237,0.508102,-0.101389,-1.141672,0.125450,0.200504,0.180051
9446.656000,1.240000,3,START d_bow,Note,57,A3,A,0.758958,0.337627,0.742153,0.136936,-1.605401,-2.224758,1.207336,-2.254112,-0.342082,0.732499,-1.123321,-1.478413,-2.613681,1.431495,0.082153,-0.284589,0.143693,0.171450,0.137294
9446.664000,1.248000,3,START d_bow,Note,57,A3,A,0.750958,0.337062,0.743536,0.136084,-1.604178,-2.227419,1.210690,-2.252522,-0.337401,0.724545,-1.118669,-1.480481,-2.613112,1.318787,0.784401,-1.454618,0.120456,0.202739,0.179939
9446.672000,1.256000,3,START d_bow,Note,57,A3,A,0.742958,0.336467,0.744911,0.135237,-1.602901,-2.230263,1.213789,-2.250905,-0.332736,0.716625,-1.114219,-1.482563,-2.612603,1.162180,-0.216827,-0.360437,0.137630,0.177589,0.146292
9446.680000,1.264000,3,START d_bow,Note,57,A3,A,0.734958,0.335875,0.746231,0.134424,-1.601637,-2.232815,1.217261,-2.249342,-0.328246,0.708957,-1.109552,-1.484600,-2.612048,0.065356,-0.877536,-0.447168,0.129616,0.168017,0.150421
9446.688000,1.272000,3,START d_bow,Note,57,A3,A,0.726958,0.335288,0.747530,0.133608,-1.600433,-2.235591,1.220199,-2.247800,-0.323764,0.701343,-1.105310,-1.486634,-2.611549,0.948089,-0.323042,-0.753997,0.131884,0.184695,0.157086
9446.696000,1.280000,3,START d_bow,Note,57,A3,A,0.718958,0.334705,0.748807,0.132842,-1.599236,-2.238242,1.223357,-2.246282,-0.319371,0.693764,-1.100852,-1.488676,-2.611018,1.183243,-0.752466,-0.763799,0.128421,0.174512,0.154573
9446.704000,1.288000,3,START d_bow,Note,57,A3,A,0.710958,0.334116,0.750082,0.132137,-1.598150,-2.241036,1.226081,-2.244765,-0.315048,0.686185,-1.096634,-1.490686,-2.610476,1.392151,0.009618,-1.334823,0.110880,0.210256,0.176679
9446.712000,1.296000,3,START d_bow,Note,57,A3,A,0.702958,0.333538,0.751318,0.131416,-1.597023,-2.243719,1.228752,-2.243286,-0.310768,0.678754,-1.092509,-1.492602,-2.609988,1.715729,-0.197093,-0.328021,0.124772,0.184382,0.156827
9446.720000,1.304000,3,START d_bow,Note,57,A3,A,0.694958,0.332921,0.752538,0.130696,-1.595852,-2.246413,1.231550,-2.241784,-0.306550,0.671438,-1.088360,-1.494550,-2.609493,0.944360,0.042698,-0.499648,0.131248,0.206168,0.172097
9446.728000,1.312000,3,START d_bow,Note,57,A3,A,0.686958,0.332279,0.753731,0.129914,-1.594606,-2.249088,1.234514,-2.240279,-0.302317,0.664251,-1.084236,-1.496529,-2.609017,1.493083,-1.085080,0.174765,0.144787,0.183795,0.152208
9446.736000,1.320000,3,START d_bow,Note,57,A3,A,0.678958,0.331649,0.754904,0.129119,-1.593407,-2.251510,1.237669,-2.238808,-0.298096,0.657116,-1.079984,-1.498416,-2.608487,0.811826,-0.636430,-1.435282,0.131693,0.228133,0.179306
9446.744000,1.328000,3,START d_bow,Note,57,A3,A,0.670958,0.330988,0.756078,0.128392,-1.592187,-2.254177,1.240357,-2.237303,-0.293963,0.650009,-1.076000,-1.500282,-2.608027,1.103573,0.223445,-1.363855,0.134324,0.213595,0.175747
9446.752000,1.336000,3,START d_bow,Note,57,A3,A,0.662958,0.330366,0.757202,0.127685,-1.591092,-2.256643,1.243078,-2.235880,-0.289950,0.643099,-1.072042,-1.502090,-2.607517,0.698546,-0.436703,-1.133499,0.134531,0.230483,0.183423
9446.760000,1.344000,3,START d_bow,Note,57,A3,A,0.654958,0.329762,0.758294,0.127013,-1.589974,-2.259116,1.245775,-2.234497,-0.286011,0.636249,-1.068079,-1.503919,-2.607049,0.705497,0.211679,-0.735070,0.137707,0.226077,0.180971
9446.768000,1.352000,3,START d_bow,Note,57,A3,A,0.646958,0.329182,0.759364,0.126330,-1.588891,-2.261499,1.248420,-2.233156,-0.282061,0.629413,-1.064150,-1.505691,-2.606586,0.340378,-0.405722,-0.376053,0.142193,0.227884,0.184118
9446.776000,1.360000,3,START d_bow,Note,57,A3,A,0.638958,0.328555,0.760430,0.125666,-1.587749,-2.264106,1.250951,-2.231772,-0.278166,0.622643,-1.060345,-1.507556,-2.606158,1.252371,-0.328963,-0.916478,0.135030,0.227446,0.173901
9446.784000,1.368000,3,START d_bow,Note,57,A3,A,0.630958,0.327935,0.761462,0.124950,-1.586629,-2.266462,1.253599,-2.230423,-0.274293,0.616062,-1.056576,-1.509293,-2.605706,1.054357,-1.008459,-0.416737,0.154781,0.221644,0.154437
9446.792000,1.376000,3,START d_bow,Note,57,A3,A,0.622958,0.327330,0.762462,0.124205,-1.585580,-2.268731,1.256231,-2.229117,-0.270448,0.609614,-1.052911,-1.511001,-2.605228,1.441955,0.339545,-1.741539,0.141500,0.234738,0.158359
9446.800000,1.384000,3,START d_bow,Note,57,A3,A,0.614958,0.326720,0.763441,0.123494,-1.584433,-2.270932,1.259029,-2.227820,-0.266678,0.603229,-1.049100,-1.512705,-2.604794,1.546071,-1.094980,-1.396463,0.139584,0.232389,0.166414
9446.808000,1.392000,3,START d_bow,Note,57,A3,A,0.606958,0.326124,0.764406,0.122841,-1.583335,-2.273235,1.261473,-2.226545,-0.262980,0.596864,-1.045475,-1.514377,-2.604397,1.483518,-2.248812,-0.285567,0.151386,0.197257,0.147225
9446.816000,1.400000,3,START d_bow,Note,57,A3,A,0.598958,0.325558,0.765347,0.122236,-1.582401,-2.275536,1.263685,-2.225323,-0.259378,0.590576,-1.041992,-1.516033,-2.603953,1.869628,-1.636698,-0.862529,0.139255,0.225264,0.161897
9446.824000,1.408000,3,START d_bow,Note,57,A3,A,0.590958,0.324939,0.766287,0.121678,-1.581414,-2.277871,1.265911,-2.224050,-0.255897,0.584416,-1.038507,-1.517671,-2.603510,1.709229,-1.788364,-0.216736,0.147071,0.207535,0.168438
9446.832000,1.416000,3,START d_bow,Note,57,A3,A,0.582958,0.324376,0.767189,0.121094,-1.580445,-2.280062,1.268126,-2.222860,-0.252400,0.578302,-1.035053,-1.519252,-2.603103,1.607284,-1.549607,0.164112,0.158450,0.203639,0.154630
9446.840000,1.424000,3,START d_bow,Note,57,A3,A,0.574958,0.323775,0.768078,0.120489,-1.579490,-2.282229,1.270458,-2.221647,-0.248953,0.572337,-1.031627,-1.520848,-2.602648,1.449903,-0.859613,-0.967939,0.151195,0.231494,0.152075
9446.848000,1.432000,3,START d_bow,Note,57,A3,A,0.566958,0.323183,0.768948,0.119828,-1.578435,-2.284348,1.272806,-2.220452,-0.245438,0.566391,-1.028245,-1.522400,-2.602268,0.987161,0.042091,-1.875318,0.134910,0.253939,0.164224
9446.856000,1.440000,3,START d_bow,Note,57,A3,A,0.558958,0.322607,0.769788,0.119198,-1.577466,-2.286437,1.275115,-2.219298,-0.242031,0.560585,-1.024925,-1.523963,-2.601857,0.857239,-1.984205,-0.021175,0.157358,0.209681,0.146381
9446.864000,1.448000,3,START d_bow,Note,57,A3,A,0.550958,0.321955,0.770638,0.118584,-1.576370,-2.288562,1.277479,-2.218062,-0.238700,0.554899,-1.021604,-1.525486,-2.601470,0.970858,-0.844688,-0.992825,0.143048,0.239378,0.168218
9446.872000,1.456000,3,START d_bow,Note,57,A3,A,0.542958,0.321392,0.771431,0.117978,-1.575340,-2.290565,1.279729,-2.216952,-0.235416,0.549305,-1.018370,-1.526974,-2.601133,1.029746,-1.521471,-0.201691,0.147547,0.213568,0.168471
9446.880000,1.464000,3,START d_bow,Note,57,A3,A,0.534958,0.320828,0.772213,0.117413,-1.574446,-2.292531,1.281931,-2.215857,-0.232233,0.543806,-1.015172,-1.528455,-2.600715,1.169271,-2.532627,0.502817,0.166306,0.206713,0.148560
9446.888000,1.472000,3,START d_bow,Note,57,A3,A,0.526958,0.320264,0.772976,0.116838,-1.573492,-2.294553,1.284109,-2.214772,-0.229064,0.538368,-1.012038,-1.529965,-2.600347,1.185957,-2.392774,-0.185623,0.156247,0.216206,0.154734
9446.896000,1.480000,3,START d_bow,Note,57,A3,A,0.518958,0.319694,0.773740,0.116314,-1.572605,-2.296481,1.286090,-2.213682,-0.225981,0.532994,-1.008981,-1.531330,-2.599960,1.536214,-0.892702,-1.337296,0.133380,0.239371,0.164388
9446.904000,1.488000,3,START d_bow,Note,57,A3,A,0.510958,0.319141,0.774471,0.115777,-1.571663,-2.298465,1.288088,-2.212630,-0.222923,0.527705,-1.005975,-1.532765,-2.599632,1.660051,-1.073927,-1.188207,0.133031,0.242490,0.163330
9446.912000,1.496000,3,START d_bow,Note,57,A3,A,0.502958,0.318558,0.775202,0.115221,-1.570759,-2.300371,1.290105,-2.211554,-0.219893,0.522527,-1.003031,-1.534133,-2.599253,1.557243,-1.472241,-0.951291,0.132471,0.228669,0.156910
9446.920000,1.504000,3,START d_bow,Note,57,A3,A,0.494958,0.317993,0.775903,0.114648,-1.569849,-2.302184,1.292137,-2.210515,-0.216904,0.517483,-1.000145,-1.535457,-2.598898,1.417435,-1.794354,-0.412499,0.142701,0.210915,0.139453
9446.928000,1.512000,3,START d_bow,Note,57,A3,A,0.486958,0.317402,0.776609,0.114126,-1.568910,-2.304096,1.294031,-2.209446,-0.213981,0.512457,-0.997308,-1.536777,-2.598565,1.239775,-2.804545,0.254575,0.149252,0.204302,0.142847
9446.936000,1.520000,3,START d_bow,Note,57,A3,A,0.478958,0.316826,0.777286,0.113587,-1.567942,-2.305946,1.296064,-2.208412,-0.211088,0.507526,-0.994436,-1.538123,-2.598249,1.427448,-2.623779,0.134210,0.155138,0.207739,0.138622
9446.944000,1.528000,3,START d_bow,Note,57,A3,A,0.470958,0.316288,0.777949,0.113088,-1.567169,-2.307737,1.297853,-2.207433,-0.208268,0.502655,-0.991707,-1.539408,-2.597871,1.789117,-2.211405,-0.287225,0.158125,0.225036,0.146967
9446.952000,1.536000,3,START d_bow,Note,57,A3,A,0.462958,0.315746,0.778598,0.112625,-1.566326,-2.309492,1.299640,-2.206454,-0.205527,0.497864,-0.988959,-1.540646,-2.597540,1.498952,-1.839459,-0.559246,0.146761,0.215074,0.141280
9446.960000,1.544000,3,START d_bow,Note,57,A3,A,0.454958,0.315214,0.779220,0.112151,-1.565500,-2.311253,1.301288,-2.205505,-0.202853,0.493254,-0.986406,-1.541860,-2.597239,1.206593,-1.367362,-0.590991,0.156213,0.218812,0.153342
9446.968000,1.552000,3,START d_bow,Note,57,A3,A,0.446958,0.314714,0.779807,0.111646,-1.564686,-2.312828,1.303194,-2.204614,-0.200197,0.488753,-0.983751,-1.543072,-2.596917,1.545500,-1.134787,-0.927803,0.144771,0.236136,0.156467
9446.976000,1.560000,3,START d_bow,Note,57,A3,A,0.438958,0.314210,0.780381,0.111161,-1.563867,-2.314434,1.304982,-2.203727,-0.197616,0.484365,-0.981207,-1.544263,-2.596621,1.584748,-1.384654,-0.919543,0.143209,0.226447,0.160434
9446.984000,1.568000,3,START d_bow,Note,57,A3,A,0.430958,0.313702,0.780952,0.110693,-1.563052,-2.316063,1.306648,-2.202837,-0.195067,0.480010,-0.978741,-1.545423,-2.596341,1.813209,-1.668685,-1.025696,0.143137,0.230554,0.157320
9446.992000,1.576000,3,START d_bow,Note,57,A3,A,0.422958,0.313203,0.781506,0.110257,-1.562259,-2.317546,1.308420,-2.201971,-0.192613,0.475768,-0.976197,-1.546528,-2.596038,1.474399,-1.756984,-1.321833,0.123970,0.236915,0.157699
9447.000000,1.584000,3,START d_bow,Note,57,A3,A,0.414958,0.312720,0.782058,0.109816,-1.561514,-2.319114,1.309975,-2.201121,-0.190122,0.471471,-0.973789,-1.547638,-2.595750,1.582298,-1.837191,-1.207019,0.120518,0.230809,0.149555
9447.008000,1.592000,3,START d_bow,Note,57,A3,A,0.406958,0.312242,0.782590,0.109428,-1.560802,-2.320644,1.311410,-2.200290,-0.187780,0.467358,-0.971479,-1.548691,-2.595471,1.591086,-2.460633,-0.263476,0.129761,0.207034,0.140486
9447.016000,1.600000,3,START d_bow,Note,59,B3,A,0.648958,0.311758,0.783100,0.109010,-1.560006,-2.322163,1.312977,-2.199465,-0.185460,0.463370,-0.969179,-1.549774,-2.595230,1.554712,-1.246638,-1.113673,0.113930,0.229111,0.146067
9447.024000,1.608000,3,START d_bow,Note,59,B3,A,0.640958,0.311303,0.783600,0.108617,-1.559331,-2.323677,1.314439,-2.198682,-0.183176,0.459386,-0.966927,-1.550869,-2.594947,1.700243,-2.602776,-0.346859,0.131984,0.211780,0.130439
9447.032000,1.616000,3,START d_bow,Note,59,B3,A,0.632958,0.310853,0.784089,0.108243,-1.558698,-2.325130,1.315755,-2.197910,-0.180966,0.455526,-0.964798,-1.551873,-2.594668,1.726831,-0.410492,-1.791300,0.109768,0.235274,0.148482
9447.040000,1.624000,3,START d_bow,Note,59,B3,A,0.624958,0.310400,0.784554,0.107785,-1.557977,-2.326442,1.317354,-2.197152,-0.178715,0.451793,-0.962625,-1.552865,-2.594405,1.191477,-1.773556,-0.608211,0.133433,0.215068,0.135553
9447.048000,1.632000,3,START d_bow,Note,59,B3,A,0.616958,0.309934,0.785016,0.107368,-1.557253,-2.327735,1.318837,-2.196382,-0.176566,0.448178,-0.960528,-1.553786,-2.594157,1.258147,-2.069154,-0.407585,0.141869,0.201657,0.138574
9447.056000,1.640000,3,START d_bow,Note,59,B3,A,0.608958,0.309494,0.785460,0.107012,-1.556534,-2.329096,1.320289,-2.195648,-0.174500,0.444576,-0.958395,-1.554778,-2.593933,1.375496,-2.729455,-0.267516,0.144817,0.217916,0.141451
9447.064000,1.648000,3,START d_bow,Note,59,B3,A,0.600958,0.309102,0.785876,0.106608,-1.555934,-2.330324,1.321583,-2.194984,-0.172432,0.441111,-0.956478,-1.555677,-2.593696,1.527981,-2.042869,-0.377821,0.147092,0.213155,0.141846
9447.072000,1.656000,3,START d_bow,Note,59,B3,A,0.592958,0.308686,0.786297,0.106265,-1.555332,-2.331579,1.322847,-2.194293,-0.170467,0.437702,-0.954538,-1.556565,-2.593450,1.781263,-1.623207,-0.994365,0.127274,0.224267,0.151491
9447.080000,1.664000,3,START d_bow,Note,59,B3,A,0.584958,0.308280,0.786699,0.105925,-1.554776,-2.332838,1.324129,-2.193627,-0.168566,0.434411,-0.952649,-1.557492,-2.593183,2.124285,-1.657609,-0.940651,0.126040,0.226425,0.137197
9447.088000,1.672000,3,START d_bow,Note,59,B3,A,0.576958,0.307898,0.787084,0.105593,-1.554180,-2.333978,1.325344,-2.192993,-0.166706,0.431207,-0.950808,-1.558310,-2.592974,1.788931,-1.185135,-0.624399,0.119671,0.211783,0.147691
9447.096000,1.680000,3,START d_bow,Note,59,B3,A,0.568958,0.307534,0.787450,0.105271,-1.553615,-2.335155,1.326518,-2.192389,-0.164905,0.428099,-0.949040,-1.559172,-2.592771,2.029731,-2.050082,-0.511572,0.125767,0.210972,0.132651
9447.104000,1.688000,3,START d_bow,Note,59,B3,A,0.560958,0.307149,0.787822,0.105012,-1.553078,-2.336312,1.327609,-2.191762,-0.163218,0.425072,-0.947287,-1.559973,-2.592548,2.252037,-0.994437,-0.978703,0.106861,0.212988,0.130333
9447.112000,1.696000,3,START d_bow,Note,59,B3,A,0.552958,0.306796,0.788170,0.104730,-1.552539,-2.337396,1.328724,-2.191182,-0.161532,0.422113,-0.945566,-1.560758,-2.592351,1.836517,-1.176943,-0.600720,0.105390,0.210769,0.133703
9447.120000,1.704000,3,START d_bow,Note,59,B3,A,0.544958,0.306453,0.788507,0.104449,-1.552034,-2.338470,1.329713,-2.190619,-0.159892,0.419257,-0.943978,-1.561505,-2.592163,2.486886,-1.478244,-0.066776,0.127026,0.192506,0.111990
9447.128000,1.712000,3,START d_bow,Note,59,B3,A,0.536958,0.306086,0.788839,0.104170,-1.551487,-2.339498,1.330878,-2.190038,-0.158311,0.416510,-0.942321,-1.562260,-2.591959,2.241771,-2.316182,0.641725,0.145247,0.191697,0.114372
9447.136000,1.720000,3,START d_bow,Note,59,B3,A,0.528958,0.305779,0.789147,0.103887,-1.551024,-2.340446,1.331850,-2.189530,-0.156735,0.413804,-0.940802,-1.562948,-2.591780,2.417024,-1.982098,0.444343,0.155304,0.196484,0.105655
9447.144000,1.728000,3,START d_bow,Note,59,B3,A,0.520958,0.305433,0.789461,0.103609,-1.550510,-2.341496,1.332746,-2.188978,-0.155206,0.411185,-0.939385,-1.563644,-2.591621,2.224482,-0.244017,-0.905819,0.128286,0.220545,0.120133
9447.152000,1.736000,3,START d_bow,Note,59,B3,A,0.512958,0.305100,0.789763,0.103331,-1.550054,-2.342368,1.333752,-2.188453,-0.153729,0.408677,-0.937928,-1.564269,-2.591417,2.279475,-1.614535,0.321254,0.161691,0.194348,0.100737
9447.160000,1.744000,3,START d_bow,Note,59,B3,A,0.504958,0.304813,0.790035,0.103069,-1.549596,-2.343261,1.334731,-2.187989,-0.152304,0.406235,-0.936505,-1.564948,-2.591257,2.542477,-1.153695,0.003266,0.155361,0.207580,0.106693
9447.168000,1.752000,3,START d_bow,Note,59,B3,A,0.496958,0.304514,0.790301,0.102775,-1.549152,-2.344108,1.335614,-2.187517,-0.150904,0.403941,-0.935251,-1.565548,-2.591102,2.687038,-0.466835,-0.675865,0.143177,0.223775,0.102340
9447.176000,1.760000,3,START d_bow,Note,59,B3,A,0.488958,0.304222,0.790563,0.102536,-1.548736,-2.344948,1.336420,-2.187055,-0.149594,0.401700,-0.934006,-1.566124,-2.590946,2.539483,-1.394205,0.579318,0.165173,0.191083,0.094540
9447.184000,1.768000,3,START d_bow,Note,59,B3,A,0.480958,0.303972,0.790788,0.102264,-1.548266,-2.345686,1.337399,-2.186659,-0.148306,0.399587,-0.932733,-1.566724,-2.590837,2.714946,-0.480122,-0.619909,0.135032,0.221849,0.101533
9447.192000,1.776000,3,START d_bow,Note,59,B3,A,0.472958,0.303689,0.791037,0.102064,-1.547882,-2.346432,1.338168,-2.186216,-0.147123,0.397517,-0.931535,-1.567229,-2.590677,2.492982,-1.305697,0.362364,0.144187,0.190691,0.091712
9447.200000,1.784000,3,START d_bow,Note,59,B3,A,0.464958,0.303448,0.791257,0.101842,-1.547532,-2.347148,1.338883,-2.185833,-0.145958,0.395549,-0.930449,-1.567740,-2.590542,2.849688,-1.432105,0.108453,0.148029,0.197105,0.077231
9447.208000,1.792000,3,START d_bow,Note,59,B3,A,0.456958,0.303212,0.791463,0.101674,-1.547182,-2.347867,1.339612,-2.185465,-0.144927,0.393719,-0.929360,-1.568271,-2.590414,2.769754,-1.111465,0.052995,0.142407,0.198532,0.087420
9447.216000,1.800000,3,START d_bow,Note,59,B3,A,0.448958,0.302977,0.791675,0.101493,-1.546883,-2.348542,1.340213,-2.185094,-0.143879,0.391898,-0.928366,-1.568723,-2.590272,2.961839,-0.748713,0.252280,0.140984,0.188015,0.086053
9447.224000,1.808000,3,START d_bow,Note,59,B3,A,0.440958,0.302765,0.791862,0.101365,-1.546519,-2.349210,1.340790,-2.184758,-0.142964,0.390228,-0.927392,-1.569172,-2.590202,2.927140,-1.497733,0.772249,0.148192,0.184622,0.086943
9447.232000,1.816000,3,START d_bow,Note,59,B3,A,0.432958,0.302545,0.792047,0.101199,-1.546220,-2.349827,1.341398,-2.184419,-0.142039,0.388633,-0.926482,-1.569604,-2.590078,3.172622,-1.239228,0.500147,0.144533,0.182429,0.081431
9447.240000,1.824000,3,START d_bow,Note,59,B3,A,0.424958,0.302345,0.792220,0.101063,-1.545917,-2.350449,1.341966,-2.184108,-0.141177,0.387093,-0.925589,-1.570043,-2.589983,3.121415,-1.750839,0.997932,0.154109,0.179693,0.087651
9447.248000,1.832000,3,START d_bow,Note,59,B3,A,0.416958,0.302175,0.792374,0.100900,-1.545680,-2.350920,1.342518,-2.183840,-0.140333,0.385674,-0.924779,-1.570399,-2.589871,3.153013,-1.376693,0.860064,0.151647,0.179735,0.084551
9447.256000,1.840000,3,START d_bow,Note,59,B3,A,0.408958,0.301987,0.792525,0.100737,-1.545397,-2.351378,1.343125,-2.183556,-0.139543,0.384367,-0.923985,-1.570744,-2.589772,3.318005,-1.005067,0.415881,0.146168,0.195023,0.084512
9447.264000,1.848000,3,START d_bow,Note,59,B3,A,0.400958,0.301822,0.792668,0.100626,-1.545158,-2.351887,1.343533,-2.183297,-0.138829,0.383091,-0.923281,-1.571080,-2.589695,3.469250,-1.343434,0.358294,0.149918,0.196818,0.079109
9447.272000,1.856000,3,START d_bow,Note,59,B3,A,0.392958,0.301663,0.792807,0.100531,-1.544956,-2.352350,1.343899,-2.183049,-0.138165,0.381887,-0.922615,-1.571376,-2.589608,3.326979,-0.681198,0.206409,0.137758,0.193918,0.083677
9447.280000,1.864000,3,START d_bow,Note,59,B3,A,0.384958,0.301515,0.792926,0.100415,-1.544689,-2.352774,1.344309,-2.182822,-0.137539,0.380824,-0.922009,-1.571660,-2.589570,2.783533,-0.160737,-0.004030,0.139520,0.195915,0.083703
9447.288000,1.872000,3,START d_bow,Note,59,B3,A,0.376958,0.301389,0.793034,0.100313,-1.544512,-2.353162,1.344631,-2.182627,-0.136968,0.379841,-0.921481,-1.571924,-2.589507,3.490404,-0.746745,0.399443,0.140832,0.196868,0.086922
9447.296000,1.880000,3,START d_bow,Note,59,B3,A,0.368958,0.301254,0.793145,0.100262,-1.544319,-2.353548,1.344909,-2.182419,-0.136488,0.378923,-0.920951,-1.572155,-2.589455,3.019986,-0.602226,0.324448,0.153163,0.189111,0.075470
9447.304000,1.888000,3,START d_bow,Note,59,B3,A,0.360958,0.301159,0.793223,0.100145,-1.544161,-2.353806,1.345313,-2.182274,-0.135998,0.378150,-0.920477,-1.572386,-2.589395,3.300469,-0.834225,0.538684,0.147404,0.177830,0.069633
9447.312000,1.896000,3,START d_bow,Note,59,B3,A,0.352958,0.301028,0.793319,0.100080,-1.543949,-2.354173,1.345541,-2.182080,-0.135571,0.377390,-0.920072,-1.572586,-2.589375,3.500369,-1.263452,0.641008,0.147060,0.181161,0.071321
9447.320000,1.904000,3,START d_bow,Note,59,B3,A,0.344958,0.300963,0.793379,0.100027,-1.543818,-2.354367,1.345790,-2.181975,-0.135231,0.376786,-0.919694,-1.572739,-2.589351,3.289245,-0.458902,0.305396,0.146466,0.177584,0.067825
9447.328000,1.912000,3,START d_bow,Note,59,B3,A,0.336958,0.300870,0.793442,0.099952,-1.543721,-2.354543,1.346051,-2.181843,-0.134932,0.376319,-0.919405,-1.572867,-2.589284,3.354742,-0.929147,0.455077,0.149398,0.179733,0.076222
9447.336000,1.920000,3,START d_bow,Note,59,B3,A,0.328958,0.300824,0.793492,0.099929,-1.543636,-2.354740,1.346102,-2.181763,-0.134677,0.375829,-0.919177,-1.572972,-2.589283,3.211320,-0.666934,0.756045,0.147183,0.173922,0.080888
9447.344000,1.928000,3,START d_bow,Note,59,B3,A,0.320958,0.300772,0.793526,0.099878,-1.543511,-2.354895,1.346299,-2.181687,-0.134461,0.375489,-0.918959,-1.573095,-2.589283,3.723233,-1.099227,0.690795,0.151550,0.187256,0.071519
9447.352000,1.936000,3,START d_bow,Note,59,B3,A,0.312958,0.300765,0.793551,0.099863,-1.543559,-2.354923,1.346348,-2.181667,-0.134325,0.375229,-0.918822,-1.573132,-2.589228,3.635150,-1.136592,0.528737,0.146462,0.189930,0.072717
9447.360000,1.944000,3,START d_bow,Note,59,B3,A,0.304958,0.300740,0.793574,0.099845,-1.543532,-2.354957,1.346379,-2.181628,-0.134217,0.375046,-0.918733,-1.573136,-2.589216,3.471947,-1.227605,0.852525,0.149602,0.181857,0.073893
9447.368000,1.952000,3,START d_bow,Note,59,B3,A,0.296958,0.300779,0.793560,0.099842,-1.543538,-2.354917,1.346411,-2.181674,-0.134188,0.374993,-0.918682,-1.573155,-2.589235,3.314233,-1.358690,1.127246,0.154386,0.173675,0.079013
9447.376000,1.960000,1,START a_bow,Note,59,B3,A,0.288958,0.300817,0.793535,0.099825,-1.543561,-2.354884,1.346443,-2.181729,-0.134208,0.375075,-0.918722,-1.573187,-2.589247,3.429821,-1.694652,1.148238,0.152773,0.175153,0.077209
9447.384000,1.968000,1,START a_bow,Note,59,B3,A,0.280958,0.300810,0.793512,0.099871,-1.543612,-2.354895,1.346372,-2.181739,-0.134446,0.375457,-0.918916,-1.573186,-2.589231,3.656471,-1.081474,0.785967,0.152248,0.178035,0.069433
9447.392000,1.976000,1,START a_bow,Note,59,B3,A,0.272958,0.300874,0.793443,0.099901,-1.543697,-2.354768,1.346432,-2.181851,-0.134750,0.376011,-0.919117,-1.573208,-2.589231,3.472475,-0.728600,0.800426,0.154398,0.176863,0.062860
9447.400000,1.984000,1,START a_bow,Note,59,B3,A,0.264958,0.300923,0.793351,0.099925,-1.543697,-2.354741,1.346535,-2.181959,-0.135156,0.376797,-0.919431,-1.573311,-2.589279,3.062894,-0.621781,0.749915,0.146401,0.163259,0.053309
9447.408000,1.992000,1,START a_bow,Note,59,B3,A,0.256958,0.301025,0.793220,0.099983,-1.543704,-2.354682,1.346577,-2.182144,-0.135710,0.377810,-0.919853,-1.573422,-2.589382,3.099069,-0.293742,0.425767,0.144246,0.142383,0.022122
9447.416000,2.000000,1,START a_bow,Note,59,B3,A,0.248958,0.301077,0.793090,0.100037,-1.543706,-2.354618,1.346697,-2.182282,-0.136376,0.379062,-0.920356,-1.573523,-2.589443,2.741512,0.479913,-0.040758,0.131479,0.121603,-0.000268
9447.424000,2.008000,1,START a_bow,Note,59,B3,A,0.240958,0.301165,0.792923,0.100097,-1.543699,-2.354534,1.346821,-2.182477,-0.137161,0.380553,-0.920970,-1.573650,-2.589546,2.536437,0.767957,0.130118,0.134181,0.096051,-0.037597
9447.432000,2.016000,1,START a_bow,Note,59,B3,A,0.232958,0.301239,0.792744,0.100169,-1.543649,-2.354472,1.346946,-2.182665,-0.138047,0.382231,-0.921667,-1.573782,-2.589675,2.047931,1.128909,-0.140708,0.130323,0.056246,-0.076455
9447.440000,2.024000,1,START a_bow,Note,59,B3,A,0.224958,0.301325,0.792539,0.100269,-1.543582,-2.354507,1.346974,-2.182880,-0.139072,0.384126,-0.922521,-1.573972,-2.589849,1.854366,1.538918,-0.540423,0.122964,0.029439,-0.120221
9447.448000,2.032000,1,START a_bow,Note,59,B3,A,0.216958,0.301454,0.792297,0.100360,-1.543637,-2.354410,1.347054,-2.183166,-0.140217,0.386292,-0.923482,-1.574154,-2.589974,1.556055,1.114948,-0.115055,0.126688,-0.015556,-0.149433
9447.456000,2.040000,1,START a_bow,Note,59,B3,A,0.208958,0.301550,0.792054,0.100504,-1.543554,-2.354466,1.346999,-2.183415,-0.141477,0.388580,-0.924543,-1.574349,-2.590197,1.313010,1.065461,0.068242,0.125179,-0.024616,-0.156256
9447.464000,2.048000,1,START a_bow,Note,59,B3,A,0.200958,0.301636,0.791785,0.100603,-1.543437,-2.354462,1.347086,-2.183669,-0.142822,0.391157,-0.925707,-1.574549,-2.590419,1.221873,1.161407,-0.151362,0.124670,-0.023253,-0.150460
9447.472000,2.056000,1,START a_bow,Note,59,B3,A,0.192958,0.301775,0.791474,0.100707,-1.543407,-2.354415,1.347207,-2.184009,-0.144270,0.393931,-0.926949,-1.574811,-2.590628,1.216329,0.961555,-0.270147,0.139297,-0.013161,-0.159328
9447.480000,2.064000,1,START a_bow,Note,59,B3,A,0.184958,0.301880,0.791163,0.100865,-1.543331,-2.354538,1.347096,-2.184309,-0.145865,0.396886,-0.928391,-1.575080,-2.590888,1.418076,1.278102,-0.131476,0.133045,-0.007314,-0.147433
9447.488000,2.072000,1,START a_bow,Note,59,B3,A,0.176958,0.302027,0.790804,0.101001,-1.543234,-2.354485,1.347226,-2.184684,-0.147561,0.400106,-0.929814,-1.575352,-2.591164,1.447224,1.207419,-0.240387,0.137442,-0.008239,-0.150400
9447.496000,2.080000,1,START a_bow,Note,59,B3,A,0.168958,0.302200,0.790415,0.101179,-1.543123,-2.354463,1.347279,-2.185103,-0.149396,0.403516,-0.931336,-1.575652,-2.591491,1.199335,0.951642,-0.136761,0.141329,-0.005777,-0.148815
9447.504000,2.088000,1,START a_bow,Note,59,B3,A,0.160958,0.302365,0.790005,0.101350,-1.543050,-2.354504,1.347365,-2.185530,-0.151334,0.407145,-0.932980,-1.576030,-2.591790,1.404370,0.795574,0.140822,0.141269,-0.005193,-0.146863
9447.512000,2.096000,1,START a_bow,Note,59,B3,A,0.152958,0.302553,0.789552,0.101511,-1.542844,-2.354430,1.347610,-2.186004,-0.153376,0.411029,-0.934633,-1.576387,-2.592181,1.730088,0.727161,-0.228629,0.128599,0.008597,-0.142648
9447.520000,2.104000,1,START a_bow,Note,61,C#4,A,0.394958,0.302739,0.789086,0.101654,-1.542699,-2.354353,1.347867,-2.186488,-0.155457,0.415035,-0.936372,-1.576765,-2.592533,1.246405,0.711421,0.118041,0.134945,-0.006049,-0.134752
9447.528000,2.112000,1,START a_bow,Note,61,C#4,A,0.386958,0.302978,0.788587,0.101856,-1.542569,-2.354318,1.347891,-2.187042,-0.157657,0.419157,-0.938254,-1.577142,-2.592963,1.468520,0.910364,-0.088229,0.130451,0.014997,-0.120273
9447.536000,2.120000,1,START a_bow,Note,61,C#4,A,0.378958,0.303189,0.788079,0.102081,-1.542443,-2.354359,1.347977,-2.187578,-0.159972,0.423446,-0.940172,-1.577592,-2.593366,1.504057,0.422995,0.089459,0.129634,0.011418,-0.124279
9447.544000,2.128000,1,START a_bow,Note,61,C#4,A,0.370958,0.303447,0.787535,0.102292,-1.542359,-2.354286,1.348081,-2.188184,-0.162335,0.427878,-0.942153,-1.578020,-2.593782,1.581569,-0.066832,0.324919,0.129526,0.010590,-0.118223
9447.552000,2.136000,1,START a_bow,Note,61,C#4,A,0.362958,0.303722,0.786953,0.102506,-1.542224,-2.354174,1.348177,-2.188831,-0.164813,0.432554,-0.944250,-1.578433,-2.594260,1.538386,0.472864,0.329273,0.141657,0.016789,-0.118558
9447.560000,2.144000,1,START a_bow,Note,61,C#4,A,0.354958,0.303996,0.786349,0.102728,-1.542102,-2.354115,1.348359,-2.189493,-0.167377,0.437376,-0.946375,-1.578938,-2.594720,1.506152,0.590687,0.110960,0.140600,0.019573,-0.121046
9447.568000,2.152000,1,START a_bow,Note,61,C#4,A,0.346958,0.304271,0.785715,0.102960,-1.541924,-2.353971,1.348673,-2.190176,-0.170065,0.442431,-0.948503,-1.579431,-2.595208,1.669533,0.603082,0.233501,0.145995,0.019839,-0.124657
9447.576000,2.160000,1,START a_bow,Note,61,C#4,A,0.338958,0.304588,0.785047,0.103237,-1.541767,-2.353886,1.348852,-2.190922,-0.172853,0.447587,-0.950727,-1.579973,-2.595746,1.423175,1.188481,0.000702,0.141316,0.024808,-0.125920
9447.584000,2.168000,1,START a_bow,Note,61,C#4,A,0.330958,0.304884,0.784373,0.103488,-1.541595,-2.353763,1.349091,-2.191652,-0.175650,0.452830,-0.952984,-1.580491,-2.596273,1.292088,0.820940,0.010214,0.141594,0.019293,-0.130094
9447.592000,2.176000,1,START a_bow,Note,61,C#4,A,0.322958,0.305198,0.783669,0.103785,-1.541416,-2.353748,1.349204,-2.192419,-0.178571,0.458216,-0.955359,-1.581075,-2.596851,1.294196,0.546920,0.118688,0.148738,0.012462,-0.132328
9447.600000,2.184000,1,START a_bow,Note,61,C#4,A,0.314958,0.305536,0.782943,0.104145,-1.541281,-2.353722,1.349245,-2.193225,-0.181614,0.463697,-0.957751,-1.581660,-2.597438,1.412875,0.705310,0.096001,0.139235,0.017837,-0.126559
9447.608000,2.192000,1,START a_bow,Note,61,C#4,A,0.306958,0.305857,0.782197,0.104489,-1.541102,-2.353712,1.349405,-2.194029,-0.184712,0.469326,-0.960167,-1.582295,-2.598030,1.654079,-0.101812,0.672694,0.141880,0.015524,-0.125897
9447.616000,2.200000,1,START a_bow,Note,61,C#4,A,0.298958,0.306243,0.781399,0.104874,-1.540955,-2.353646,1.349473,-2.194931,-0.187939,0.475132,-0.962675,-1.582930,-2.598681,1.736260,0.268506,0.621788,0.148902,0.016127,-0.132413
9447.624000,2.208000,1,START a_bow,Note,61,C#4,A,0.290958,0.306619,0.780583,0.105211,-1.540717,-2.353529,1.349725,-2.195835,-0.191140,0.481005,-0.965144,-1.583581,-2.599359,1.105728,0.737092,0.737918,0.141203,0.015432,-0.117869
9447.632000,2.216000,1,START a_bow,Note,61,C#4,A,0.282958,0.306970,0.779804,0.105522,-1.540512,-2.353387,1.350086,-2.196694,-0.194162,0.486556,-0.967407,-1.584228,-2.599963,0.947862,-0.976280,0.992643,0.136560,0.015046,-0.107616
9447.640000,2.224000,1,START a_bow,Note,61,C#4,A,0.274958,0.307300,0.779062,0.105844,-1.540320,-2.353367,1.350100,-2.197505,-0.197067,0.491856,-0.969765,-1.584800,-2.600598,1.301327,0.689366,0.534972,0.135646,0.018632,-0.111266
9447.648000,2.232000,1,START a_bow,Note,61,C#4,A,0.266958,0.307679,0.778312,0.106161,-1.540199,-2.353202,1.350325,-2.198375,-0.199884,0.496962,-0.971875,-1.585399,-2.601178,1.093071,0.123723,0.285120,0.133907,0.027992,-0.108680
9447.656000,2.240000,1,START a_bow,Note,61,C#4,A,0.258958,0.307996,0.777605,0.106454,-1.540124,-2.353164,1.350417,-2.199158,-0.202593,0.501905,-0.974042,-1.585992,-2.601698,1.232056,0.994859,0.361528,0.137554,0.016033,-0.107750
9447.664000,2.248000,1,START a_bow,Note,61,C#4,A,0.250958,0.308346,0.776899,0.106736,-1.540007,-2.353046,1.350643,-2.199973,-0.205182,0.506618,-0.975999,-1.586590,-2.602240,1.785103,0.118582,0.132037,0.129591,0.023949,-0.109857
9447.672000,2.256000,1,START a_bow,Note,61,C#4,A,0.242958,0.308652,0.776228,0.106967,-1.539811,-2.352908,1.350850,-2.200719,-0.207612,0.511148,-0.977923,-1.587094,-2.602799,1.939389,0.319575,0.430073,0.132941,0.029823,-0.105609
9447.680000,2.264000,1,START a_bow,Note,61,C#4,A,0.234958,0.308936,0.775602,0.107244,-1.539669,-2.352869,1.350964,-2.201413,-0.209952,0.515359,-0.979704,-1.587613,-2.603305,1.322402,0.502413,0.634028,0.131306,0.018816,-0.106784
9447.688000,2.272000,1,START a_bow,Note,61,C#4,A,0.226958,0.309187,0.775004,0.107496,-1.539470,-2.352806,1.351152,-2.202057,-0.212177,0.519397,-0.981369,-1.588093,-2.603805,0.789534,0.919564,0.654702,0.128578,0.010640,-0.112187
9447.696000,2.280000,1,START a_bow,Note,61,C#4,A,0.218958,0.309428,0.774437,0.107730,-1.539332,-2.352770,1.351308,-2.202672,-0.214274,0.523203,-0.982966,-1.588572,-2.604252,0.867713,0.624838,0.881720,0.131436,0.012572,-0.110237
9447.704000,2.288000,1,START a_bow,Note,61,C#4,A,0.210958,0.309670,0.773877,0.107929,-1.539201,-2.352694,1.351560,-2.203286,-0.216272,0.526885,-0.984475,-1.589059,-2.604672,1.198863,1.247606,-0.198731,0.116416,0.018554,-0.116150
9447.712000,2.296000,1,START a_bow,Note,61,C#4,A,0.202958,0.309910,0.773346,0.108147,-1.539043,-2.352637,1.351683,-2.203875,-0.218177,0.530338,-0.985920,-1.589483,-2.605123,1.293376,0.766589,0.704613,0.130598,0.015272,-0.120569
9447.720000,2.304000,1,START a_bow,Note,61,C#4,A,0.194958,0.310150,0.772834,0.108344,-1.538962,-2.352537,1.351808,-2.204457,-0.219986,0.533636,-0.987308,-1.589884,-2.605515,1.013481,0.680363,0.759545,0.127494,0.002017,-0.111368
9447.728000,2.312000,1,START a_bow,Note,61,C#4,A,0.186958,0.310382,0.772349,0.108572,-1.538888,-2.352487,1.351870,-2.205011,-0.221738,0.536734,-0.988600,-1.590280,-2.605898,1.111893,0.898518,0.518177,0.123602,0.012498,-0.112563
9447.736000,2.320000,1,START a_bow,Note,61,C#4,A,0.178958,0.310592,0.771890,0.108755,-1.538790,-2.352383,1.352107,-2.205527,-0.223351,0.539646,-0.989730,-1.590670,-2.606238,1.130022,0.427155,1.099475,0.132697,0.005281,-0.111262
9447.744000,2.328000,1,START a_bow,Note,61,C#4,A,0.170958,0.310824,0.771452,0.108967,-1.538739,-2.352315,1.352096,-2.206050,-0.224888,0.542340,-0.990874,-1.591002,-2.606601,1.177699,0.577312,0.647594,0.129706,0.016690,-0.114404
9447.752000,2.336000,1,START a_bow,Note,61,C#4,A,0.162958,0.311004,0.771053,0.109109,-1.538681,-2.352299,1.352218,-2.206497,-0.226258,0.544847,-0.991935,-1.591372,-2.606894,0.637410,0.749916,0.813656,0.127242,-0.000098,-0.106652
9447.760000,2.344000,1,START a_bow,Note,61,C#4,A,0.154958,0.311181,0.770676,0.109261,-1.538599,-2.352199,1.352316,-2.206925,-0.227567,0.547214,-0.992904,-1.591643,-2.607197,0.665245,1.145124,0.821850,0.127800,0.006893,-0.106290
9447.768000,2.352000,1,START a_bow,Note,62,D4,A,0.396958,0.311354,0.770323,0.109404,-1.538572,-2.352154,1.352364,-2.207335,-0.228776,0.549388,-0.993832,-1.591937,-2.607460,1.263485,1.118890,0.590936,0.120188,0.018828,-0.107870
9447.776000,2.360000,1,START a_bow,Note,62,D4,A,0.388958,0.311488,0.770004,0.109562,-1.538444,-2.352147,1.352460,-2.207680,-0.229924,0.551392,-0.994617,-1.592210,-2.607743,0.916583,1.297328,0.161103,0.115234,0.014448,-0.112331
9447.784000,2.368000,1,START a_bow,Note,62,D4,A,0.380958,0.311633,0.769701,0.109614,-1.538406,-2.352008,1.352633,-2.208030,-0.230867,0.553243,-0.995390,-1.592430,-2.607952,0.939605,1.098954,0.442891,0.121708,0.007438,-0.121424
9447.792000,2.376000,1,START a_bow,Note,62,D4,A,0.372958,0.311728,0.769440,0.109730,-1.538301,-2.352062,1.352704,-2.208299,-0.231803,0.554910,-0.996081,-1.592689,-2.608176,0.903751,0.832848,0.863319,0.132349,0.004679,-0.122031
9447.800000,2.384000,1,START a_bow,Note,62,D4,A,0.364958,0.311835,0.769198,0.109822,-1.538275,-2.351979,1.352795,-2.208569,-0.232643,0.556440,-0.996698,-1.592862,-2.608344,0.718106,1.269350,0.590915,0.121790,-0.000348,-0.114156
9447.808000,2.392000,1,START a_bow,Note,62,D4,A,0.356958,0.311929,0.768980,0.109931,-1.538168,-2.352009,1.352784,-2.208805,-0.233408,0.557776,-0.997269,-1.593042,-2.608566,0.985499,1.099289,0.777196,0.123019,0.007086,-0.117726
9447.816000,2.400000,1,START a_bow,Note,62,D4,A,0.348958,0.312007,0.768791,0.110032,-1.538125,-2.351989,1.352850,-2.209010,-0.234104,0.558976,-0.997727,-1.593201,-2.608710,0.759475,1.331739,0.264969,0.113372,0.010634,-0.108770
9447.824000,2.408000,1,START a_bow,Note,62,D4,A,0.340958,0.312080,0.768630,0.110108,-1.538145,-2.352031,1.352843,-2.209194,-0.234673,0.559967,-0.998171,-1.593379,-2.608811,0.571994,1.551110,0.268354,0.113371,0.007312,-0.106145
9447.832000,2.416000,1,START a_bow,Note,62,D4,A,0.332958,0.312166,0.768486,0.110190,-1.538153,-2.351932,1.352826,-2.209377,-0.235177,0.560820,-0.998507,-1.593434,-2.608923,0.549379,1.893484,0.116130,0.115713,0.007652,-0.114062
9447.840000,2.424000,1,START a_bow,Note,62,D4,A,0.324958,0.312204,0.768380,0.110256,-1.538099,-2.351941,1.352830,-2.209484,-0.235578,0.561498,-0.998776,-1.593514,-2.609026,0.574257,1.266600,0.675426,0.127278,0.003402,-0.111085
9447.848000,2.432000,1,START a_bow,Note,62,D4,A,0.316958,0.312255,0.768281,0.110277,-1.538075,-2.351914,1.352897,-2.209601,-0.235875,0.562066,-0.999001,-1.593605,-2.609102,0.852637,1.036040,0.683943,0.124234,0.002826,-0.116379
9447.856000,2.440000,1,START a_bow,Note,62,D4,A,0.308958,0.312239,0.768242,0.110308,-1.538075,-2.351909,1.352911,-2.209614,-0.236099,0.562455,-0.999156,-1.593617,-2.609107,0.948442,0.995399,0.611658,0.129110,0.012236,-0.119473
9447.864000,2.448000,1,START a_bow,Note,62,D4,A,0.300958,0.312265,0.768203,0.110313,-1.538113,-2.351844,1.352949,-2.209668,-0.236212,0.562676,-0.999233,-1.593629,-2.609107,1.006493,1.166286,0.504139,0.133971,0.008469,-0.122896
9447.872000,2.456000,2,END a_bow,Note,62,D4,A,0.292958,0.312252,0.768202,0.110307,-1.538094,-2.351837,1.353034,-2.209657,-0.236224,0.562713,-0.999206,-1.593645,-2.609095,0.989961,1.036132,0.717359,0.135560,0.007189,-0.122030
9447.880000,2.464000,2,END a_bow,Note,62,D4,A,0.284958,0.312235,0.768213,0.110285,-1.538084,-2.351835,1.352993,-2.209633,-0.236188,0.562701,-0.999249,-1.593606,-2.609095,1.352719,1.734925,0.464566,0.124855,0.008905,-0.123141
9447.888000,2.472000,2,END a_bow,Note,62,D4,A,0.276958,0.312170,0.768232,0.110255,-1.537953,-2.351872,1.353212,-2.209554,-0.236157,0.562705,-0.999149,-1.593638,-2.609091,0.769563,0.471324,0.594014,0.121730,0.007378,-0.115706
9447.896000,2.480000,2,END a_bow,Note,62,D4,A,0.268958,0.312191,0.768230,0.110244,-1.538059,-2.351832,1.353142,-2.209580,-0.236137,0.562690,-0.999201,-1.593619,-2.609048,1.127350,0.942901,0.499797,0.120650,0.005540,-0.120673
9447.904000,2.488000,1,START a_bow,Note,62,D4,A,0.260958,0.312140,0.768248,0.110222,-1.537881,-2.351920,1.353242,-2.209510,-0.236089,0.562650,-0.999146,-1.593641,-2.609107,0.816713,1.151126,0.057207,0.114856,0.013104,-0.100893
9447.912000,2.496000,1,START a_bow,Note,62,D4,A,0.252958,0.312084,0.768312,0.110183,-1.537856,-2.352019,1.353157,-2.209410,-0.235893,0.562346,-0.999105,-1.593605,-2.609079,1.205012,1.329861,0.663878,0.117840,0.004381,-0.106035
9447.920000,2.504000,1,START a_bow,Note,62,D4,A,0.244958,0.312045,0.768372,0.110116,-1.537836,-2.352014,1.353294,-2.209331,-0.235638,0.561973,-0.998905,-1.593593,-2.609016,1.403170,0.476117,0.684203,0.120556,0.030617,-0.094289
9447.928000,2.512000,1,START a_bow,Note,62,D4,A,0.236958,0.311988,0.768477,0.110099,-1.537856,-2.352060,1.353149,-2.209203,-0.235337,0.561395,-0.998722,-1.593475,-2.608953,1.656977,-0.002361,1.092624,0.141322,0.048226,-0.072909
9447.936000,2.520000,1,START a_bow,Note,62,D4,A,0.228958,0.311979,0.768560,0.110025,-1.537861,-2.352045,1.353190,-2.209137,-0.234938,0.560746,-0.998446,-1.593430,-2.608900,1.509098,-0.394963,1.173645,0.147277,0.072514,-0.038855
9447.944000,2.528000,1,START a_bow,Note,62,D4,A,0.220958,0.311869,0.768716,0.109959,-1.537880,-2.352149,1.353171,-2.208924,-0.234466,0.559917,-0.998127,-1.593346,-2.608757,1.865001,-0.993282,1.420022,0.157509,0.092155,-0.020501
9447.952000,2.536000,1,START a_bow,Note,62,D4,A,0.212958,0.311811,0.768872,0.109895,-1.537858,-2.352267,1.353001,-2.208755,-0.233895,0.558893,-0.997794,-1.593239,-2.608703,2.258919,-0.556474,0.755763,0.142827,0.144690,0.022830
9447.960000,2.544000,1,START a_bow,Note,62,D4,A,0.204958,0.311719,0.769062,0.109836,-1.537849,-2.352361,1.352900,-2.208532,-0.233267,0.557729,-0.997334,-1.593100,-2.608592,2.187563,-1.293158,1.717142,0.174087,0.150314,0.044964
9447.968000,2.552000,1,START a_bow,Note,62,D4,A,0.196958,0.311639,0.769274,0.109756,-1.537963,-2.352393,1.352776,-2.208312,-0.232534,0.556392,-0.996823,-1.592929,-2.608401,2.467927,-0.749270,0.361591,0.178796,0.221985,0.073590
9447.976000,2.560000,1,START a_bow,Note,62,D4,A,0.188958,0.311531,0.769513,0.109677,-1.537970,-2.352473,1.352656,-2.208041,-0.231726,0.554901,-0.996226,-1.592737,-2.608253,2.568090,-0.681533,0.385255,0.178910,0.255576,0.100842
9447.984000,2.568000,1,START a_bow,Note,62,D4,A,0.180958,0.311407,0.769776,0.109542,-1.538026,-2.352512,1.352631,-2.207742,-0.230786,0.553272,-0.995566,-1.592540,-2.608034,2.418232,0.008823,-0.046572,0.180483,0.241342,0.101279
9447.992000,2.576000,1,START a_bow,Note,62,D4,A,0.172958,0.311294,0.770059,0.109425,-1.538059,-2.352527,1.352636,-2.207439,-0.229771,0.551432,-0.994744,-1.592327,-2.607821,2.682828,-0.574370,0.275077,0.170126,0.238138,0.097571
9448.000000,2.584000,1,START a_bow,Note,62,D4,A,0.164958,0.311171,0.770369,0.109303,-1.538177,-2.352483,1.352566,-2.207111,-0.228691,0.549474,-0.993908,-1.592034,-2.607551,2.227165,-1.311707,1.192472,0.184952,0.215882,0.093334
9448.008000,2.592000,1,START a_bow,Note,62,D4,A,0.156958,0.311011,0.770717,0.109190,-1.538294,-2.352570,1.352423,-2.206720,-0.227535,0.547328,-0.993036,-1.591769,-2.607256,2.352568,-0.948109,0.578465,0.169760,0.220112,0.100363
9448.016000,2.600000,1,START a_bow,Note,59,B3,A,0.398958,0.310886,0.771073,0.109089,-1.538426,-2.352599,1.352212,-2.206357,-0.226299,0.544994,-0.992079,-1.591454,-2.606983,2.856248,-0.429909,-0.048602,0.161975,0.241889,0.101567
9448.024000,2.608000,1,START a_bow,Note,59,B3,A,0.390958,0.310728,0.771471,0.108979,-1.538604,-2.352566,1.352091,-2.205938,-0.224963,0.542461,-0.990966,-1.591091,-2.606625,2.589465,-0.707869,0.244980,0.170028,0.234739,0.101248
9448.032000,2.616000,1,START a_bow,Note,59,B3,A,0.382958,0.310566,0.771883,0.108814,-1.538680,-2.352592,1.351912,-2.205498,-0.223472,0.539762,-0.989871,-1.590716,-2.606336,2.328334,-1.607473,1.510215,0.198392,0.204706,0.077624
9448.040000,2.624000,1,START a_bow,Note,59,B3,A,0.374958,0.310372,0.772331,0.108638,-1.538808,-2.352644,1.351843,-2.205008,-0.221887,0.536871,-0.988632,-1.590379,-2.605957,2.788677,0.119848,-0.092856,0.167072,0.249077,0.096087
9448.048000,2.632000,1,START a_bow,Note,59,B3,A,0.366958,0.310201,0.772791,0.108431,-1.538952,-2.352658,1.351662,-2.204531,-0.220167,0.533791,-0.987394,-1.589979,-2.605598,2.192308,-0.296666,0.061830,0.170138,0.237817,0.094771
9448.056000,2.640000,1,START a_bow,Note,59,B3,A,0.358958,0.309951,0.773305,0.108215,-1.538995,-2.352711,1.351589,-2.203939,-0.218338,0.530506,-0.985993,-1.589545,-2.605215,2.331120,-1.210087,0.644254,0.193061,0.230688,0.079983
9448.064000,2.648000,1,START a_bow,Note,59,B3,A,0.350958,0.309731,0.773821,0.107964,-1.539129,-2.352681,1.351579,-2.203379,-0.216410,0.527092,-0.984519,-1.589113,-2.604776,2.382470,-0.059589,-0.202468,0.179560,0.249545,0.097712
9448.072000,2.656000,1,START a_bow,Note,59,B3,A,0.342958,0.309502,0.774360,0.107696,-1.539245,-2.352666,1.351544,-2.202795,-0.214366,0.523480,-0.982979,-1.588661,-2.604340,2.491678,-0.817203,0.415133,0.191104,0.238148,0.080542
9448.080000,2.664000,1,START a_bow,Note,59,B3,A,0.334958,0.309204,0.774957,0.107409,-1.539353,-2.352736,1.351376,-2.202103,-0.212182,0.519634,-0.981438,-1.588138,-2.603869,2.527641,-1.991868,1.650342,0.210946,0.215238,0.083448
9448.088000,2.672000,1,START a_bow,Note,59,B3,A,0.326958,0.308947,0.775558,0.107110,-1.539514,-2.352738,1.351313,-2.201452,-0.209878,0.515555,-0.979718,-1.587647,-2.603366,2.732084,-0.990988,0.402910,0.193215,0.244400,0.097022
9448.096000,2.680000,1,START a_bow,Note,59,B3,A,0.318958,0.308607,0.776205,0.106789,-1.539575,-2.352790,1.351348,-2.200686,-0.207482,0.511334,-0.977888,-1.587127,-2.602840,2.773817,-0.501552,0.033526,0.198444,0.254865,0.087602
9448.104000,2.688000,1,START a_bow,Note,59,B3,A,0.310958,0.308326,0.776858,0.106520,-1.539745,-2.352782,1.351224,-2.199978,-0.205030,0.506865,-0.975959,-1.586560,-2.602308,1.960113,-1.346660,0.998676,0.199756,0.220927,0.097235
9448.112000,2.696000,1,START a_bow,Note,59,B3,A,0.302958,0.308014,0.777556,0.106269,-1.539956,-2.352893,1.350952,-2.199209,-0.202460,0.502105,-0.973976,-1.585993,-2.601738,2.488699,-1.560214,0.862371,0.198331,0.225202,0.081616
9448.120000,2.704000,1,START a_bow,Note,59,B3,A,0.294958,0.307690,0.778274,0.105968,-1.540119,-2.352986,1.350732,-2.198414,-0.199732,0.497141,-0.971907,-1.585402,-2.601175,2.820859,-0.858653,-0.137384,0.181181,0.247972,0.094663
9448.128000,2.712000,1,START a_bow,Note,59,B3,A,0.286958,0.307349,0.779007,0.105677,-1.540244,-2.353094,1.350504,-2.197591,-0.196951,0.492044,-0.969759,-1.584791,-2.600622,3.021347,-0.607495,0.226999,0.187642,0.244469,0.090164
9448.136000,2.720000,1,START a_bow,Note,59,B3,A,0.278958,0.307000,0.779777,0.105382,-1.540511,-2.353185,1.350315,-2.196745,-0.194025,0.486632,-0.967438,-1.584194,-2.599950,2.861674,-1.081667,0.334053,0.181314,0.242809,0.099436
9448.144000,2.728000,1,START a_bow,Note,59,B3,A,0.270958,0.306643,0.780566,0.105085,-1.540721,-2.353292,1.350073,-2.195875,-0.190992,0.481010,-0.965040,-1.583559,-2.599311,2.873069,-1.362556,0.840631,0.190656,0.229526,0.092984
9448.152000,2.736000,1,START a_bow,Note,59,B3,A,0.262958,0.306269,0.781379,0.104753,-1.540883,-2.353385,1.349922,-2.194973,-0.187784,0.475109,-0.962475,-1.582916,-2.598668,2.409604,-1.288602,0.762686,0.191410,0.237228,0.094108
9448.160000,2.744000,1,START a_bow,Note,59,B3,A,0.254958,0.305983,0.782138,0.104456,-1.541150,-2.353398,1.349597,-2.194194,-0.184686,0.469360,-0.960047,-1.582253,-2.598064,2.426906,-0.703514,0.502415,0.194089,0.212749,0.076920
9448.168000,2.752000,1,START a_bow,Note,59,B3,A,0.246958,0.305617,0.782901,0.104121,-1.541333,-2.353465,1.349441,-2.193336,-0.181623,0.463774,-0.957652,-1.581626,-2.597434,2.507525,-1.518760,1.066586,0.215472,0.221840,0.076002
9448.176000,2.760000,1,START a_bow,Note,59,B3,A,0.238958,0.305284,0.783631,0.103817,-1.541467,-2.353640,1.349164,-2.192529,-0.178626,0.458255,-0.955347,-1.581066,-2.596893,2.998187,-0.969271,0.801375,0.200771,0.218577,0.071485
9448.184000,2.768000,1,START a_bow,Note,59,B3,A,0.230958,0.304947,0.784337,0.103508,-1.541561,-2.353696,1.349122,-2.191735,-0.175701,0.452891,-0.952955,-1.580507,-2.596342,2.521327,-1.305036,0.582007,0.205876,0.218474,0.074327
9448.192000,2.776000,1,START a_bow,Note,59,B3,A,0.222958,0.304635,0.785005,0.103182,-1.541661,-2.353712,1.349101,-2.190993,-0.172844,0.447714,-0.950662,-1.579964,-2.595815,2.859908,-1.411868,0.735968,0.211032,0.208817,0.071898
9448.200000,2.784000,1,START a_bow,Note,59,B3,A,0.214958,0.304338,0.785653,0.102882,-1.541761,-2.353821,1.348983,-2.190277,-0.170046,0.442597,-0.948449,-1.579479,-2.595324,2.848562,-1.377954,0.503717,0.193846,0.214511,0.069352
9448.208000,2.792000,1,START a_bow,Note,59,B3,A,0.206958,0.304053,0.786278,0.102587,-1.541875,-2.353784,1.348891,-2.189591,-0.167333,0.437654,-0.946275,-1.578910,-2.594836,2.844423,-1.682402,0.840329,0.195871,0.208673,0.072053
9448.216000,2.800000,1,START a_bow,Note,59,B3,A,0.198958,0.303814,0.786862,0.102342,-1.542044,-2.353841,1.348774,-2.188978,-0.164756,0.432853,-0.944156,-1.578477,-2.594360,2.815194,-1.382739,0.729440,0.188540,0.214897,0.083369
9448.224000,2.808000,1,START a_bow,Note,59,B3,A,0.190958,0.303542,0.787445,0.102157,-1.542239,-2.353936,1.348606,-2.188337,-0.162329,0.428209,-0.942086,-1.578037,-2.593859,2.473033,-0.421765,-0.450736,0.158596,0.231532,0.084141
9448.232000,2.816000,1,START a_bow,Note,59,B3,A,0.182958,0.303280,0.788002,0.101989,-1.542324,-2.354124,1.348288,-2.187714,-0.159979,0.423704,-0.940169,-1.577606,-2.593474,2.988151,-1.420200,0.792672,0.179674,0.201670,0.070968
9448.240000,2.824000,1,START a_bow,Note,59,B3,A,0.174958,0.303054,0.788525,0.101797,-1.542485,-2.354187,1.348083,-2.187155,-0.157677,0.419357,-0.938278,-1.577181,-2.593055,3.037106,-0.655405,0.655054,0.171362,0.210684,0.070658
9448.248000,2.832000,1,START a_bow,Note,59,B3,A,0.166958,0.302820,0.789026,0.101594,-1.542623,-2.354232,1.348039,-2.186604,-0.155457,0.415194,-0.936392,-1.576809,-2.592624,2.833161,-1.337512,0.515926,0.163188,0.209716,0.082704
9448.256000,2.840000,1,START a_bow,Note,59,B3,A,0.158958,0.302602,0.789498,0.101404,-1.542698,-2.354314,1.347898,-2.186084,-0.153327,0.411205,-0.934642,-1.576437,-2.592276,3.039824,-1.563184,0.930858,0.172941,0.199235,0.078444
9448.264000,2.848000,1,START a_bow,Note,59,B3,A,0.150958,0.302362,0.789966,0.101211,-1.542786,-2.354367,1.347792,-2.185546,-0.151253,0.407338,-0.932934,-1.576047,-2.591901,2.428985,-0.712029,0.028159,0.161233,0.220237,0.091325
9448.272000,2.856000,1,START a_bow,Note,57,A3,A,0.642958,0.302180,0.790378,0.101015,-1.542816,-2.354438,1.347692,-2.185098,-0.149285,0.403708,-0.931349,-1.575730,-2.591620,2.720232,-1.129935,0.972624,0.178553,0.193630,0.079074
9448.280000,2.864000,1,START a_bow,Note,57,A3,A,0.634958,0.301991,0.790780,0.100850,-1.542926,-2.354519,1.347515,-2.184655,-0.147441,0.400255,-0.929877,-1.575410,-2.591302,3.327296,-0.068947,-0.114490,0.159639,0.230293,0.090783
9448.288000,2.872000,1,START a_bow,Note,57,A3,A,0.626958,0.301818,0.791144,0.100678,-1.542936,-2.354567,1.347498,-2.184248,-0.145701,0.397035,-0.928420,-1.575134,-2.591045,2.921881,-1.553166,0.972644,0.177212,0.202489,0.079718
9448.296000,2.880000,1,START a_bow,Note,57,A3,A,0.618958,0.301679,0.791480,0.100506,-1.543074,-2.354521,1.347447,-2.183900,-0.144061,0.394024,-0.927087,-1.574840,-2.590742,3.012686,-1.048002,0.620918,0.169848,0.196306,0.078669
9448.304000,2.888000,1,START a_bow,Note,57,A3,A,0.610958,0.301531,0.791789,0.100363,-1.543101,-2.354514,1.347502,-2.183556,-0.142575,0.391259,-0.925778,-1.574600,-2.590499,2.927237,-0.453695,-0.270254,0.152561,0.223672,0.091746
9448.312000,2.896000,1,START a_bow,Note,57,A3,A,0.602958,0.301368,0.792090,0.100244,-1.543119,-2.354655,1.347388,-2.183201,-0.141186,0.388644,-0.924653,-1.574403,-2.590287,2.992468,-1.203061,0.678744,0.162245,0.187686,0.070623
9448.320000,2.904000,1,START a_bow,Note,57,A3,A,0.594958,0.301270,0.792345,0.100135,-1.543190,-2.354646,1.347315,-2.182941,-0.139921,0.386266,-0.923590,-1.574184,-2.590090,2.831939,-0.448690,-0.477604,0.138532,0.217435,0.091241
9448.328000,2.912000,1,START a_bow,Note,57,A3,A,0.586958,0.301150,0.792589,0.100041,-1.543246,-2.354750,1.347155,-2.182666,-0.138772,0.384093,-0.922691,-1.574007,-2.589911,3.111114,-0.928642,0.692361,0.152804,0.184576,0.077476
9448.336000,2.920000,1,START a_bow,Note,57,A3,A,0.578958,0.301043,0.792814,0.099996,-1.543338,-2.354799,1.347038,-2.182419,-0.137776,0.382111,-0.921798,-1.573831,-2.589715,3.242977,-1.632107,0.973913,0.157989,0.186857,0.073327
9448.344000,2.928000,1,START a_bow,Note,57,A3,A,0.570958,0.300981,0.792998,0.099985,-1.543394,-2.354846,1.346854,-2.182238,-0.136933,0.380373,-0.921027,-1.573672,-2.589599,3.171975,-1.446818,1.100985,0.156622,0.181145,0.079321
9448.352000,2.936000,1,START a_bow,Note,57,A3,A,0.562958,0.300878,0.793175,0.099942,-1.543449,-2.354943,1.346746,-2.182024,-0.136167,0.378871,-0.920384,-1.573556,-2.589448,2.956002,-0.504738,0.250285,0.143073,0.202881,0.082175
9448.360000,2.944000,1,START a_bow,Note,57,A3,A,0.554958,0.300844,0.793304,0.099931,-1.543511,-2.354986,1.346606,-2.181907,-0.135543,0.377588,-0.919825,-1.573460,-2.589360,3.304401,-1.010439,0.723474,0.144044,0.198458,0.093555
9448.368000,2.952000,1,START a_bow,Note,57,A3,A,0.546958,0.300764,0.793422,0.099873,-1.543494,-2.354991,1.346584,-2.181752,-0.135010,0.376620,-0.919402,-1.573333,-2.589279,2.845105,-0.929929,0.979056,0.168426,0.189976,0.078275
9448.376000,2.960000,1,START a_bow,Note,57,A3,A,0.538958,0.300748,0.793488,0.099820,-1.543503,-2.355015,1.346631,-2.181695,-0.134594,0.375877,-0.919054,-1.573331,-2.589228,3.079066,-0.961756,0.651037,0.155967,0.197036,0.080473
9448.384000,2.968000,1,START a_bow,Note,57,A3,A,0.530958,0.300698,0.793555,0.099830,-1.543479,-2.355147,1.346533,-2.181600,-0.134345,0.375326,-0.918838,-1.573323,-2.589204,3.252652,-0.441119,0.216780,0.137976,0.202822,0.094570
9448.392000,2.976000,1,START a_bow,Note,57,A3,A,0.522958,0.300709,0.793564,0.099796,-1.543435,-2.355098,1.346641,-2.181603,-0.134201,0.375112,-0.918687,-1.573319,-2.589216,2.938672,-0.713712,0.536044,0.133666,0.187871,0.096001
9448.400000,2.984000,2,END a_bow,Note,57,A3,A,0.514958,0.300759,0.793551,0.099798,-1.543520,-2.355048,1.346548,-2.181662,-0.134185,0.375076,-0.918722,-1.573304,-2.589212,3.400170,-1.386219,1.055974,0.150364,0.190521,0.086164
9448.408000,2.992000,2,END a_bow,Note,57,A3,A,0.506958,0.300740,0.793550,0.099789,-1.543456,-2.355045,1.346661,-2.181643,-0.134196,0.375120,-0.918677,-1.573319,-2.589223,2.982843,-2.617174,1.370452,0.151908,0.184091,0.075755
9448.416000,3.000000,2,END a_bow,Note,57,A3,A,0.498958,0.300762,0.793547,0.099824,-1.543488,-2.355078,1.346579,-2.181667,-0.134221,0.375081,-0.918675,-1.573338,-2.589231,2.940642,-1.477011,0.957358,0.143433,0.187662,0.076017
9448.424000,3.008000,1,START a_bow,Note,57,A3,A,0.490958,0.300762,0.793554,0.099853,-1.543501,-2.355158,1.346390,-2.181660,-0.134229,0.375034,-0.918749,-1.573326,-2.589254,2.738607,-0.502628,0.323241,0.138921,0.195008,0.082967
9448.432000,3.016000,1,START a_bow,Note,57,A3,A,0.482958,0.300815,0.793519,0.099875,-1.543613,-2.355054,1.346346,-2.181739,-0.134368,0.375270,-0.918864,-1.573307,-2.589235,2.877179,-0.188882,0.213975,0.140057,0.199391,0.084061
9448.440000,3.024000,1,START a_bow,Note,57,A3,A,0.474958,0.300864,0.793463,0.099904,-1.543660,-2.354933,1.346462,-2.181826,-0.134623,0.375721,-0.918972,-1.573331,-2.589235,2.483642,-2.019799,0.891415,0.159129,0.175118,0.065505
9448.448000,3.032000,1,START a_bow,Note,57,A3,A,0.466958,0.300883,0.793400,0.099959,-1.543666,-2.354930,1.346490,-2.181887,-0.135004,0.376378,-0.919232,-1.573386,-2.589264,2.849102,-0.020271,-0.082109,0.139012,0.187475,0.073067
9448.456000,3.040000,1,START a_bow,Note,57,A3,A,0.458958,0.300964,0.793293,0.100019,-1.543653,-2.354837,1.346478,-2.182034,-0.135487,0.377248,-0.919601,-1.573415,-2.589367,2.394661,-0.666244,0.612726,0.149504,0.148360,0.037271
9448.464000,3.048000,1,START a_bow,Note,57,A3,A,0.450958,0.301023,0.793175,0.100073,-1.543660,-2.354773,1.346538,-2.182169,-0.136081,0.378354,-0.920065,-1.573490,-2.589435,2.246817,0.007792,0.355683,0.139747,0.122522,0.004710
9448.472000,3.056000,1,START a_bow,Note,57,A3,A,0.442958,0.301090,0.793026,0.100085,-1.543643,-2.354656,1.346694,-2.182333,-0.136748,0.379723,-0.920646,-1.573578,-2.589519,1.841799,0.516619,0.179664,0.138970,0.104321,-0.009376
9448.480000,3.064000,1,START a_bow,Note,57,A3,A,0.434958,0.301158,0.792855,0.100121,-1.543561,-2.354505,1.346906,-2.182509,-0.137557,0.381334,-0.921277,-1.573655,-2.589646,1.650696,1.671335,-0.828062,0.119152,0.084504,-0.049456
9448.488000,3.072000,1,START a_bow,Note,57,A3,A,0.426958,0.301276,0.792650,0.100184,-1.543564,-2.354365,1.347021,-2.182760,-0.138486,0.383123,-0.922039,-1.573778,-2.589778,1.691091,1.021089,-0.463684,0.124168,0.050299,-0.097884
9448.496000,3.080000,1,START a_bow,Note,57,A3,A,0.418958,0.301371,0.792433,0.100249,-1.543578,-2.354295,1.347070,-2.182996,-0.139531,0.385155,-0.922983,-1.573922,-2.589906,1.564374,1.390186,-0.427606,0.116924,0.016759,-0.129413
9448.504000,3.088000,1,START a_bow,Note,57,A3,A,0.410958,0.301486,0.792185,0.100354,-1.543558,-2.354243,1.347156,-2.183269,-0.140735,0.387413,-0.923973,-1.574117,-2.590073,0.850043,1.357644,-0.413451,0.104019,-0.015040,-0.141741
9448.512000,3.096000,1,START a_bow,Note,57,A3,A,0.402958,0.301566,0.791938,0.100506,-1.543484,-2.354385,1.347038,-2.183503,-0.142059,0.389813,-0.925140,-1.574349,-2.590293,1.311786,1.072996,-0.338196,0.112153,-0.008739,-0.142902
9448.520000,3.104000,1,START a_bow,Note,57,A3,A,0.894958,0.301706,0.791643,0.100643,-1.543434,-2.354350,1.347075,-2.183830,-0.143480,0.392452,-0.926322,-1.574573,-2.590524,1.230461,0.703622,0.047953,0.110989,-0.009294,-0.132601
9448.528000,3.112000,1,START a_bow,Note,57,A3,A,0.886958,0.301847,0.791324,0.100783,-1.543387,-2.354357,1.347061,-2.184173,-0.145020,0.395333,-0.927666,-1.574825,-2.590772,1.494454,0.705996,0.135830,0.117539,-0.000061,-0.131601
9448.536000,3.120000,1,START a_bow,Note,57,A3,A,0.878958,0.301971,0.790990,0.100923,-1.543285,-2.354403,1.347043,-2.184508,-0.146651,0.398415,-0.929123,-1.575088,-2.591055,1.344701,0.886756,0.117213,0.118208,-0.006945,-0.133960
9448.544000,3.128000,1,START a_bow,Note,57,A3,A,0.870958,0.302119,0.790620,0.101095,-1.543168,-2.354379,1.347209,-2.184892,-0.148439,0.401728,-0.930531,-1.575404,-2.591342,1.237043,0.716416,-0.194574,0.120357,-0.001159,-0.138700
9448.552000,3.136000,1,START a_bow,Note,57,A3,A,0.862958,0.302314,0.790210,0.101253,-1.543132,-2.354282,1.347319,-2.185349,-0.150318,0.405274,-0.932107,-1.575708,-2.591631,1.437181,0.700308,-0.050853,0.130507,0.001787,-0.128145
9448.560000,3.144000,1,START a_bow,Note,57,A3,A,0.854958,0.302458,0.789789,0.101394,-1.542980,-2.354336,1.347450,-2.185761,-0.152289,0.409055,-0.933834,-1.576087,-2.591966,0.969633,0.941710,0.019415,0.125433,0.002984,-0.118073
9448.568000,3.152000,1,START a_bow,Note,57,A3,A,0.846958,0.302654,0.789328,0.101571,-1.542831,-2.354330,1.347615,-2.186249,-0.154372,0.412982,-0.935561,-1.576489,-2.592341,1.047190,0.740261,0.439726,0.126747,0.004188,-0.112921
9448.576000,3.160000,1,START a_bow,Note,57,A3,A,0.838958,0.302830,0.788856,0.101739,-1.542606,-2.354286,1.347866,-2.186724,-0.156516,0.417061,-0.937309,-1.576869,-2.592744,1.236986,0.028951,0.216772,0.134226,0.011976,-0.119874
9448.584000,3.168000,1,START a_bow,Note,57,A3,A,0.830958,0.303093,0.788343,0.101946,-1.542536,-2.354263,1.347910,-2.187313,-0.158737,0.421203,-0.939191,-1.577304,-2.593151,1.308654,0.630469,-0.131010,0.133329,0.015326,-0.115719
9448.592000,3.176000,1,START a_bow,Note,57,A3,A,0.822958,0.303319,0.787807,0.102147,-1.542369,-2.354237,1.348086,-2.187881,-0.161095,0.425648,-0.941148,-1.577751,-2.593586,1.529225,0.871971,-0.292493,0.130256,0.019434,-0.120345
9448.600000,3.184000,1,START a_bow,Note,57,A3,A,0.814958,0.303573,0.787251,0.102367,-1.542282,-2.354216,1.348149,-2.188491,-0.163523,0.430193,-0.943213,-1.578208,-2.594014,1.680717,0.444042,0.091646,0.131220,0.013563,-0.116196
9448.608000,3.192000,1,START a_bow,Note,57,A3,A,0.806958,0.303856,0.786653,0.102607,-1.542159,-2.354160,1.348298,-2.189157,-0.166077,0.434951,-0.945302,-1.578707,-2.594484,1.582324,0.567106,0.140412,0.127324,0.017895,-0.117309
9448.616000,3.200000,1,START a_bow,Note,57,A3,A,0.798958,0.304129,0.786041,0.102878,-1.542001,-2.354165,1.348379,-2.189821,-0.168732,0.439842,-0.947473,-1.579217,-2.594991,1.213668,0.664844,0.245943,0.128992,0.018917,-0.113362
9448.624000,3.208000,1,START a_bow,Note,57,A3,A,0.790958,0.304429,0.785387,0.103124,-1.541832,-2.354014,1.348703,-2.190543,-0.171458,0.444942,-0.949603,-1.579741,-2.595494,0.936559,0.034334,0.647160,0.135995,0.013735,-0.105122
9448.632000,3.216000,1,START a_bow,Note,57,A3,A,0.782958,0.304754,0.784713,0.103404,-1.541684,-2.353891,1.348888,-2.191301,-0.174258,0.450114,-0.951820,-1.580265,-2.596032,1.749429,-0.049753,0.174034,0.131498,0.025677,-0.121603
9448.640000,3.224000,1,START a_bow,Note,57,A3,A,0.774958,0.305030,0.784034,0.103678,-1.541493,-2.353861,1.349136,-2.192016,-0.177122,0.455431,-0.954100,-1.580848,-2.596561,1.190348,-0.263570,0.594977,0.137846,0.011623,-0.116424
9448.648000,3.232000,1,START a_bow,Note,57,A3,A,0.766958,0.305379,0.783297,0.103958,-1.541335,-2.353755,1.349396,-2.192841,-0.180083,0.460935,-0.956449,-1.581466,-2.597132,1.214804,-0.237226,0.482608,0.143336,0.013946,-0.117103
9448.656000,3.240000,1,START a_bow,Note,57,A3,A,0.758958,0.305729,0.782556,0.104326,-1.541184,-2.353712,1.349458,-2.193668,-0.183159,0.466467,-0.958841,-1.582058,-2.597740,1.259831,0.020512,0.286166,0.133224,0.015625,-0.114583
9448.664000,3.248000,1,START a_bow,Note,57,A3,A,0.750958,0.306081,0.781786,0.104690,-1.541043,-2.353699,1.349459,-2.194518,-0.186326,0.472201,-0.961389,-1.582670,-2.598366,1.333861,1.224996,0.518357,0.131087,0.018716,-0.113521
9448.672000,3.256000,1,START a_bow,Note,57,A3,A,0.742958,0.306446,0.780982,0.105025,-1.540816,-2.353574,1.349753,-2.195405,-0.189513,0.478044,-0.963818,-1.583320,-2.599016,0.761534,0.756027,0.462777,0.140841,0.021438,-0.105347
9448.680000,3.264000,1,START a_bow,Note,57,A3,A,0.734958,0.306806,0.780175,0.105366,-1.540592,-2.353498,1.349978,-2.196287,-0.192693,0.483861,-0.966280,-1.583979,-2.599675,1.373878,1.268385,-0.707732,0.126197,0.035235,-0.112501
9448.688000,3.272000,1,START a_bow,Note,57,A3,A,0.726958,0.307135,0.779432,0.105672,-1.540442,-2.353541,1.349944,-2.197099,-0.195599,0.489201,-0.968728,-1.584593,-2.600290,2.102436,1.464679,-0.074909,0.131238,0.035492,-0.105872
9448.696000,3.280000,1,START a_bow,Note,57,A3,A,0.718958,0.307522,0.778662,0.105988,-1.540304,-2.353313,1.350289,-2.197992,-0.198496,0.494473,-0.970836,-1.585203,-2.600874,1.001992,-0.305885,0.854608,0.122945,0.008944,-0.096211
9448.704000,3.288000,1,START a_bow,Note,57,A3,A,0.710958,0.307863,0.777939,0.106285,-1.540139,-2.353287,1.350387,-2.198803,-0.201217,0.499439,-0.973001,-1.585812,-2.601472,1.642301,-0.446253,0.916843,0.121907,0.019774,-0.091329
9448.712000,3.296000,1,START a_bow,Note,57,A3,A,0.702958,0.308182,0.777234,0.106562,-1.540017,-2.353127,1.350709,-2.199589,-0.203874,0.504305,-0.974975,-1.586391,-2.601981,1.018646,-0.200426,1.009100,0.120160,0.015626,-0.090531
9448.720000,3.304000,1,START a_bow,Note,57,A3,A,0.694958,0.308473,0.776557,0.106812,-1.539816,-2.353017,1.350942,-2.200324,-0.206387,0.508955,-0.976928,-1.586919,-2.602530,1.234802,0.167373,0.739599,0.118543,0.030407,-0.097030
9448.728000,3.312000,1,START a_bow,Note,57,A3,A,0.686958,0.308779,0.775909,0.107084,-1.539718,-2.352982,1.351014,-2.201055,-0.208784,0.513298,-0.978816,-1.587461,-2.603038,0.827455,0.651589,0.875649,0.122825,0.010973,-0.096555
9448.736000,3.320000,1,START a_bow,Note,57,A3,A,0.678958,0.309064,0.775294,0.107380,-1.539589,-2.352916,1.351125,-2.201745,-0.211101,0.517409,-0.980518,-1.587957,-2.603535,1.219496,0.496029,0.616894,0.124951,0.023654,-0.102964
9448.744000,3.328000,1,START a_bow,Note,57,A3,A,0.670958,0.309317,0.774699,0.107591,-1.539353,-2.352855,1.351406,-2.202388,-0.213235,0.521358,-0.982128,-1.588468,-2.604040,1.022529,1.117182,0.477200,0.122165,0.018352,-0.097759
9448.752000,3.336000,1,START a_bow,Note,57,A3,A,0.662958,0.309574,0.774135,0.107820,-1.539269,-2.352838,1.351459,-2.203019,-0.215284,0.525079,-0.983759,-1.588944,-2.604480,0.952044,1.095299,0.360296,0.124954,0.022422,-0.109567
9448.760000,3.344000,1,START a_bow,Note,57,A3,A,0.654958,0.309791,0.773603,0.108034,-1.539143,-2.352749,1.351700,-2.203591,-0.217244,0.528643,-0.985192,-1.589384,-2.604873,0.863712,0.654135,0.559174,0.126219,0.017125,-0.102271
9448.768000,3.352000,1,START a_bow,Note,57,A3,A,0.646958,0.310041,0.773071,0.108241,-1.539032,-2.352687,1.351839,-2.204192,-0.219120,0.532056,-0.986624,-1.589831,-2.605295,1.038926,1.079444,0.096551,0.114938,0.026863,-0.103798
9448.776000,3.360000,1,START a_bow,Note,57,A3,A,0.638958,0.310277,0.772577,0.108456,-1.538972,-2.352599,1.351884,-2.204757,-0.220890,0.535230,-0.987977,-1.590199,-2.605679,0.886577,0.821541,0.917453,0.125733,0.010783,-0.102846
9448.784000,3.368000,1,START a_bow,Note,57,A3,A,0.630958,0.310488,0.772106,0.108654,-1.538821,-2.352539,1.352091,-2.205279,-0.222559,0.538227,-0.989154,-1.590607,-2.606066,1.293172,0.906694,0.657369,0.115102,0.015715,-0.101834
9448.792000,3.376000,1,START a_bow,Note,57,A3,A,0.622958,0.310704,0.771656,0.108844,-1.538733,-2.352485,1.352135,-2.205794,-0.224136,0.541061,-0.990365,-1.590959,-2.606437,1.333151,1.021660,0.384675,0.115720,0.024384,-0.103376
9448.800000,3.384000,1,START a_bow,Note,57,A3,A,0.614958,0.310918,0.771230,0.109020,-1.538691,-2.352398,1.352291,-2.206294,-0.225605,0.543689,-0.991414,-1.591329,-2.606745,0.858173,0.385544,0.866185,0.123986,0.011252,-0.105473
9448.808000,3.392000,1,START a_bow,Note,57,A3,A,0.606958,0.311108,0.770845,0.109186,-1.538656,-2.352335,1.352321,-2.206741,-0.226947,0.546085,-0.992436,-1.591627,-2.607041,1.465284,1.059447,0.436237,0.118229,0.026299,-0.105964
9448.816000,3.400000,1,START a_bow,Note,57,A3,A,0.598958,0.311285,0.770469,0.109307,-1.538547,-2.352309,1.352468,-2.207167,-0.228184,0.548375,-0.993388,-1.591973,-2.607351,1.062453,1.357289,0.468890,0.111593,0.023666,-0.099303
9448.824000,3.408000,1,START a_bow,Note,57,A3,A,0.590958,0.311456,0.770129,0.109463,-1.538501,-2.352187,1.352550,-2.207567,-0.229373,0.550474,-0.994217,-1.592206,-2.607615,0.792604,1.120189,0.785421,0.125864,0.015237,-0.106569
9448.832000,3.416000,1,START a_bow,Note,57,A3,A,0.582958,0.311571,0.769831,0.109602,-1.538393,-2.352250,1.352649,-2.207879,-0.230445,0.552362,-0.994982,-1.592517,-2.607863,1.009016,0.908524,0.763659,0.126575,0.010839,-0.114533
9448.840000,3.424000,1,START a_bow,Note,57,A3,A,0.574958,0.311706,0.769543,0.109684,-1.538383,-2.352182,1.352742,-2.208210,-0.231390,0.554137,-0.995745,-1.592752,-2.608056,1.161175,1.107292,0.514712,0.124942,0.014122,-0.113825
9448.848000,3.432000,1,START a_bow,Note,57,A3,A,0.566958,0.311803,0.769292,0.109793,-1.538278,-2.352139,1.352807,-2.208474,-0.232287,0.555748,-0.996398,-1.592925,-2.608279,0.938794,1.517732,0.189685,0.112430,0.010031,-0.114652
9448.856000,3.440000,1,START a_bow,Note,57,A3,A,0.558958,0.311912,0.769055,0.109865,-1.538256,-2.352043,1.352960,-2.208744,-0.233071,0.557209,-0.996963,-1.593114,-2.608431,0.656845,1.626639,-0.226927,0.107147,0.016448,-0.102331
9448.864000,3.448000,1,START a_bow,Note,57,A3,A,0.550958,0.311965,0.768866,0.109970,-1.538164,-2.352087,1.352949,-2.208921,-0.233804,0.558484,-0.997511,-1.593262,-2.608607,0.961423,1.680160,0.115308,0.114591,0.020214,-0.105088
9448.872000,3.456000,1,START a_bow,Note,57,A3,A,0.542958,0.312051,0.768679,0.110054,-1.538119,-2.352066,1.353039,-2.209133,-0.234449,0.559617,-0.997939,-1.593437,-2.608751,0.786405,1.347097,0.379941,0.117067,0.011193,-0.109418
9448.880000,3.464000,1,START a_bow,Note,57,A3,A,0.534958,0.312118,0.768531,0.110123,-1.538079,-2.352078,1.353010,-2.209297,-0.234961,0.560522,-0.998347,-1.593554,-2.608886,1.092996,1.208302,0.559039,0.113269,0.003687,-0.110620
9448.888000,3.472000,1,START a_bow,Note,57,A3,A,0.526958,0.312187,0.768408,0.110198,-1.538136,-2.352021,1.353028,-2.209453,-0.235414,0.561273,-0.998632,-1.593646,-2.608940,0.794441,1.146146,0.722118,0.113956,0.005087,-0.101911
9448.896000,3.480000,1,START a_bow,Note,57,A3,A,0.518958,0.312242,0.768298,0.110233,-1.538069,-2.352043,1.353057,-2.209580,-0.235751,0.561894,-0.998896,-1.593761,-2.609059,0.731626,1.093381,0.795462,0.119866,0.001774,-0.102627
9448.904000,3.488000,1,START a_bow,Note,57,A3,A,0.510958,0.312287,0.768223,0.110281,-1.538112,-2.352001,1.353012,-2.209676,-0.236027,0.562351,-0.999100,-1.593790,-2.609098,0.869155,1.675059,0.196520,0.117013,0.019057,-0.098336
9448.912000,3.496000,1,START a_bow,Note,57,A3,A,0.502958,0.312266,0.768199,0.110311,-1.538105,-2.352001,1.353046,-2.209673,-0.236196,0.562625,-0.999185,-1.593800,-2.609095,1.038287,1.692087,0.063801,0.121939,0.027892,-0.099497
9448.920000,3.504000,1,START a_bow,Note,57,A3,A,0.494958,0.312263,0.768175,0.110285,-1.538102,-2.351932,1.353160,-2.209689,-0.236260,0.562824,-0.999237,-1.593802,-2.609083,1.180319,1.578034,0.208356,0.117102,0.025335,-0.104944
9448.928000,3.512000,2,END a_bow,Note,57,A3,A,0.486958,0.312224,0.768197,0.110284,-1.538045,-2.352014,1.353183,-2.209634,-0.236228,0.562757,-0.999201,-1.593824,-2.609083,0.526526,1.396820,-0.022214,0.105737,0.019703,-0.098791
9448.936000,3.520000,2,END a_bow,Note,57,A3,A,0.478958,0.312222,0.768194,0.110270,-1.537994,-2.351953,1.353293,-2.209633,-0.236212,0.562762,-0.999135,-1.593809,-2.609095,0.589343,1.195405,0.497256,0.120554,0.009289,-0.111215
9448.944000,3.528000,2,END a_bow,Note,57,A3,A,0.470958,0.312205,0.768197,0.110239,-1.537999,-2.351960,1.353319,-2.209616,-0.236192,0.562796,-0.999178,-1.593813,-2.609076,1.040705,1.416091,0.701523,0.120661,0.008605,-0.105825
9448.952000,3.536000,1,START a_bow,Note,57,A3,A,0.462958,0.312182,0.768206,0.110237,-1.537937,-2.351954,1.353356,-2.209585,-0.236184,0.562789,-0.999146,-1.593786,-2.609091,0.797973,0.962738,0.217106,0.106403,0.014008,-0.094197
9448.960000,3.544000,1,START a_bow,Note,57,A3,A,0.454958,0.312124,0.768251,0.110184,-1.537844,-2.352048,1.353433,-2.209493,-0.236025,0.562590,-0.999070,-1.593806,-2.609083,1.155580,0.536614,0.628101,0.109134,0.023013,-0.095967
9448.968000,3.552000,1,START a_bow,Note,57,A3,A,0.446958,0.312119,0.768295,0.110148,-1.537831,-2.352070,1.353405,-2.209457,-0.235813,0.562243,-0.998954,-1.593781,-2.609074,1.624117,0.193031,1.100753,0.122087,0.018461,-0.099052
9448.976000,3.560000,1,START a_bow,Note,57,A3,A,0.438958,0.312050,0.768381,0.110074,-1.537792,-2.352071,1.353478,-2.209330,-0.235510,0.561798,-0.998763,-1.593706,-2.609007,1.429559,0.542343,0.582341,0.114806,0.048118,-0.069915
9448.984000,3.568000,1,START a_bow,Note,57,A3,A,0.430958,0.312000,0.768482,0.110033,-1.537804,-2.352154,1.353348,-2.209210,-0.235169,0.561194,-0.998595,-1.593631,-2.608951,1.696343,0.238615,0.819696,0.126784,0.061791,-0.056138
9448.992000,3.576000,1,START a_bow,Note,57,A3,A,0.422958,0.311926,0.768610,0.109953,-1.537741,-2.352218,1.353325,-2.209047,-0.234702,0.560426,-0.998310,-1.593534,-2.608898,1.818304,-0.438369,1.101685,0.134665,0.085672,-0.026024
9449.000000,3.584000,1,START a_bow,Note,57,A3,A,0.414958,0.311869,0.768755,0.109911,-1.537841,-2.352258,1.353240,-2.208895,-0.234226,0.559525,-0.997958,-1.593435,-2.608752,2.138725,-0.713686,1.067195,0.142032,0.116558,0.006562
9449.008000,3.592000,1,START a_bow,Note,57,A3,A,0.406958,0.311787,0.768935,0.109864,-1.537837,-2.352391,1.353075,-2.208688,-0.233638,0.558417,-0.997562,-1.593315,-2.608660,2.103311,-0.158556,0.626464,0.139466,0.157897,0.051077
9449.016000,3.600000,1,START a_bow,Transition,transition,transition A->D,A-D,0.598958,0.311697,0.769133,0.109778,-1.537857,-2.352477,1.353012,-2.208464,-0.232943,0.557176,-0.997075,-1.593191,-2.608520,2.267922,-0.897839,1.056911,0.172242,0.188842,0.061136
9449.024000,3.608000,1,START a_bow,Transition,transition,transition A->D,A-D,0.590958,0.311614,0.769352,0.109704,-1.537879,-2.352512,1.352920,-2.208231,-0.232178,0.555764,-0.996488,-1.593007,-2.608379,2.543573,-1.044625,1.040263,0.181244,0.221173,0.091520
9449.032000,3.616000,1,START a_bow,Transition,transition,transition A->D,A-D,0.582958,0.311479,0.769617,0.109585,-1.537952,-2.352572,1.352836,-2.207921,-0.231279,0.554179,-0.995872,-1.592797,-2.608153,2.357838,0.193664,-0.125159,0.170976,0.264345,0.109788
9449.040000,3.624000,1,START a_bow,Transition,transition,transition A->D,A-D,0.574958,0.311333,0.769897,0.109457,-1.537966,-2.352583,1.352888,-2.207587,-0.230318,0.552484,-0.995109,-1.592573,-2.607925,2.338040,-1.392674,1.158201,0.188085,0.227282,0.096213
9449.048000,3.632000,1,START a_bow,Transition,transition,transition A->D,A-D,0.566958,0.311234,0.770189,0.109336,-1.538085,-2.352618,1.352752,-2.207294,-0.229255,0.550559,-0.994348,-1.592345,-2.607689,2.501633,0.095585,0.069894,0.165138,0.241842,0.104258
9449.056000,3.640000,1,START a_bow,Transition,transition,transition A->D,A-D,0.558958,0.311099,0.770514,0.109226,-1.538218,-2.352644,1.352637,-2.206944,-0.228150,0.548513,-0.993495,-1.592076,-2.607403,2.423549,0.032063,0.056201,0.163210,0.236785,0.103224
9449.064000,3.648000,1,START a_bow,Transition,transition,transition A->D,A-D,0.550958,0.310978,0.770860,0.109129,-1.538357,-2.352673,1.352396,-2.206591,-0.226962,0.546267,-0.992599,-1.591757,-2.607138,2.857014,-1.787239,1.704703,0.197665,0.207305,0.083512
9449.072000,3.656000,1,START a_bow,Transition,transition,transition A->D,A-D,0.542958,0.310832,0.771244,0.109028,-1.538557,-2.352703,1.352185,-2.206193,-0.225674,0.543814,-0.991587,-1.591430,-2.606796,2.710202,-0.046183,0.191501,0.167724,0.236011,0.107458
9449.080000,3.664000,1,START a_bow,Transition,transition,transition A->D,A-D,0.534958,0.310657,0.771650,0.108903,-1.538618,-2.352690,1.352087,-2.205746,-0.224291,0.541231,-0.990443,-1.591047,-2.606496,2.555600,-1.990399,1.882522,0.193121,0.207207,0.090962
9449.088000,3.672000,1,START a_bow,Transition,transition,transition A->D,A-D,0.526958,0.310498,0.772075,0.108716,-1.538774,-2.352725,1.351982,-2.205306,-0.222723,0.538408,-0.989275,-1.590726,-2.606137,2.645024,-0.977529,1.264304,0.177065,0.220261,0.097515
9449.096000,3.680000,1,START a_bow,Transition,transition,transition A->D,A-D,0.518958,0.310310,0.772532,0.108539,-1.538873,-2.352649,1.351929,-2.204815,-0.221087,0.535426,-0.987949,-1.590284,-2.605774,2.199738,-0.720752,0.590681,0.183704,0.238527,0.088001
9449.104000,3.688000,1,START a_bow,Transition,transition,transition A->D,A-D,0.510958,0.310084,0.773029,0.108330,-1.539003,-2.352746,1.351687,-2.204258,-0.219318,0.532252,-0.986718,-1.589861,-2.605387,2.661343,-1.995049,1.748817,0.214097,0.205609,0.075650
9449.112000,3.696000,1,START a_bow,Transition,transition,transition A->D,A-D,0.502958,0.309850,0.773547,0.108110,-1.539085,-2.352829,1.351567,-2.203679,-0.217438,0.528865,-0.985307,-1.589452,-2.604995,2.460817,-0.311105,0.433014,0.183636,0.238616,0.090554
9449.120000,3.704000,1,START a_bow,Transition,transition,transition A->D,A-D,0.494958,0.309604,0.774082,0.107858,-1.539189,-2.352829,1.351558,-2.203080,-0.215466,0.525362,-0.983791,-1.589009,-2.604554,2.364061,-1.944807,1.870931,0.222341,0.211796,0.078798
9449.128000,3.712000,1,START a_bow,Transition,transition,transition A->D,A-D,0.486958,0.309352,0.774646,0.107567,-1.539296,-2.352771,1.351553,-2.202458,-0.213334,0.521630,-0.982187,-1.588501,-2.604093,2.754586,-0.943491,0.233556,0.194474,0.250705,0.098636
9449.136000,3.720000,1,START a_bow,Transition,transition,transition A->D,A-D,0.478958,0.309097,0.775235,0.107278,-1.539450,-2.352813,1.351355,-2.201814,-0.211097,0.517677,-0.980611,-1.587991,-2.603626,2.990242,0.091024,-0.043111,0.187468,0.255657,0.098393
9449.144000,3.728000,1,START a_bow,Transition,transition,transition A->D,A-D,0.470958,0.308785,0.775857,0.106939,-1.539509,-2.352869,1.351402,-2.201092,-0.208726,0.513556,-0.978850,-1.587514,-2.603127,2.713026,-0.598589,0.140533,0.186761,0.254463,0.087803
9449.152000,3.736000,1,START a_bow,Transition,transition,transition A->D,A-D,0.462958,0.308464,0.776512,0.106645,-1.539610,-2.352862,1.351422,-2.200342,-0.206301,0.509207,-0.976920,-1.586959,-2.602587,2.762316,-1.103108,0.463591,0.191917,0.242728,0.099756
9449.160000,3.744000,1,START a_bow,Transition,transition,transition A->D,A-D,0.454958,0.308181,0.777189,0.106392,-1.539840,-2.352950,1.351101,-2.199615,-0.203777,0.504551,-0.975022,-1.586388,-2.602041,2.755709,-0.575037,-0.138925,0.185588,0.253540,0.095796
9449.168000,3.752000,1,START a_bow,Transition,transition,transition A->D,A-D,0.446958,0.307855,0.777899,0.106117,-1.539939,-2.353043,1.350889,-2.198821,-0.201120,0.499675,-0.972954,-1.585789,-2.601521,2.454582,-1.255460,0.799650,0.189736,0.226053,0.091751
9449.176000,3.760000,1,START a_bow,Transition,transition,transition A->D,A-D,0.438958,0.307541,0.778624,0.105816,-1.540247,-2.353085,1.350638,-2.198038,-0.198365,0.494645,-0.970874,-1.585182,-2.600872,3.076910,-1.796473,1.099141,0.205323,0.229683,0.081877
9449.184000,3.768000,1,START a_bow,Transition,transition,transition A->D,A-D,0.430958,0.307202,0.779372,0.105542,-1.540386,-2.353189,1.350459,-2.197209,-0.195529,0.489379,-0.968586,-1.584587,-2.600295,2.936001,-1.277984,0.348433,0.186481,0.248915,0.096471
9449.192000,3.776000,1,START a_bow,Transition,transition,transition A->D,A-D,0.422958,0.306844,0.780150,0.105248,-1.540597,-2.353283,1.350238,-2.196346,-0.192564,0.483892,-0.966239,-1.583955,-2.599657,3.125200,-1.310399,-0.222452,0.187541,0.250993,0.091944
9449.200000,3.784000,1,START a_bow,Transition,transition,transition A->D,A-D,0.414958,0.306441,0.780966,0.104895,-1.540765,-2.353420,1.350065,-2.195413,-0.189394,0.478124,-0.963793,-1.583316,-2.598995,3.211007,-0.499601,-0.271813,0.186965,0.250606,0.086988
9449.208000,3.792000,1,START a_bow,Transition,transition,transition A->D,A-D,0.406958,0.306140,0.781754,0.104618,-1.541083,-2.353529,1.349612,-2.194601,-0.186254,0.472236,-0.961373,-1.582665,-2.598359,3.427885,-0.864567,0.107513,0.193535,0.246056,0.085362
9449.216000,3.800000,1,START a_bow,Transition,transition,transition A->D,A-D,0.398958,0.305798,0.782511,0.104302,-1.541179,-2.353520,1.349629,-2.193767,-0.183186,0.466587,-0.958789,-1.582045,-2.597771,2.348532,-1.144962,-0.161820,0.172503,0.246590,0.097934
9449.224000,3.808000,1,START a_bow,Transition,transition,transition A->D,A-D,0.390958,0.305450,0.783261,0.103961,-1.541420,-2.353625,1.349316,-2.192937,-0.180134,0.461045,-0.956535,-1.581418,-2.597149,3.105746,-0.748981,0.423833,0.186174,0.234955,0.094950
9449.232000,3.816000,1,START a_bow,Transition,transition,transition A->D,A-D,0.382958,0.305120,0.783983,0.103673,-1.541542,-2.353686,1.349161,-2.192138,-0.177177,0.455567,-0.954131,-1.580819,-2.596598,2.664881,-0.441008,0.205950,0.180925,0.238196,0.094765
9449.240000,3.824000,1,START a_bow,Transition,transition,transition A->D,A-D,0.374958,0.304813,0.784661,0.103356,-1.541633,-2.353686,1.349213,-2.191395,-0.174284,0.450286,-0.951723,-1.580290,-2.596063,2.464544,-1.018078,0.213416,0.193356,0.239564,0.086220
9449.248000,3.832000,1,START a_bow,Transition,transition,transition A->D,A-D,0.366958,0.304504,0.785316,0.103024,-1.541751,-2.353783,1.349102,-2.190664,-0.171459,0.445193,-0.949556,-1.579790,-2.595548,2.530281,-1.857282,1.184434,0.210502,0.214550,0.075070
9449.256000,3.840000,1,START a_bow,Transition,transition,transition A->D,A-D,0.358958,0.304221,0.785955,0.102739,-1.541873,-2.353814,1.348990,-2.189969,-0.168699,0.440119,-0.947329,-1.579264,-2.595053,2.699863,-1.498374,0.528145,0.199597,0.222903,0.070607
9449.264000,3.848000,1,START a_bow,Transition,transition,transition A->D,A-D,0.350958,0.303941,0.786564,0.102454,-1.542003,-2.353882,1.348873,-2.189299,-0.166040,0.435256,-0.945224,-1.578787,-2.594569,2.768001,-1.604426,0.680162,0.189750,0.210875,0.073967
9449.272000,3.856000,1,START a_bow,Transition,transition,transition A->D,A-D,0.342958,0.303660,0.787153,0.102254,-1.542079,-2.353975,1.348730,-2.188638,-0.163565,0.430562,-0.943119,-1.578316,-2.594132,2.880089,-1.536895,0.403298,0.180850,0.209133,0.080319
9449.280000,3.864000,1,START a_bow,Transition,transition,transition A->D,A-D,0.334958,0.303423,0.787716,0.102069,-1.542264,-2.354073,1.348503,-2.188042,-0.161144,0.425940,-0.941098,-1.577888,-2.593677,2.829394,-0.761506,-0.226952,0.161487,0.228831,0.083198
9449.288000,3.872000,1,START a_bow,Transition,transition,transition A->D,A-D,0.326958,0.303163,0.788260,0.101869,-1.542412,-2.354171,1.348288,-2.187434,-0.158811,0.421545,-0.939203,-1.577449,-2.593239,3.175080,-1.686058,0.558018,0.168819,0.202057,0.078582
9449.296000,3.880000,1,START a_bow,Transition,transition,transition A->D,A-D,0.318958,0.302935,0.788775,0.101709,-1.542571,-2.354240,1.348122,-2.186879,-0.156589,0.417275,-0.937289,-1.577049,-2.592816,3.157135,-1.442721,0.926336,0.176496,0.202966,0.077530
9449.304000,3.888000,1,START a_bow,Transition,transition,transition A->D,A-D,0.310958,0.302722,0.789259,0.101487,-1.542667,-2.354262,1.347960,-2.186356,-0.154365,0.413176,-0.935523,-1.576622,-2.592455,2.948223,-0.620306,-0.304859,0.151644,0.229118,0.089405
9449.312000,3.896000,1,START a_bow,Transition,transition,transition A->D,A-D,0.302958,0.302507,0.789720,0.101308,-1.542774,-2.354378,1.347815,-2.185848,-0.152298,0.409282,-0.933823,-1.576294,-2.592092,2.981295,-1.163764,0.488731,0.168782,0.200469,0.073946
9449.320000,3.904000,1,START a_bow,Transition,transition,transition A->D,A-D,0.294958,0.302265,0.790174,0.101120,-1.542762,-2.354442,1.347773,-2.185314,-0.150271,0.405505,-0.932108,-1.575918,-2.591776,3.151507,-0.980593,-0.172577,0.169634,0.224549,0.077906
9449.328000,3.912000,1,START a_bow,Transition,transition,transition A->D,A-D,0.286958,0.302094,0.790578,0.100940,-1.542893,-2.354466,1.347640,-2.184887,-0.148363,0.401955,-0.930567,-1.575586,-2.591445,2.830956,-1.229707,0.923440,0.172914,0.204776,0.080260
9449.336000,3.920000,1,START a_bow,Transition,transition,transition A->D,A-D,0.278958,0.301902,0.790965,0.100767,-1.542951,-2.354560,1.347504,-2.184448,-0.146567,0.398626,-0.929142,-1.575287,-2.591158,3.025999,-0.412160,-0.298938,0.154038,0.221684,0.096403
9449.344000,3.928000,1,START a_bow,Transition,transition,transition A->D,A-D,0.270958,0.301746,0.791315,0.100605,-1.543002,-2.354583,1.347443,-2.184069,-0.144886,0.395506,-0.927750,-1.575002,-2.590898,2.846182,-1.324896,0.438687,0.173605,0.207178,0.081570
9449.352000,3.936000,1,START a_bow,Transition,transition,transition A->D,A-D,0.262958,0.301584,0.791643,0.100445,-1.543057,-2.354573,1.347505,-2.183701,-0.143326,0.392627,-0.926401,-1.574751,-2.590619,3.105312,-1.073329,0.172051,0.161232,0.214938,0.087545
9449.360000,3.944000,1,START a_bow,Transition,transition,transition A->D,A-D,0.254958,0.301458,0.791941,0.100327,-1.543118,-2.354649,1.347349,-2.183385,-0.141884,0.389902,-0.925235,-1.574523,-2.590410,2.853260,-0.723674,-0.112478,0.150897,0.222202,0.090189
9449.368000,3.952000,1,START a_bow,Transition,transition,transition A->D,A-D,0.246958,0.301314,0.792226,0.100208,-1.543193,-2.354692,1.347292,-2.183061,-0.140555,0.387410,-0.924125,-1.574304,-2.590167,2.978883,-1.566092,0.728114,0.161623,0.196634,0.083007
9449.376000,3.960000,1,START a_bow,Transition,transition,transition A->D,A-D,0.238958,0.301200,0.792474,0.100088,-1.543244,-2.354711,1.347247,-2.182791,-0.139334,0.385149,-0.923123,-1.574107,-2.589972,2.588987,-0.951615,0.273558,0.152203,0.198358,0.083063
9449.384000,3.968000,1,START a_bow,Transition,transition,transition A->D,A-D,0.230958,0.301092,0.792711,0.100052,-1.543303,-2.354798,1.347029,-2.182531,-0.138291,0.383055,-0.922225,-1.573905,-2.589811,2.833223,-0.831138,0.192731,0.142325,0.199171,0.085993
9449.392000,3.976000,1,START a_bow,Transition,transition,transition A->D,A-D,0.222958,0.301006,0.792909,0.099981,-1.543335,-2.354826,1.346955,-2.182319,-0.137333,0.381224,-0.921406,-1.573744,-2.589671,2.864248,-1.456089,0.869685,0.151152,0.187293,0.086421
9449.400000,3.984000,1,START a_bow,Transition,transition,transition A->D,A-D,0.214958,0.300944,0.793085,0.099965,-1.543428,-2.354896,1.346807,-2.182146,-0.136518,0.379547,-0.920661,-1.573631,-2.589527,2.852893,-1.409914,0.983440,0.154295,0.180133,0.082425
9449.408000,3.992000,1,START a_bow,Transition,transition,transition A->D,A-D,0.206958,0.300862,0.793244,0.099932,-1.543475,-2.354980,1.346667,-2.181963,-0.135815,0.378157,-0.920081,-1.573514,-2.589408,2.993736,-1.047875,0.239467,0.144410,0.202571,0.088738
9449.416000,4.000000,1,START a_bow,Transition,transition,transition A->D,A-D,0.198958,0.300818,0.793359,0.099869,-1.543510,-2.354945,1.346664,-2.181847,-0.135213,0.377053,-0.919577,-1.573403,-2.589312,2.815565,-0.796849,0.247089,0.147491,0.202257,0.093300
9449.424000,4.008000,1,START a_bow,Transition,transition,transition A->D,A-D,0.190958,0.300748,0.793461,0.099842,-1.543484,-2.355045,1.346629,-2.181711,-0.134769,0.376186,-0.919194,-1.573362,-2.589252,2.970763,-1.711847,0.982440,0.155395,0.185613,0.084419
9449.432000,4.016000,1,START a_bow,Transition,transition,transition A->D,A-D,0.182958,0.300721,0.793524,0.099803,-1.543472,-2.355044,1.346637,-2.181643,-0.134429,0.375573,-0.918915,-1.573311,-2.589216,3.076653,-0.138066,-0.221814,0.145067,0.212763,0.084856
9449.440000,4.024000,1,START a_bow,Transition,transition,transition A->D,A-D,0.174958,0.300707,0.793559,0.099782,-1.543423,-2.355100,1.346586,-2.181603,-0.134213,0.375182,-0.918774,-1.573295,-2.589235,2.697428,-1.099014,0.831748,0.160499,0.180786,0.077139
9449.448000,4.032000,1,START a_bow,Transition,transition,transition A->D,A-D,0.166958,0.300741,0.793557,0.099745,-1.543490,-2.354997,1.346656,-2.181642,-0.134109,0.375052,-0.918694,-1.573283,-2.589200,2.787067,-0.340402,-0.323311,0.143654,0.213082,0.089031
9449.456000,4.040000,2,END a_bow,Transition,transition,transition A->D,A-D,0.158958,0.300744,0.793551,0.099766,-1.543476,-2.354995,1.346639,-2.181647,-0.134164,0.375117,-0.918711,-1.573276,-2.589216,3.150980,-1.064841,0.250146,0.153535,0.183143,0.072975
9449.464000,4.048000,2,END a_bow,Transition,transition,transition A->D,A-D,0.150958,0.300732,0.793561,0.099780,-1.543502,-2.355116,1.346462,-2.181628,-0.134164,0.375084,-0.918813,-1.573295,-2.589219,3.291190,-0.173288,0.206299,0.154519,0.194586,0.071663
9449.472000,4.056000,2,END a_bow,Transition,transition,transition A->D,A-D,0.142958,0.300770,0.793544,0.099792,-1.543551,-2.355011,1.346554,-2.181679,-0.134196,0.375116,-0.918742,-1.573295,-2.589200,2.847264,-0.463081,-0.090731,0.141216,0.194890,0.085003
9449.480000,4.064000,1,START a_bow,Transition,transition,transition A->D,A-D,0.134958,0.300781,0.793543,0.099829,-1.543586,-2.355061,1.346447,-2.181691,-0.134236,0.375104,-0.918769,-1.573311,-2.589204,2.666978,-0.566977,0.924764,0.159355,0.175033,0.070092
9449.488000,4.072000,1,START a_bow,Transition,transition,transition A->D,A-D,0.126958,0.300827,0.793493,0.099859,-1.543570,-2.354941,1.346511,-2.181767,-0.134452,0.375486,-0.918867,-1.573292,-2.589250,2.711304,0.473133,-0.682309,0.146842,0.204982,0.077657
9449.496000,4.080000,1,START a_bow,Transition,transition,transition A->D,A-D,0.118958,0.300869,0.793435,0.099890,-1.543667,-2.354928,1.346455,-2.181851,-0.134746,0.376020,-0.919151,-1.573343,-2.589247,2.465025,-0.007381,0.163880,0.168311,0.183770,0.056086
9449.504000,4.088000,1,START a_bow,Transition,transition,transition A->D,A-D,0.110958,0.300928,0.793341,0.099919,-1.543651,-2.354803,1.346611,-2.181970,-0.135161,0.376814,-0.919407,-1.573391,-2.589303,2.317652,0.109972,0.168532,0.156354,0.163463,0.051634
9449.512000,4.096000,1,START a_bow,Transition,transition,transition A->D,A-D,0.102958,0.300971,0.793240,0.100011,-1.543627,-2.354841,1.346517,-2.182074,-0.135745,0.377811,-0.919880,-1.573458,-2.589403,2.145021,0.262385,0.157468,0.150197,0.141855,0.014956
9449.520000,4.104000,1,START a_bow,Note,55,G3,D,0.894958,0.301044,0.793096,0.100018,-1.543598,-2.354678,1.346748,-2.182242,-0.136361,0.379083,-0.920361,-1.573539,-2.589483,2.272256,0.701848,-0.543047,0.135125,0.128092,-0.012281
9449.528000,4.112000,1,START a_bow,Note,55,G3,D,0.886958,0.301126,0.792932,0.100058,-1.543573,-2.354552,1.346866,-2.182429,-0.137118,0.380576,-0.920994,-1.573619,-2.589594,1.927806,1.414338,-0.793906,0.123574,0.106704,-0.034962
9449.536000,4.120000,1,START a_bow,Note,55,G3,D,0.878958,0.301218,0.792737,0.100118,-1.543522,-2.354454,1.347030,-2.182645,-0.138031,0.382336,-0.921717,-1.573758,-2.589733,1.816949,1.510841,-0.916567,0.126609,0.073077,-0.081029
9449.544000,4.128000,1,START a_bow,Note,55,G3,D,0.870958,0.301284,0.792539,0.100163,-1.543522,-2.354364,1.347181,-2.182841,-0.139012,0.384277,-0.922568,-1.573893,-2.589827,0.845462,1.062958,-0.401975,0.119801,0.023772,-0.107078
9449.552000,4.136000,1,START a_bow,Note,55,G3,D,0.862958,0.301437,0.792284,0.100262,-1.543493,-2.354290,1.347212,-2.183154,-0.140157,0.386435,-0.923542,-1.574078,-2.590036,1.105144,0.876426,-0.250487,0.112411,-0.013579,-0.140131
9449.560000,4.144000,1,START a_bow,Note,55,G3,D,0.854958,0.301531,0.792033,0.100381,-1.543429,-2.354300,1.347279,-2.183407,-0.141426,0.388795,-0.924588,-1.574292,-2.590224,1.196628,0.288922,0.232404,0.112277,-0.019254,-0.140193
