srs827/Robot-Cello-ResidualRL/Data-Files/Big-Logs/g_c_d-log-detailed.csv
timestamp_robot,time_elapsed_sec,event_label,current_event_type,bow_direction,current_string,remaining_duration_sec,TCP_pose_x,TCP_pose_y,TCP_pose_z,TCP_pose_rx,TCP_pose_ry,TCP_pose_rz,q_base,q_shoulder,q_elbow,q_wrist1,q_wrist2,q_wrist3,qd_base,qd_shoulder,qd_elbow,qd_wrist1,qd_wrist2,qd_wrist3
4089.620000,0.000000,END d_bow,Note,0,D,0.998958,0.302731,0.747147,0.117586,-1.663379,-2.084111,1.038184,-2.217070,-0.373658,0.882464,-1.328633,-1.287627,-2.550145,0.000000,0.000000,-0.000000,-0.000000,-0.000000,-0.000000
4089.628000,0.008000,END d_bow,Note,0,D,0.990958,0.302721,0.747155,0.117601,-1.663386,-2.084146,1.038147,-2.217055,-0.373674,0.882456,-1.328645,-1.287634,-2.550133,0.000000,0.000000,-0.000000,-0.000000,-0.000000,-0.000000
4089.636000,0.016000,END d_bow,Note,0,D,0.982958,0.302722,0.747158,0.117636,-1.663350,-2.084194,1.038096,-2.217051,-0.373708,0.882432,-1.328621,-1.287641,-2.550164,0.000000,0.000000,-0.000000,-0.000000,-0.000000,-0.000000
4089.700000,0.080000,END d_bow,Note,0,D,0.918958,0.302736,0.747151,0.117604,-1.663401,-2.084114,1.038126,-2.217073,-0.373674,0.882448,-1.328645,-1.287618,-2.550133,0.000000,0.000000,-0.000000,-0.000000,-0.000000,-0.000000
4089.708000,0.088000,END d_bow,Note,0,D,0.910958,0.302698,0.747166,0.117600,-1.663376,-2.084195,1.038135,-2.217024,-0.373670,0.882448,-1.328663,-1.287646,-2.550122,0.000000,0.000000,-0.000000,-0.000000,-0.000000,-0.000000
4089.716000,0.096000,END d_bow,Note,0,D,0.902958,0.302711,0.747162,0.117606,-1.663381,-2.084171,1.038102,-2.217039,-0.373674,0.882445,-1.328670,-1.287626,-2.550129,0.000000,0.000000,-0.000000,-0.000000,-0.000000,-0.000000
4089.772000,0.152000,END d_bow,Note,0,D,0.846958,0.302735,0.747150,0.117602,-1.663409,-2.084155,1.038089,-2.217073,-0.373670,0.882448,-1.328683,-1.287641,-2.550133,0.000000,0.000000,-0.000000,-0.000000,-0.000000,-0.000000
4089.804000,0.184000,END d_bow,Note,0,D,0.814958,0.302711,0.747159,0.117627,-1.663334,-2.084177,1.038153,-2.217039,-0.373705,0.882448,-1.328598,-1.287634,-2.550164,0.000000,0.000000,-0.000000,-0.000000,-0.000000,-0.000000
4089.812000,0.192000,END d_bow,Note,0,D,0.806958,0.302726,0.747158,0.117632,-1.663401,-2.084181,1.038098,-2.217058,-0.373705,0.882432,-1.328633,-1.287653,-2.550129,0.000000,0.000000,-0.000000,-0.000000,-0.000000,-0.000000
4089.820000,0.200000,END d_bow,Note,0,D,0.798958,0.302723,0.747153,0.117609,-1.663389,-2.084137,1.038133,-2.217058,-0.373689,0.882468,-1.328648,-1.287626,-2.550133,0.000000,0.000000,-0.000000,-0.000000,-0.000000,-0.000000
4089.852000,0.232000,END d_bow,Note,0,D,0.766958,0.302750,0.747147,0.117597,-1.663398,-2.084113,1.038094,-2.217089,-0.373655,0.882432,-1.328664,-1.287615,-2.550149,0.000000,0.000000,-0.000000,-0.000000,-0.000000,-0.000000
4089.908000,0.288000,END d_bow,Note,0,D,0.710958,0.302715,0.747162,0.117610,-1.663376,-2.084183,1.038112,-2.217043,-0.373674,0.882432,-1.328652,-1.287641,-2.550137,0.000000,0.000000,-0.000000,-0.000000,-0.000000,-0.000000
4089.916000,0.296000,END d_bow,Note,0,D,0.702958,0.302744,0.747153,0.117615,-1.663389,-2.084124,1.038074,-2.217077,-0.373670,0.882417,-1.328648,-1.287607,-2.550149,0.000000,0.000000,-0.000000,-0.000000,-0.000000,-0.000000
4089.924000,0.304000,END d_bow,Note,0,D,0.694958,0.302713,0.747164,0.117608,-1.663374,-2.084158,1.038115,-2.217039,-0.373670,0.882432,-1.328648,-1.287618,-2.550133,0.000000,0.000000,-0.000000,-0.000000,-0.000000,-0.000000
4089.988000,0.368000,END d_bow,Note,0,D,0.630958,0.302745,0.747204,0.117679,-1.663374,-2.084313,1.037799,-2.217039,-0.373622,0.882149,-1.328647,-1.287634,-2.550161,0.000000,0.002054,-0.011291,0.003269,-0.000000,-0.000000
4090.012000,0.392000,END d_bow,Note,0,D,0.606958,0.302778,0.747263,0.117749,-1.663391,-2.084337,1.037636,-2.217027,-0.373542,0.881793,-1.328486,-1.287594,-2.550149,0.000379,0.006440,-0.017219,0.009359,0.000557,-0.000000
4090.020000,0.400000,END d_bow,Note,0,D,0.598958,0.302804,0.747277,0.117753,-1.663441,-2.084351,1.037643,-2.217046,-0.373490,0.881661,-1.328414,-1.287638,-2.550126,0.000841,0.008706,-0.019083,0.010254,0.000648,-0.000000
4090.028000,0.408000,END d_bow,Note,0,D,0.590958,0.302815,0.747304,0.117745,-1.663444,-2.084324,1.037660,-2.217038,-0.373403,0.881496,-1.328322,-1.287618,-2.550114,0.001689,0.011087,-0.020816,0.011739,0.001457,-0.000000
4090.036000,0.416000,END d_bow,Note,0,D,0.582958,0.302830,0.747332,0.117756,-1.663422,-2.084374,1.037578,-2.217029,-0.373323,0.881301,-1.328266,-1.287618,-2.550133,0.002406,0.013621,-0.023820,0.013123,0.000995,0.000477
4090.044000,0.424000,END d_bow,Note,0,D,0.574958,0.302832,0.747369,0.117735,-1.663405,-2.084338,1.037599,-2.217002,-0.373203,0.881105,-1.328170,-1.287570,-2.550121,0.003126,0.014278,-0.025766,0.013261,0.001884,0.001254
4090.108000,0.488000,END d_bow,Note,0,D,0.510958,0.302744,0.747910,0.117562,-1.663537,-2.084361,1.037781,-2.216528,-0.371798,0.878561,-1.327055,-1.287379,-2.549656,0.010817,0.031168,-0.056567,0.027955,0.005205,0.011593
4090.116000,0.496000,END d_bow,Note,0,D,0.502958,0.302731,0.748010,0.117524,-1.663577,-2.084303,1.037870,-2.216443,-0.371531,0.878088,-1.326809,-1.287319,-2.549553,0.013179,0.033756,-0.062085,0.032055,0.005820,0.011549
4090.124000,0.504000,END d_bow,Note,0,D,0.494958,0.302725,0.748132,0.117523,-1.663634,-2.084307,1.037836,-2.216351,-0.371255,0.877501,-1.326555,-1.287268,-2.549441,0.014037,0.035741,-0.069811,0.035065,0.006833,0.012338
4090.132000,0.512000,END d_bow,Note,0,D,0.486958,0.302694,0.748261,0.117494,-1.663614,-2.084324,1.037888,-2.216224,-0.370940,0.876904,-1.326265,-1.287208,-2.549361,0.015104,0.038884,-0.077055,0.036007,0.007266,0.011621
4090.212000,0.592000,END d_bow,Note,0,D,0.406958,0.302629,0.749545,0.117266,-1.663783,-2.084458,1.038180,-2.215231,-0.367634,0.870417,-1.323180,-1.286812,-2.548484,0.006429,0.029179,-0.063256,0.027558,0.004225,0.008244
4090.220000,0.600000,END d_bow,Note,0,D,0.398958,0.302670,0.749612,0.117273,-1.663825,-2.084413,1.038146,-2.215223,-0.367440,0.869984,-1.322965,-1.286773,-2.548443,0.004905,0.026838,-0.056593,0.023942,0.003138,0.006907
4090.228000,0.608000,END d_bow,Note,0,D,0.390958,0.302684,0.749683,0.117257,-1.663835,-2.084446,1.038150,-2.215186,-0.367226,0.869569,-1.322779,-1.286780,-2.548410,0.002680,0.022287,-0.047125,0.019812,0.003055,0.004890
4090.292000,0.672000,START d_bow,Transition,1,D-G,0.526958,0.302885,0.749605,0.117399,-1.664186,-2.084181,1.037811,-2.215456,-0.367446,0.869649,-1.322837,-1.286741,-2.548335,-0.017898,-0.038853,0.070192,-0.029466,-0.003800,-0.006065
4090.316000,0.696000,START d_bow,Transition,1,D-G,0.502958,0.302947,0.749119,0.117547,-1.664280,-2.084054,1.037796,-2.215880,-0.368779,0.872076,-1.323849,-1.286947,-2.548571,-0.023136,-0.068316,0.130931,-0.061981,-0.011766,-0.019382
4090.324000,0.704000,START d_bow,Transition,1,D-G,0.494958,0.302983,0.748881,0.117599,-1.664248,-2.083991,1.037776,-2.216087,-0.369382,0.873225,-1.324343,-1.287016,-2.548747,-0.027099,-0.077768,0.152067,-0.070685,-0.013047,-0.022464
4090.332000,0.712000,START d_bow,Transition,1,D-G,0.486958,0.303022,0.748611,0.117664,-1.664242,-2.083909,1.037762,-2.216323,-0.370080,0.874540,-1.324901,-1.287100,-2.548922,-0.029934,-0.089183,0.173963,-0.080059,-0.015295,-0.025291
4090.420000,0.800000,START d_bow,Transition,1,D-G,0.398958,0.303267,0.743406,0.118170,-1.663525,-2.083651,1.037849,-2.220378,-0.382691,0.900161,-1.336762,-1.289405,-2.552498,-0.069748,-0.198874,0.403971,-0.181153,-0.039589,-0.059952
4090.428000,0.808000,START d_bow,Transition,1,D-G,0.390958,0.303332,0.742707,0.118238,-1.663402,-2.083675,1.037784,-2.220956,-0.384308,0.903445,-1.338323,-1.289750,-2.553033,-0.074041,-0.206163,0.423763,-0.193850,-0.038950,-0.063509
4090.436000,0.816000,START d_bow,Transition,1,D-G,0.382958,0.303399,0.741967,0.118284,-1.663335,-2.083556,1.037912,-2.221571,-0.386001,0.906936,-1.339869,-1.290089,-2.553531,-0.077040,-0.220755,0.444154,-0.201120,-0.042662,-0.066540
4090.468000,0.848000,START d_bow,Transition,1,D-G,0.350958,0.303645,0.738666,0.118603,-1.662939,-2.083202,1.038174,-2.224266,-0.393683,0.922501,-1.346847,-1.291577,-2.555817,-0.090974,-0.261417,0.517941,-0.237362,-0.052584,-0.079603
4090.524000,0.904000,START d_bow,Transition,1,D-G,0.294958,0.304249,0.731547,0.119602,-1.662140,-2.082788,1.038038,-2.230212,-0.410180,0.955075,-1.361488,-1.294939,-2.560865,-0.116003,-0.323371,0.642850,-0.286988,-0.067205,-0.102138
4090.532000,0.912000,START d_bow,Transition,1,D-G,0.286958,0.304318,0.730410,0.119782,-1.661988,-2.082829,1.037871,-2.231139,-0.412813,0.960230,-1.363894,-1.295490,-2.561691,-0.120587,-0.328879,0.656422,-0.294712,-0.066968,-0.100552
4090.540000,0.920000,START d_bow,Transition,1,D-G,0.278958,0.304423,0.729229,0.119984,-1.661874,-2.082768,1.037784,-2.232141,-0.415539,0.965507,-1.366255,-1.296048,-2.562528,-0.123633,-0.339174,0.675301,-0.300757,-0.071756,-0.105965
4090.620000,1.000000,START d_bow,Transition,1,D-G,0.198958,0.305493,0.716004,0.121642,-1.660424,-2.081656,1.037969,-2.243416,-0.444383,1.022741,-1.391633,-1.302373,-2.571970,-0.148162,-0.359708,0.709776,-0.311486,-0.080683,-0.121021
4090.628000,1.008000,START d_bow,Transition,1,D-G,0.190958,0.305618,0.714652,0.121801,-1.660285,-2.081583,1.037905,-2.244601,-0.447211,1.028372,-1.394188,-1.303050,-2.572958,-0.147804,-0.354622,0.704957,-0.313693,-0.083420,-0.120496
4090.636000,1.016000,START d_bow,Transition,1,D-G,0.182958,0.305715,0.713304,0.121969,-1.660125,-2.081421,1.037920,-2.245756,-0.450062,1.034029,-1.396678,-1.303656,-2.573928,-0.146319,-0.357939,0.702898,-0.309256,-0.082862,-0.119416
4090.700000,1.080000,START d_bow,Transition,1,D-G,0.118958,0.306521,0.702485,0.123257,-1.659000,-2.080426,1.038371,-2.255195,-0.472344,1.078222,-1.415939,-1.309076,-2.581707,-0.151361,-0.342699,0.673215,-0.292494,-0.088122,-0.123499
4090.708000,1.088000,START d_bow,Transition,1,D-G,0.110958,0.306652,0.701139,0.123444,-1.658844,-2.080366,1.038291,-2.256413,-0.475053,1.083517,-1.418285,-1.309779,-2.582732,-0.150463,-0.338623,0.668698,-0.291467,-0.086257,-0.125367
4090.716000,1.096000,START d_bow,Transition,1,D-G,0.102958,0.306777,0.699797,0.123646,-1.658725,-2.080336,1.038212,-2.257627,-0.477775,1.088785,-1.420609,-1.310516,-2.583729,-0.152326,-0.338509,0.666934,-0.289098,-0.087578,-0.123932
4090.724000,1.104000,START d_bow,Transition,1,G-D,1.094958,0.306896,0.698436,0.123784,-1.658604,-2.080191,1.038245,-2.258854,-0.480440,1.094124,-1.422962,-1.311210,-2.584718,-0.152839,-0.340889,0.663168,-0.291004,-0.084476,-0.124420
4090.732000,1.112000,START d_bow,Transition,1,G-D,1.086958,0.307054,0.697059,0.123936,-1.658512,-2.079925,1.038280,-2.260138,-0.483113,1.099443,-1.425255,-1.311854,-2.585716,-0.153839,-0.339318,0.661239,-0.288641,-0.084508,-0.125350
4090.740000,1.120000,START d_bow,Transition,1,G-D,1.078958,0.307162,0.695690,0.124075,-1.658383,-2.079809,1.038382,-2.261369,-0.485779,1.104770,-1.427557,-1.312598,-2.586712,-0.155767,-0.334249,0.658587,-0.283308,-0.086044,-0.125293
4090.748000,1.128000,START d_bow,Transition,1,G-D,1.070958,0.307266,0.694341,0.124219,-1.658239,-2.079605,1.038508,-2.262580,-0.488412,1.110020,-1.429778,-1.313261,-2.587694,-0.153694,-0.331113,0.654241,-0.279574,-0.089021,-0.123408
4090.756000,1.136000,START d_bow,Transition,1,G-D,1.062958,0.307376,0.693001,0.124381,-1.658062,-2.079528,1.038460,-2.263790,-0.491021,1.115177,-1.432062,-1.313952,-2.588723,-0.151574,-0.328962,0.651131,-0.280037,-0.087931,-0.125492
4090.764000,1.144000,START d_bow,Transition,1,G-D,1.054958,0.307478,0.691657,0.124548,-1.657905,-2.079401,1.038519,-2.265001,-0.493649,1.120348,-1.434268,-1.314649,-2.589726,-0.152449,-0.325142,0.649167,-0.277795,-0.090878,-0.127445
4090.772000,1.152000,START d_bow,Transition,1,G-D,1.046958,0.307608,0.690301,0.124760,-1.657820,-2.079287,1.038465,-2.266259,-0.496335,1.125509,-1.436490,-1.315371,-2.590717,-0.152025,-0.325326,0.646978,-0.274963,-0.087694,-0.126127
4090.780000,1.160000,START d_bow,Transition,1,G-D,1.038958,0.307701,0.688947,0.124938,-1.657701,-2.079196,1.038451,-2.267477,-0.498989,1.130705,-1.438759,-1.316089,-2.591704,-0.152409,-0.325493,0.642884,-0.278553,-0.089793,-0.126436
4090.788000,1.168000,START d_bow,Transition,1,G-D,1.030958,0.307780,0.687592,0.125132,-1.657474,-2.079125,1.038475,-2.268680,-0.501656,1.135885,-1.440953,-1.316791,-2.592761,-0.154695,-0.328674,0.639689,-0.272494,-0.090374,-0.126335
4090.796000,1.176000,START d_bow,Transition,1,G-D,1.022958,0.307891,0.686244,0.125303,-1.657292,-2.079048,1.038453,-2.269914,-0.504236,1.140946,-1.443151,-1.317509,-2.593808,-0.155954,-0.324983,0.635410,-0.271852,-0.088278,-0.128221
4090.804000,1.184000,START d_bow,Transition,1,G-D,1.014958,0.308032,0.684879,0.125461,-1.657209,-2.078874,1.038515,-2.271204,-0.506805,1.146013,-1.445307,-1.318250,-2.594806,-0.152375,-0.322401,0.633714,-0.268626,-0.090824,-0.127796
4090.812000,1.192000,START d_bow,Transition,1,G-D,1.006958,0.308159,0.683535,0.125632,-1.657122,-2.078793,1.038427,-2.272465,-0.509351,1.151001,-1.447528,-1.318988,-2.595805,-0.156857,-0.318916,0.629099,-0.268698,-0.089813,-0.126129
4090.820000,1.200000,START d_bow,Transition,1,G-D,0.998958,0.308276,0.682185,0.125808,-1.656937,-2.078662,1.038395,-2.273716,-0.511907,1.156004,-1.449681,-1.319670,-2.596862,-0.157336,-0.323486,0.627240,-0.272020,-0.089085,-0.128828
4090.828000,1.208000,START d_bow,Transition,1,G-D,0.990958,0.308391,0.680821,0.125978,-1.656819,-2.078523,1.038405,-2.274987,-0.514480,1.161048,-1.451847,-1.320396,-2.597878,-0.157486,-0.323222,0.624805,-0.267646,-0.090985,-0.127300
4090.836000,1.216000,START d_bow,Transition,1,G-D,0.982958,0.308485,0.679455,0.126113,-1.656651,-2.078381,1.038595,-2.276241,-0.517013,1.166099,-1.453938,-1.321162,-2.598907,-0.161230,-0.319838,0.622211,-0.265000,-0.090430,-0.127512
4090.844000,1.224000,START d_bow,Transition,1,G-D,0.974958,0.308579,0.678105,0.126284,-1.656516,-2.078260,1.038626,-2.277484,-0.519561,1.171088,-1.456067,-1.321888,-2.599914,-0.157713,-0.315733,0.620475,-0.265380,-0.094273,-0.129957
4090.852000,1.232000,START d_bow,Transition,1,G-D,0.966958,0.308699,0.676756,0.126444,-1.656330,-2.078172,1.038656,-2.278753,-0.522045,1.175971,-1.458145,-1.322642,-2.600983,-0.155571,-0.311427,0.617606,-0.258697,-0.092436,-0.129009
4090.860000,1.240000,START d_bow,Transition,1,G-D,0.958958,0.308757,0.675427,0.126595,-1.656115,-2.078058,1.038732,-2.279944,-0.524533,1.180897,-1.460232,-1.323330,-2.602010,-0.155575,-0.309586,0.613761,-0.259779,-0.089772,-0.129363
4090.868000,1.248000,START d_bow,Transition,1,G-D,0.950958,0.308839,0.674093,0.126780,-1.655949,-2.078001,1.038736,-2.281171,-0.527050,1.185777,-1.462310,-1.324077,-2.603036,-0.156534,-0.309023,0.612041,-0.261722,-0.092985,-0.128887
4090.876000,1.256000,START d_bow,Transition,1,G-D,0.942958,0.308936,0.672753,0.127009,-1.655813,-2.078013,1.038577,-2.282420,-0.529617,1.190632,-1.464438,-1.324843,-2.604075,-0.157878,-0.311313,0.609125,-0.259808,-0.094376,-0.130289
4090.884000,1.264000,START d_bow,Transition,1,G-D,0.934958,0.309022,0.671402,0.127217,-1.655631,-2.077943,1.038530,-2.283671,-0.532174,1.195530,-1.466516,-1.325573,-2.605133,-0.160720,-0.314494,0.604436,-0.258621,-0.096109,-0.129004
4090.892000,1.272000,START d_bow,Transition,1,G-D,0.926958,0.309131,0.670044,0.127376,-1.655478,-2.077769,1.038658,-2.284957,-0.534646,1.200384,-1.468504,-1.326320,-2.606172,-0.163834,-0.312570,0.601033,-0.255056,-0.093495,-0.130452
4090.900000,1.280000,START d_bow,Transition,1,G-D,0.918958,0.309233,0.668694,0.127544,-1.655324,-2.077617,1.038636,-2.286231,-0.537111,1.205211,-1.470571,-1.327016,-2.607214,-0.163104,-0.307550,0.599834,-0.253948,-0.094222,-0.129477
4090.908000,1.288000,START d_bow,Transition,1,G-D,0.910958,0.309344,0.667350,0.127718,-1.655159,-2.077558,1.038680,-2.287513,-0.539552,1.209951,-1.472555,-1.327819,-2.608276,-0.162203,-0.303771,0.597335,-0.256493,-0.094350,-0.129656
4090.916000,1.296000,START d_bow,Transition,1,G-D,0.902958,0.309463,0.666000,0.127885,-1.655059,-2.077445,1.038657,-2.288816,-0.541986,1.214705,-1.474604,-1.328586,-2.609302,-0.164774,-0.305306,0.596040,-0.253426,-0.094772,-0.130201
4090.924000,1.304000,START d_bow,Transition,1,G-D,0.894958,0.309604,0.664647,0.128045,-1.654978,-2.077293,1.038626,-2.290148,-0.544386,1.219408,-1.476631,-1.329345,-2.610332,-0.162480,-0.306781,0.592725,-0.252869,-0.096100,-0.131355
4090.932000,1.312000,START d_bow,Transition,1,G-D,0.886958,0.309746,0.663280,0.128237,-1.654826,-2.077148,1.038522,-2.291490,-0.546839,1.224140,-1.478657,-1.330066,-2.611430,-0.162799,-0.305058,0.590074,-0.251922,-0.097302,-0.131254
4090.940000,1.320000,START d_bow,Transition,1,G-D,0.878958,0.309827,0.661912,0.128356,-1.654688,-2.077013,1.038711,-2.292782,-0.549243,1.228960,-1.480661,-1.330880,-2.612457,-0.165180,-0.299928,0.587299,-0.248570,-0.096851,-0.132172
4090.948000,1.328000,START d_bow,Transition,1,G-D,0.870958,0.309924,0.660561,0.128515,-1.654551,-2.076901,1.038760,-2.294077,-0.551649,1.233674,-1.482647,-1.331660,-2.613499,-0.165253,-0.297854,0.588706,-0.248110,-0.095166,-0.132670
4090.956000,1.336000,START d_bow,Transition,1,G-D,0.862958,0.310059,0.659201,0.128648,-1.654368,-2.076707,1.038901,-2.295418,-0.553981,1.238309,-1.484529,-1.332428,-2.614593,-0.161755,-0.294649,0.585217,-0.241227,-0.098935,-0.132743
4090.964000,1.344000,START d_bow,Transition,1,G-D,0.854958,0.310165,0.657861,0.128819,-1.654264,-2.076643,1.038874,-2.296720,-0.556362,1.242934,-1.486520,-1.333235,-2.615624,-0.161428,-0.292564,0.579515,-0.243626,-0.095472,-0.131164
4090.972000,1.352000,START d_bow,Transition,1,G-D,0.846958,0.310256,0.656560,0.129013,-1.654105,-2.076578,1.038824,-2.297971,-0.558714,1.247426,-1.488414,-1.333978,-2.616662,-0.155774,-0.281963,0.559067,-0.231703,-0.091654,-0.128085
4090.980000,1.360000,START d_bow,Transition,1,G-D,0.838958,0.310375,0.655291,0.129251,-1.654028,-2.076585,1.038566,-2.299228,-0.561048,1.251748,-1.490323,-1.334729,-2.617664,-0.158269,-0.277668,0.538725,-0.228743,-0.092504,-0.126179
4090.988000,1.368000,START d_bow,Transition,1,G-D,0.830958,0.310494,0.654028,0.129429,-1.653942,-2.076426,1.038491,-2.300485,-0.563280,1.256038,-1.492146,-1.335414,-2.618643,-0.151705,-0.274114,0.524979,-0.216888,-0.088922,-0.120049
4090.996000,1.376000,START d_bow,Transition,1,G-D,0.822958,0.310561,0.652816,0.129584,-1.653810,-2.076337,1.038583,-2.301645,-0.565435,1.260211,-1.493850,-1.336141,-2.619578,-0.146455,-0.265191,0.507127,-0.209195,-0.090003,-0.117653
4091.004000,1.384000,START d_bow,Transition,1,G-D,0.814958,0.310694,0.651619,0.129730,-1.653756,-2.076176,1.038597,-2.302865,-0.567490,1.264200,-1.495513,-1.336844,-2.620497,-0.142104,-0.252384,0.490313,-0.202898,-0.086852,-0.115639
4091.012000,1.392000,START d_bow,Transition,1,G-D,0.806958,0.310782,0.650469,0.129837,-1.653572,-2.075999,1.038892,-2.303994,-0.569438,1.268066,-1.496963,-1.337544,-2.621423,-0.139009,-0.243884,0.476281,-0.194697,-0.084274,-0.112666
4091.020000,1.400000,START d_bow,Transition,1,G-D,0.798958,0.310869,0.649386,0.129993,-1.653499,-2.076023,1.038689,-2.305065,-0.571340,1.271710,-1.498633,-1.338203,-2.622281,-0.132518,-0.232528,0.457734,-0.192507,-0.080206,-0.108676
4091.028000,1.408000,START d_bow,Transition,1,G-D,0.790958,0.310965,0.648316,0.130122,-1.653377,-2.075951,1.038682,-2.306135,-0.573167,1.275269,-1.500136,-1.338847,-2.623151,-0.130974,-0.226983,0.440074,-0.185518,-0.077433,-0.106833
4091.036000,1.416000,START d_bow,Transition,1,G-D,0.782958,0.311073,0.647276,0.130212,-1.653314,-2.075771,1.038724,-2.307197,-0.574881,1.278704,-1.501589,-1.339434,-2.623955,-0.127669,-0.219447,0.425293,-0.177710,-0.074590,-0.100844
4091.044000,1.424000,START d_bow,Transition,1,G-D,0.774958,0.311131,0.646274,0.130331,-1.653093,-2.075682,1.038781,-2.308163,-0.576603,1.282070,-1.502949,-1.339987,-2.624816,-0.123107,-0.208899,0.412789,-0.169440,-0.071407,-0.099669
4091.052000,1.432000,START d_bow,Transition,1,G-D,0.766958,0.311190,0.645309,0.130409,-1.653006,-2.075585,1.038929,-2.309110,-0.578214,1.285306,-1.504277,-1.340598,-2.625552,-0.116101,-0.204201,0.396010,-0.165293,-0.069786,-0.095251
4091.060000,1.440000,START d_bow,Transition,1,G-D,0.758958,0.311248,0.644370,0.130502,-1.652849,-2.075453,1.039053,-2.310028,-0.579796,1.288441,-1.505522,-1.341131,-2.626319,-0.112779,-0.194292,0.381107,-0.157651,-0.068266,-0.093212
4091.068000,1.448000,START d_bow,Transition,1,G-D,0.750958,0.311291,0.643461,0.130564,-1.652701,-2.075355,1.039258,-2.310906,-0.581294,1.291486,-1.506732,-1.341698,-2.627046,-0.109050,-0.186773,0.364624,-0.148342,-0.066171,-0.089416
4091.076000,1.456000,START d_bow,Transition,1,G-D,0.742958,0.311341,0.642615,0.130693,-1.652591,-2.075357,1.039179,-2.311734,-0.582780,1.294306,-1.507946,-1.342210,-2.627741,-0.106471,-0.177918,0.347516,-0.147265,-0.060171,-0.084550
4091.084000,1.464000,START d_bow,Transition,1,G-D,0.734958,0.311432,0.641777,0.130806,-1.652555,-2.075222,1.039198,-2.312603,-0.584204,1.297033,-1.509048,-1.342701,-2.628389,-0.102566,-0.176639,0.329172,-0.136201,-0.059614,-0.081085
4091.092000,1.472000,START d_bow,Transition,1,G-D,0.726958,0.311511,0.641002,0.130959,-1.652476,-2.075200,1.039022,-2.313399,-0.585583,1.299551,-1.510133,-1.343141,-2.629043,-0.100703,-0.166187,0.316457,-0.133472,-0.056945,-0.076665
4091.100000,1.480000,START d_bow,Transition,1,G-D,0.718958,0.311573,0.640261,0.131116,-1.652448,-2.075273,1.038806,-2.314150,-0.586933,1.301982,-1.511234,-1.343628,-2.629639,-0.094619,-0.159301,0.299572,-0.127369,-0.056216,-0.073883
4091.108000,1.488000,START d_bow,Transition,1,G-D,0.710958,0.311649,0.639535,0.131213,-1.652372,-2.075196,1.038749,-2.314899,-0.588151,1.304324,-1.512226,-1.344040,-2.630241,-0.089260,-0.152887,0.283819,-0.117816,-0.051070,-0.072465
4091.116000,1.496000,START d_bow,Transition,1,G-D,0.702958,0.311713,0.638858,0.131345,-1.652323,-2.075224,1.038672,-2.315594,-0.589356,1.306512,-1.513136,-1.344500,-2.630796,-0.089420,-0.140003,0.271696,-0.112145,-0.049194,-0.068176
4091.124000,1.504000,START d_bow,Transition,1,G-D,0.694958,0.311754,0.638222,0.131434,-1.652235,-2.075155,1.038671,-2.316225,-0.590451,1.308607,-1.513990,-1.344856,-2.631316,-0.080439,-0.132841,0.257663,-0.104333,-0.047717,-0.065385
4091.132000,1.512000,START d_bow,Transition,1,G-D,0.686958,0.311812,0.637605,0.131510,-1.652186,-2.075068,1.038632,-2.316860,-0.591481,1.310606,-1.514841,-1.345197,-2.631812,-0.075231,-0.125366,0.243099,-0.099265,-0.044855,-0.060834
4091.140000,1.520000,START d_bow,Transition,1,G-D,0.678958,0.311821,0.637054,0.131585,-1.652016,-2.075079,1.038682,-2.317376,-0.592435,1.312442,-1.515562,-1.345532,-2.632314,-0.072450,-0.117206,0.228892,-0.093991,-0.042744,-0.057006
4091.148000,1.528000,START d_bow,Transition,1,G-D,0.670958,0.311873,0.636497,0.131627,-1.652009,-2.074976,1.038775,-2.317954,-0.593330,1.314240,-1.516286,-1.345887,-2.632722,-0.066541,-0.107974,0.216517,-0.088997,-0.041444,-0.052970
4091.156000,1.536000,START d_bow,Transition,1,G-D,0.662958,0.311927,0.635985,0.131681,-1.651971,-2.074867,1.038834,-2.318490,-0.594164,1.315876,-1.516925,-1.346184,-2.633126,-0.064253,-0.102894,0.199614,-0.081776,-0.039963,-0.048417
4091.164000,1.544000,START d_bow,Transition,1,G-D,0.654958,0.311973,0.635504,0.131738,-1.651942,-2.074849,1.038793,-2.318989,-0.594958,1.317419,-1.517606,-1.346492,-2.633513,-0.060175,-0.094208,0.186835,-0.076281,-0.035922,-0.046133
4091.172000,1.552000,START d_bow,Transition,1,G-D,0.646958,0.312016,0.635053,0.131771,-1.651903,-2.074739,1.038843,-2.319456,-0.595674,1.318866,-1.518190,-1.346736,-2.633869,-0.053799,-0.088162,0.171647,-0.071418,-0.031224,-0.042512
4091.180000,1.560000,START d_bow,Transition,1,G-D,0.638958,0.312067,0.634636,0.131818,-1.651900,-2.074664,1.038895,-2.319903,-0.596352,1.320183,-1.518705,-1.347007,-2.634185,-0.050084,-0.080296,0.154880,-0.062720,-0.029464,-0.040933
4091.188000,1.568000,START d_bow,Transition,1,G-D,0.630958,0.312105,0.634260,0.131850,-1.651844,-2.074587,1.038943,-2.320294,-0.596948,1.321374,-1.519171,-1.347220,-2.634500,-0.046328,-0.071285,0.142118,-0.056651,-0.027046,-0.034507
4091.196000,1.576000,START d_bow,Transition,1,G-D,0.622958,0.312141,0.633917,0.131855,-1.651801,-2.074496,1.039012,-2.320654,-0.597456,1.322461,-1.519614,-1.347411,-2.634780,-0.041254,-0.063018,0.128105,-0.050912,-0.024565,-0.031738
4091.204000,1.584000,START d_bow,Transition,1,G-D,0.614958,0.312170,0.633618,0.131885,-1.651761,-2.074483,1.039056,-2.320965,-0.597935,1.323402,-1.519984,-1.347623,-2.635031,-0.035761,-0.057117,0.111667,-0.045732,-0.022100,-0.027242
4091.212000,1.592000,START d_bow,Transition,1,G-D,0.606958,0.312176,0.633368,0.131899,-1.651759,-2.074429,1.039119,-2.321209,-0.598346,1.324241,-1.520321,-1.347775,-2.635200,-0.030194,-0.050866,0.098289,-0.040509,-0.019541,-0.023468
4091.220000,1.600000,START d_bow,Transition,1,G-D,0.598958,0.312188,0.633137,0.131906,-1.651710,-2.074426,1.039155,-2.321437,-0.598698,1.324985,-1.520639,-1.347931,-2.635399,-0.026548,-0.042490,0.086693,-0.033490,-0.016294,-0.020315
4091.228000,1.608000,START d_bow,Transition,1,G-D,0.590958,0.312197,0.632957,0.131940,-1.651704,-2.074418,1.039132,-2.321617,-0.599021,1.325578,-1.520890,-1.348038,-2.635536,-0.022196,-0.035188,0.069085,-0.028292,-0.013237,-0.017011
4091.236000,1.616000,START d_bow,Transition,1,G-D,0.582958,0.312232,0.632798,0.131972,-1.651714,-2.074355,1.039128,-2.321804,-0.599288,1.326053,-1.521056,-1.348119,-2.635659,-0.017183,-0.028359,0.056421,-0.021800,-0.010377,-0.013456
4091.244000,1.624000,START d_bow,Transition,1,G-D,0.574958,0.312222,0.632696,0.131975,-1.651690,-2.074348,1.039112,-2.321889,-0.599458,1.326418,-1.521239,-1.348159,-2.635739,-0.012421,-0.021495,0.040413,-0.018234,-0.004794,-0.010566
4091.252000,1.632000,START d_bow,Transition,1,G-D,0.566958,0.312235,0.632623,0.131999,-1.651717,-2.074340,1.039063,-2.321973,-0.599598,1.326647,-1.521350,-1.348199,-2.635783,-0.007267,-0.014770,0.026410,-0.010291,-0.001609,-0.003495
4091.260000,1.640000,START d_bow,Transition,1,G-D,0.558958,0.312194,0.632595,0.131999,-1.651682,-2.074303,1.039144,-2.321956,-0.599682,1.326826,-1.521379,-1.348180,-2.635787,-0.000024,-0.005420,0.012436,-0.001019,-0.000659,-0.001056
4091.268000,1.648000,END d_bow,Transition,1,G-D,0.550958,0.312206,0.632597,0.132006,-1.651689,-2.074302,1.039178,-2.321967,-0.599682,1.326795,-1.521328,-1.348203,-2.635787,0.004028,0.004673,-0.012507,0.007698,-0.000255,0.002276
4091.276000,1.656000,END d_bow,Transition,1,G-D,0.542958,0.312185,0.632608,0.131992,-1.651656,-2.074325,1.039200,-2.321933,-0.599658,1.326791,-1.521336,-1.348196,-2.635787,-0.000840,0.000431,-0.000002,0.001770,0.000136,0.000700
4091.284000,1.664000,END d_bow,Transition,1,G-D,0.534958,0.312163,0.632622,0.131981,-1.651640,-2.074313,1.039199,-2.321897,-0.599639,1.326791,-1.521353,-1.348156,-2.635772,0.004789,0.000160,-0.002864,0.000924,0.000105,-0.000162
4091.292000,1.672000,END d_bow,Transition,1,G-D,0.526958,0.312153,0.632634,0.131987,-1.651610,-2.074423,1.039206,-2.321873,-0.599630,1.326748,-1.521340,-1.348222,-2.635787,0.001390,0.000384,-0.000626,0.000461,0.000085,-0.000094
4091.300000,1.680000,START d_to_g,Transition,1,G-D,0.518958,0.312179,0.632631,0.131987,-1.651620,-2.074331,1.039272,-2.321904,-0.599618,1.326715,-1.521252,-1.348199,-2.635787,-0.021123,0.000745,-0.032142,0.027077,-0.010196,-0.006143
4091.308000,1.688000,START d_to_g,Transition,1,G-D,0.510958,0.312296,0.632635,0.132038,-1.651573,-2.074460,1.039228,-2.322017,-0.599565,1.326421,-1.521040,-1.348350,-2.635922,-0.022612,0.008989,-0.041705,0.032774,-0.020668,-0.020157
4091.316000,1.696000,START d_to_g,Transition,1,G-D,0.502958,0.312471,0.632643,0.132099,-1.651520,-2.074531,1.039176,-2.322183,-0.599466,1.325997,-1.520724,-1.348487,-2.636097,-0.022394,0.010805,-0.059352,0.049897,-0.019489,-0.020405
4091.324000,1.704000,START d_to_g,Transition,1,G-D,0.494958,0.312723,0.632648,0.132197,-1.651564,-2.074544,1.039127,-2.322439,-0.599372,1.325447,-1.520273,-1.348671,-2.636258,-0.032437,0.012114,-0.076370,0.067950,-0.022048,-0.023358
4091.332000,1.712000,START d_to_g,Transition,1,G-D,0.486958,0.313041,0.632664,0.132362,-1.651613,-2.074631,1.038965,-2.322750,-0.599295,1.324712,-1.519700,-1.348909,-2.636474,-0.041376,0.014988,-0.095087,0.085450,-0.027240,-0.028265
4091.340000,1.720000,START d_to_g,Transition,1,G-D,0.478958,0.313427,0.632673,0.132539,-1.651629,-2.074588,1.038952,-2.323136,-0.599187,1.323860,-1.518895,-1.349145,-2.636744,-0.050293,0.015276,-0.113395,0.107302,-0.032424,-0.035331
4091.348000,1.728000,START d_to_g,Transition,1,G-D,0.470958,0.313892,0.632678,0.132742,-1.651712,-2.074509,1.038905,-2.323611,-0.599055,1.322866,-1.517988,-1.349421,-2.637028,-0.056961,0.017100,-0.135571,0.124805,-0.040307,-0.041089
4091.356000,1.736000,START d_to_g,Transition,1,G-D,0.462958,0.314393,0.632702,0.132980,-1.651673,-2.074515,1.038873,-2.324095,-0.598896,1.321695,-1.516908,-1.349741,-2.637419,-0.065522,0.017752,-0.151240,0.147295,-0.044837,-0.047190
4091.364000,1.744000,START d_to_g,Transition,1,G-D,0.454958,0.314970,0.632723,0.133267,-1.651655,-2.074546,1.038868,-2.324661,-0.598744,1.320364,-1.515645,-1.350156,-2.637854,-0.073358,0.020075,-0.171282,0.168961,-0.050596,-0.052848
4091.372000,1.752000,START d_to_g,Transition,1,G-D,0.446958,0.315606,0.632772,0.133585,-1.651696,-2.074537,1.038845,-2.325264,-0.598545,1.318827,-1.514233,-1.350576,-2.638269,-0.079430,0.022194,-0.191651,0.188636,-0.054476,-0.058798
4091.380000,1.760000,START d_to_g,Transition,1,G-D,0.438958,0.316303,0.632813,0.133967,-1.651654,-2.074550,1.038831,-2.325929,-0.598390,1.317168,-1.512623,-1.351035,-2.638795,-0.085473,0.023814,-0.211176,0.207739,-0.061689,-0.063798
4091.388000,1.768000,START d_to_g,Transition,1,G-D,0.430958,0.317065,0.632858,0.134372,-1.651657,-2.074543,1.038883,-2.326660,-0.598202,1.315350,-1.510845,-1.351566,-2.639327,-0.094255,0.026525,-0.233977,0.225313,-0.068855,-0.069544
4091.396000,1.776000,START d_to_g,Transition,1,G-D,0.422958,0.317910,0.632893,0.134792,-1.651688,-2.074500,1.039000,-2.327486,-0.597974,1.313384,-1.508904,-1.352170,-2.639899,-0.104222,0.030184,-0.255345,0.246923,-0.074244,-0.076860
4091.404000,1.784000,START d_to_g,Transition,1,G-D,0.414958,0.318822,0.632934,0.135245,-1.651655,-2.074487,1.039048,-2.328368,-0.597707,1.311234,-1.506840,-1.352789,-2.640568,-0.112469,0.035088,-0.273933,0.263722,-0.078606,-0.083236
4091.412000,1.792000,START d_to_g,Transition,1,G-D,0.406958,0.319786,0.632973,0.135700,-1.651647,-2.074445,1.039163,-2.329306,-0.597392,1.308967,-1.504658,-1.353460,-2.641250,-0.120515,0.038676,-0.296212,0.282727,-0.084920,-0.090157
4091.420000,1.800000,START d_to_g,Transition,1,G-D,0.398958,0.320830,0.633014,0.136228,-1.651600,-2.074448,1.039178,-2.330315,-0.597096,1.306507,-1.502314,-1.354164,-2.642029,-0.131452,0.040453,-0.317535,0.302150,-0.090697,-0.096176
4091.428000,1.808000,START d_to_g,Transition,1,G-D,0.390958,0.321954,0.633054,0.136773,-1.651648,-2.074391,1.039220,-2.331412,-0.596754,1.303884,-1.499835,-1.354923,-2.642792,-0.136164,0.044871,-0.340781,0.317857,-0.096206,-0.100230
4091.436000,1.816000,START d_to_g,Transition,1,G-D,0.382958,0.323160,0.633101,0.137401,-1.651715,-2.074382,1.039104,-2.332582,-0.596438,1.301055,-1.497227,-1.355711,-2.643614,-0.145395,0.046438,-0.365377,0.337092,-0.104292,-0.107173
4091.444000,1.824000,START d_to_g,Transition,1,G-D,0.374958,0.324384,0.633179,0.138016,-1.651658,-2.074410,1.039195,-2.333730,-0.596011,1.298019,-1.494376,-1.356562,-2.644497,-0.152955,0.052273,-0.388879,0.356186,-0.109860,-0.114219
4091.452000,1.832000,START d_to_g,Transition,1,G-D,0.366958,0.325706,0.633235,0.138671,-1.651633,-2.074399,1.039257,-2.334998,-0.595577,1.294840,-1.491390,-1.357465,-2.645442,-0.159378,0.058738,-0.412781,0.378848,-0.114351,-0.119747
4091.460000,1.840000,START d_to_g,Transition,1,G-D,0.358958,0.326984,0.633326,0.139314,-1.651557,-2.074526,1.039176,-2.336180,-0.595086,1.291598,-1.488518,-1.358344,-2.646390,-0.119669,0.065047,-0.378803,0.361619,-0.103792,-0.109940
4091.468000,1.848000,START d_to_g,Transition,1,G-D,0.350958,0.328185,0.633397,0.139949,-1.651505,-2.074529,1.039286,-2.337305,-0.594701,1.288603,-1.485656,-1.359169,-2.647247,-0.141533,0.050882,-0.370659,0.345703,-0.104646,-0.105604
4091.476000,1.856000,START d_to_g,Transition,1,G-D,0.342958,0.329387,0.633455,0.140509,-1.651567,-2.074478,1.039267,-2.338447,-0.594224,1.285670,-1.483043,-1.359944,-2.648037,-0.138580,0.052418,-0.350138,0.326261,-0.094320,-0.100709
4091.484000,1.864000,START d_to_g,Transition,1,G-D,0.334958,0.330476,0.633506,0.141048,-1.651495,-2.074531,1.039292,-2.339473,-0.593815,1.282967,-1.480572,-1.360699,-2.648849,-0.127706,0.051961,-0.329328,0.305075,-0.092415,-0.094210
4091.492000,1.872000,START d_to_g,Transition,1,G-D,0.326958,0.331497,0.633559,0.141535,-1.651457,-2.074449,1.039487,-2.340433,-0.593404,1.280420,-1.478141,-1.361378,-2.649555,-0.124892,0.049237,-0.309062,0.284931,-0.084472,-0.085743
4091.500000,1.880000,START d_to_g,Transition,1,G-D,0.318958,0.332476,0.633598,0.141979,-1.651549,-2.074398,1.039515,-2.341370,-0.592997,1.278034,-1.476018,-1.362038,-2.650166,-0.112203,0.046531,-0.291691,0.263326,-0.080040,-0.081159
4091.508000,1.888000,START d_to_g,Transition,1,G-D,0.310958,0.333361,0.633643,0.142426,-1.651489,-2.074438,1.039549,-2.342197,-0.592658,1.275800,-1.473972,-1.362650,-2.650819,-0.102693,0.044115,-0.272405,0.244776,-0.071378,-0.075209
4091.516000,1.896000,START d_to_g,Transition,1,G-D,0.302958,0.334180,0.633690,0.142868,-1.651431,-2.074514,1.039443,-2.342952,-0.592369,1.273712,-1.472128,-1.363182,-2.651436,-0.095628,0.039544,-0.252899,0.225620,-0.065051,-0.071823
4091.524000,1.904000,START d_to_g,Transition,1,G-D,0.294958,0.334947,0.633723,0.143237,-1.651402,-2.074534,1.039379,-2.343671,-0.592051,1.271798,-1.470459,-1.363671,-2.651994,-0.086799,0.036814,-0.234293,0.208381,-0.061237,-0.065087
4091.532000,1.912000,START d_to_g,Transition,1,G-D,0.286958,0.335665,0.633740,0.143576,-1.651404,-2.074545,1.039413,-2.344361,-0.591767,1.270048,-1.468874,-1.364181,-2.652496,-0.080200,0.034952,-0.212688,0.190906,-0.054302,-0.058085
4091.540000,1.920000,START d_to_g,Transition,1,G-D,0.278958,0.336301,0.633764,0.143857,-1.651452,-2.074447,1.039502,-2.344968,-0.591483,1.268484,-1.467438,-1.364582,-2.652887,-0.074632,0.032765,-0.192173,0.170174,-0.048285,-0.051407
4091.548000,1.928000,START d_to_g,Transition,1,G-D,0.270958,0.336873,0.633778,0.144102,-1.651433,-2.074419,1.039598,-2.345516,-0.591216,1.267079,-1.466149,-1.364981,-2.653290,-0.065064,0.029254,-0.170235,0.152131,-0.043388,-0.047157
4091.556000,1.936000,START d_to_g,Transition,1,G-D,0.262958,0.337364,0.633809,0.144344,-1.651451,-2.074402,1.039605,-2.345967,-0.591004,1.265816,-1.465028,-1.365294,-2.653605,-0.056228,0.025646,-0.149420,0.132691,-0.038218,-0.040157
4091.564000,1.944000,START d_to_g,Transition,1,G-D,0.254958,0.337805,0.633818,0.144546,-1.651503,-2.074376,1.039601,-2.346394,-0.590824,1.264750,-1.464089,-1.365589,-2.653877,-0.050216,0.021049,-0.129343,0.112741,-0.032982,-0.034261
4091.572000,1.952000,START d_to_g,Transition,1,G-D,0.246958,0.338175,0.633841,0.144734,-1.651495,-2.074392,1.039524,-2.346731,-0.590665,1.263794,-1.463290,-1.365806,-2.654140,-0.044280,0.015766,-0.108878,0.094667,-0.026250,-0.028616
4091.580000,1.960000,START d_to_g,Transition,1,G-D,0.238958,0.338512,0.633840,0.144901,-1.651567,-2.074312,1.039447,-2.347066,-0.590564,1.263029,-1.462620,-1.365967,-2.654331,-0.033692,0.013169,-0.085798,0.075813,-0.019928,-0.022483
4091.588000,1.968000,START d_to_g,Transition,1,G-D,0.230958,0.338736,0.633847,0.145009,-1.651522,-2.074314,1.039448,-2.347274,-0.590465,1.262463,-1.462109,-1.366103,-2.654517,-0.023988,0.009060,-0.063135,0.057267,-0.014714,-0.017363
4091.596000,1.976000,START d_to_g,Transition,1,G-D,0.222958,0.338890,0.633860,0.145121,-1.651545,-2.074352,1.039424,-2.347414,-0.590448,1.262055,-1.461729,-1.366229,-2.654610,-0.015785,0.003239,-0.041157,0.037234,-0.009441,-0.011407
4091.604000,1.984000,START d_to_g,Transition,1,G-D,0.214958,0.338988,0.633864,0.145185,-1.651577,-2.074320,1.039386,-2.347506,-0.590436,1.261822,-1.461517,-1.366262,-2.654654,-0.007582,0.000004,-0.020398,0.018069,-0.000397,-0.001508
4091.612000,1.992000,START d_to_g,Transition,1,G-D,0.206958,0.339028,0.633866,0.145236,-1.651692,-2.074322,1.039189,-2.347549,-0.590475,1.261752,-1.461553,-1.366247,-2.654619,0.005078,-0.005775,0.006910,-0.014525,0.006229,0.005321
4091.620000,2.000000,START d_to_g,Transition,1,G-D,0.198958,0.338968,0.633831,0.145239,-1.651818,-2.074287,1.038813,-2.347527,-0.590611,1.262074,-1.461991,-1.366083,-2.654543,-0.001647,-0.027973,0.054526,-0.078098,0.032769,0.024020
4091.628000,2.008000,START d_to_g,Transition,1,G-D,0.190958,0.338823,0.633774,0.145232,-1.652022,-2.074251,1.038334,-2.347447,-0.590866,1.262694,-1.462699,-1.365859,-2.654376,0.002839,-0.033378,0.095271,-0.118204,0.038263,0.024149
4091.636000,2.016000,START d_to_g,Transition,1,G-D,0.182958,0.338667,0.633655,0.145176,-1.652353,-2.074135,1.037474,-2.347419,-0.591169,1.263617,-1.463893,-1.365485,-2.654180,0.003330,-0.040964,0.131492,-0.174787,0.053954,0.031750
4091.644000,2.024000,START d_to_g,Transition,1,G-D,0.174958,0.338453,0.633503,0.145100,-1.652814,-2.074029,1.036364,-2.347371,-0.591567,1.264832,-1.465475,-1.365042,-2.653898,0.005249,-0.050598,0.172299,-0.231581,0.072297,0.040419
4091.652000,2.032000,START d_to_g,Transition,1,G-D,0.166958,0.338196,0.633302,0.144954,-1.653426,-2.073784,1.034836,-2.347331,-0.591995,1.266391,-1.467622,-1.364363,-2.653536,0.005505,-0.062625,0.212654,-0.298073,0.094462,0.051951
4091.660000,2.040000,START d_to_g,Transition,1,G-D,0.158958,0.337895,0.633050,0.144813,-1.654210,-2.073577,1.032742,-2.347302,-0.592565,1.268296,-1.470367,-1.363540,-2.653109,0.005883,-0.071751,0.255588,-0.362411,0.114606,0.063636
4091.668000,2.048000,START d_to_g,Transition,1,G-D,0.150958,0.337546,0.632755,0.144621,-1.655187,-2.073155,1.030486,-2.347278,-0.593203,1.270534,-1.473470,-1.362541,-2.652533,0.004887,-0.083647,0.296500,-0.421847,0.133934,0.076534
4091.676000,2.056000,START d_to_g,Transition,1,G-D,0.142958,0.337157,0.632407,0.144392,-1.656283,-2.072809,1.027703,-2.347266,-0.593910,1.273095,-1.477193,-1.361431,-2.651932,0.004249,-0.095080,0.340347,-0.483324,0.155267,0.089912
4091.684000,2.064000,START d_to_g,Transition,1,G-D,0.134958,0.336717,0.632023,0.144160,-1.657635,-2.072252,1.024509,-2.347251,-0.594746,1.275998,-1.481391,-1.360061,-2.651147,0.002427,-0.103937,0.383947,-0.541294,0.176871,0.104579
4091.692000,2.072000,START d_to_g,Transition,1,G-D,0.126958,0.336223,0.631592,0.143858,-1.659090,-2.071582,1.021049,-2.347231,-0.595617,1.279240,-1.486054,-1.358523,-2.650290,0.003364,-0.115452,0.427090,-0.603788,0.197822,0.116134
4091.700000,2.080000,START d_to_g,Transition,1,G-D,0.118958,0.335667,0.631098,0.143530,-1.660657,-2.070845,1.017227,-2.347214,-0.596611,1.282885,-1.491229,-1.356824,-2.649370,0.005397,-0.126047,0.469791,-0.664696,0.218259,0.129306
4091.708000,2.088000,START d_to_g,Transition,1,G-D,0.110958,0.335010,0.630589,0.143153,-1.662436,-2.070040,1.013146,-2.347122,-0.597679,1.286877,-1.496891,-1.354986,-2.648243,0.008072,-0.134095,0.510826,-0.727960,0.238207,0.142108
4091.716000,2.096000,START d_to_g,Transition,1,G-D,0.102958,0.334305,0.630017,0.142706,-1.664297,-2.069109,1.008785,-2.347048,-0.598784,1.291233,-1.503039,-1.352976,-2.647068,0.009732,-0.144718,0.551546,-0.793745,0.260517,0.157601
4091.724000,2.104000,START d_to_g,Transition,1,D-G,1.094958,0.333546,0.629407,0.142247,-1.666339,-2.068110,1.004026,-2.346964,-0.599991,1.295897,-1.509675,-1.350809,-2.645766,0.010880,-0.150658,0.596085,-0.856100,0.279411,0.170251
4091.732000,2.112000,START d_to_g,Transition,1,D-G,1.086958,0.332763,0.628765,0.141739,-1.668601,-2.067019,0.998763,-2.346896,-0.601197,1.300792,-1.516889,-1.348456,-2.644328,0.011712,-0.157152,0.632511,-0.918686,0.300127,0.184333
4091.740000,2.120000,START d_to_g,Transition,1,D-G,1.078958,0.331909,0.628087,0.141224,-1.670941,-2.065914,0.993104,-2.346793,-0.602506,1.305992,-1.524578,-1.345946,-2.642822,0.011553,-0.168482,0.673987,-0.984418,0.317300,0.199362
4091.748000,2.128000,START d_to_g,Transition,1,D-G,1.070958,0.331016,0.627365,0.140695,-1.673585,-2.064711,0.987094,-2.346712,-0.603918,1.311503,-1.532758,-1.343345,-2.641103,0.011509,-0.179531,0.710110,-1.046453,0.341574,0.214582
4091.756000,2.136000,START d_to_g,Transition,1,D-G,1.062958,0.330071,0.626584,0.140124,-1.676216,-2.063343,0.980703,-2.346628,-0.605379,1.317350,-1.541418,-1.340469,-2.639380,0.010520,-0.188560,0.751065,-1.110941,0.359028,0.228442
4091.764000,2.144000,START d_to_g,Transition,1,D-G,1.054958,0.329066,0.625736,0.139481,-1.679108,-2.061779,0.974075,-2.346568,-0.606903,1.323619,-1.550617,-1.337464,-2.637449,0.009450,-0.196346,0.787872,-1.175226,0.378554,0.239956
4091.772000,2.152000,START d_to_g,Transition,1,D-G,1.046958,0.328003,0.624850,0.138800,-1.682105,-2.060255,0.967093,-2.346492,-0.608460,1.330146,-1.560318,-1.334396,-2.635433,0.011853,-0.200170,0.827274,-1.237165,0.398140,0.253671
4091.780000,2.160000,START d_to_g,Transition,1,D-G,1.038958,0.326901,0.623934,0.138092,-1.685206,-2.058600,0.959665,-2.346407,-0.610033,1.336895,-1.570511,-1.331101,-2.633317,0.012704,-0.200878,0.863352,-1.304188,0.416531,0.268365
4091.788000,2.168000,START d_to_g,Transition,1,D-G,1.030958,0.325730,0.622988,0.137404,-1.688469,-2.056954,0.951670,-2.346288,-0.611721,1.343920,-1.581288,-1.327651,-2.631060,0.014063,-0.211695,0.899588,-1.369251,0.433556,0.284375
4091.796000,2.176000,START d_to_g,Transition,1,D-G,1.022958,0.324472,0.621977,0.136686,-1.691712,-2.055352,0.943621,-2.346146,-0.613509,1.351304,-1.592391,-1.324226,-2.628775,0.014858,-0.221792,0.924504,-1.383645,0.429287,0.285434
4091.804000,2.184000,START d_to_g,Transition,1,D-G,1.014958,0.323217,0.620900,0.135954,-1.695000,-2.053582,0.935744,-2.346078,-0.615357,1.358885,-1.603505,-1.320828,-2.626448,0.013816,-0.229441,0.952973,-1.411447,0.430404,0.290175
4091.812000,2.192000,START d_to_g,Transition,1,D-G,1.006958,0.321929,0.619807,0.135172,-1.698195,-2.051780,0.927630,-2.345982,-0.617122,1.366538,-1.614911,-1.317295,-2.624144,0.015290,-0.225547,0.978968,-1.434345,0.430577,0.296407
4091.820000,2.200000,START d_to_g,Transition,1,D-G,0.998958,0.320565,0.618678,0.134392,-1.701420,-2.050084,0.919525,-2.345850,-0.618981,1.374418,-1.626512,-1.313873,-2.621767,0.017168,-0.229815,1.007106,-1.462967,0.433642,0.299536
4091.828000,2.208000,START d_to_g,Transition,1,D-G,0.990958,0.319160,0.617520,0.133578,-1.704606,-2.048209,0.911670,-2.345706,-0.620839,1.382437,-1.638069,-1.310411,-2.619340,0.015184,-0.227133,0.988078,-1.463196,0.431537,0.304164
4091.836000,2.216000,START d_to_g,Transition,1,D-G,0.982958,0.317757,0.616360,0.132747,-1.707791,-2.046483,0.903464,-2.345563,-0.622608,1.390402,-1.649939,-1.306972,-2.616916,0.020390,-0.214680,0.987445,-1.467364,0.428880,0.307212
4091.844000,2.224000,START d_to_g,Transition,1,D-G,0.974958,0.316355,0.615215,0.131894,-1.710924,-2.044613,0.895651,-2.345407,-0.624293,1.398259,-1.661515,-1.303571,-2.614448,0.018400,-0.208988,0.984630,-1.460860,0.427347,0.309280
4091.852000,2.232000,START d_to_g,Transition,1,D-G,0.966958,0.314959,0.614078,0.131091,-1.714083,-2.042915,0.887341,-2.345248,-0.625982,1.406040,-1.673397,-1.300165,-2.611971,0.018105,-0.207900,0.976181,-1.469571,0.424411,0.311116
4091.860000,2.240000,START d_to_g,Transition,1,D-G,0.958958,0.313559,0.612938,0.130304,-1.717263,-2.041193,0.879169,-2.345092,-0.627674,1.413795,-1.685188,-1.296837,-2.609437,0.019736,-0.204938,0.969787,-1.471033,0.423806,0.315068
4091.868000,2.248000,START d_to_g,Transition,1,D-G,0.950958,0.312147,0.611774,0.129467,-1.720350,-2.039235,0.871283,-2.344943,-0.629296,1.421604,-1.696862,-1.293427,-2.606897,0.018874,-0.200862,0.965556,-1.469353,0.421225,0.318920
4091.876000,2.256000,START d_to_g,Transition,1,D-G,0.942958,0.310766,0.610615,0.128584,-1.723460,-2.037321,0.863308,-2.344824,-0.630762,1.429280,-1.708650,-1.290081,-2.604341,0.018649,-0.187686,0.960805,-1.471113,0.422241,0.319901
4091.884000,2.264000,START d_to_g,Transition,1,D-G,0.934958,0.309374,0.609475,0.127740,-1.726580,-2.035333,0.855380,-2.344676,-0.632242,1.436889,-1.720345,-1.286714,-2.601706,0.017552,-0.182222,0.958184,-1.473309,0.419650,0.321280
4091.892000,2.272000,START d_to_g,Transition,1,D-G,0.926958,0.307955,0.608306,0.126882,-1.729584,-2.033406,0.847386,-2.344521,-0.633703,1.444572,-1.732180,-1.283357,-2.599129,0.018942,-0.179273,0.951262,-1.477442,0.414830,0.324916
4091.900000,2.280000,START d_to_g,Transition,1,D-G,0.918958,0.306513,0.607149,0.126036,-1.732625,-2.031527,0.839346,-2.344334,-0.635149,1.452223,-1.744082,-1.280053,-2.596474,0.019889,-0.177141,0.944706,-1.474206,0.414515,0.327746
4091.908000,2.288000,START d_to_g,Transition,1,D-G,0.910958,0.305119,0.605985,0.125149,-1.735538,-2.029524,0.831565,-2.344197,-0.636450,1.459727,-1.755762,-1.276756,-2.593897,0.019404,-0.170380,0.940538,-1.472179,0.412003,0.332147
4091.916000,2.296000,START d_to_g,Transition,1,D-G,0.902958,0.303726,0.604832,0.124307,-1.738537,-2.027522,0.823409,-2.344053,-0.637764,1.467192,-1.767683,-1.273392,-2.591222,0.018217,-0.163857,0.934164,-1.477857,0.410199,0.335277
4091.924000,2.304000,START d_to_g,Transition,1,D-G,0.894958,0.302334,0.603672,0.123483,-1.741552,-2.025618,0.815313,-2.343922,-0.639082,1.474622,-1.779576,-1.270178,-2.588527,0.019206,-0.161224,0.929935,-1.481470,0.409642,0.336473
4091.932000,2.312000,START d_to_g,Transition,1,D-G,0.886958,0.300908,0.602511,0.122682,-1.744490,-2.023652,0.807297,-2.343750,-0.640426,1.482076,-1.791413,-1.266923,-2.585811,0.020072,-0.161965,0.923202,-1.482522,0.406655,0.340422
4091.940000,2.320000,START d_to_g,Transition,1,D-G,0.878958,0.299499,0.601350,0.121822,-1.747405,-2.021540,0.799447,-2.343598,-0.641621,1.489455,-1.803200,-1.263644,-2.583067,0.019638,-0.150445,0.920335,-1.483729,0.404808,0.343389
4091.948000,2.328000,START d_to_g,Transition,1,D-G,0.870958,0.298110,0.600198,0.120973,-1.750294,-2.019544,0.791435,-2.343454,-0.642752,1.496707,-1.815068,-1.260434,-2.580338,0.019258,-0.141446,0.915860,-1.485828,0.403666,0.345587
4091.956000,2.336000,START d_to_g,Transition,1,D-G,0.862958,0.296706,0.599035,0.120169,-1.753243,-2.017495,0.783310,-2.343311,-0.643953,1.504015,-1.827029,-1.257205,-2.577520,0.018181,-0.143447,0.906845,-1.491957,0.399707,0.350604
4091.964000,2.344000,START d_to_g,Transition,1,D-G,0.854958,0.295287,0.597878,0.119376,-1.756104,-2.015549,0.775042,-2.343139,-0.645114,1.511267,-1.839095,-1.253997,-2.574728,0.019444,-0.138016,0.898686,-1.495495,0.400221,0.352090
4091.972000,2.352000,START d_to_g,Transition,1,D-G,0.846958,0.293889,0.596714,0.118531,-1.758981,-2.013374,0.767311,-2.343003,-0.646173,1.518465,-1.850831,-1.250844,-2.571881,0.020677,-0.133304,0.897527,-1.488010,0.396346,0.355293
4091.980000,2.360000,START d_to_g,Transition,1,D-G,0.838958,0.292486,0.595568,0.117664,-1.761896,-2.011295,0.759254,-2.342844,-0.647116,1.525575,-1.862872,-1.247702,-2.568967,0.018788,-0.123106,0.895256,-1.496464,0.395326,0.358832
4091.988000,2.368000,START d_to_g,Transition,1,D-G,0.830958,0.291080,0.594423,0.116838,-1.764702,-2.009140,0.751208,-2.342673,-0.648082,1.532651,-1.874831,-1.244487,-2.566074,0.018854,-0.118667,0.890977,-1.500441,0.393375,0.361065
4091.996000,2.376000,START d_to_g,Transition,1,D-G,0.822958,0.289663,0.593263,0.116052,-1.767516,-2.007033,0.743225,-2.342508,-0.649115,1.539755,-1.886745,-1.241374,-2.563160,0.019769,-0.116660,0.880994,-1.500150,0.390914,0.362938
4092.004000,2.384000,START d_to_g,Transition,1,D-G,0.814958,0.288268,0.592089,0.115206,-1.770367,-2.004873,0.735134,-2.342384,-0.649994,1.546815,-1.898857,-1.238262,-2.560205,0.019558,-0.110479,0.873606,-1.503230,0.388585,0.366304
4092.012000,2.392000,START d_to_g,Transition,1,D-G,0.806958,0.286850,0.590925,0.114340,-1.773021,-2.002710,0.727381,-2.342213,-0.650798,1.553799,-1.910720,-1.235176,-2.557332,0.018415,-0.103556,0.870085,-1.499722,0.385122,0.368969
4092.020000,2.400000,START d_to_g,Transition,1,D-G,0.798958,0.285457,0.589771,0.113518,-1.775780,-2.000657,0.719210,-2.342065,-0.651597,1.560695,-1.922850,-1.232147,-2.554380,0.019432,-0.094695,0.866265,-1.505909,0.383869,0.372900
4092.028000,2.408000,START d_to_g,Transition,1,D-G,0.790958,0.284052,0.588625,0.112735,-1.778482,-1.998522,0.710989,-2.341891,-0.652416,1.567564,-1.934971,-1.229036,-2.551393,0.020231,-0.093817,0.859626,-1.506728,0.384355,0.375561
4092.036000,2.416000,START d_to_g,Transition,1,D-G,0.782958,0.282656,0.587449,0.111911,-1.781237,-1.996209,0.703097,-2.341765,-0.653177,1.574477,-1.946968,-1.225968,-2.548347,0.020507,-0.089944,0.853208,-1.508030,0.380267,0.376454
4092.044000,2.424000,START d_to_g,Transition,1,D-G,0.774958,0.281240,0.586295,0.111059,-1.783920,-1.994025,0.695135,-2.341590,-0.653822,1.581289,-1.959069,-1.222965,-2.545304,0.019417,-0.078954,0.849349,-1.514202,0.376719,0.381875
4092.052000,2.432000,START d_to_g,Transition,1,D-G,0.766958,0.279833,0.585144,0.110191,-1.786602,-1.991842,0.687253,-2.341423,-0.654390,1.588029,-1.971142,-1.220027,-2.542241,0.019355,-0.072362,0.845162,-1.518040,0.375617,0.386881
4092.060000,2.440000,START d_to_g,Transition,1,D-G,0.758958,0.278434,0.583987,0.109366,-1.789304,-1.989530,0.679265,-2.341271,-0.654993,1.594766,-1.983257,-1.217010,-2.539108,0.020424,-0.070666,0.841195,-1.521765,0.371582,0.389663
4092.068000,2.448000,START d_to_g,Transition,1,D-G,0.750958,0.277023,0.582853,0.108565,-1.791965,-1.987354,0.670990,-2.341079,-0.655557,1.601412,-1.995565,-1.214020,-2.535954,0.020932,-0.064019,0.831690,-1.521422,0.373330,0.390013
4092.076000,2.456000,START d_to_g,Transition,1,D-G,0.742958,0.275594,0.581688,0.107720,-1.794509,-1.985002,0.663235,-2.340892,-0.656070,1.608123,-2.007596,-1.211024,-2.532842,0.020791,-0.061734,0.826165,-1.519659,0.367257,0.391785
4092.084000,2.464000,START d_to_g,Transition,1,D-G,0.734958,0.274219,0.580528,0.106867,-1.797156,-1.982630,0.655238,-2.340768,-0.656474,1.614698,-2.019798,-1.208062,-2.529660,0.019482,-0.052895,0.827188,-1.522181,0.365709,0.394209
4092.092000,2.472000,START d_to_g,Transition,1,D-G,0.726958,0.272848,0.579372,0.106038,-1.799683,-1.980347,0.647188,-2.340637,-0.656858,1.621191,-2.031983,-1.205135,-2.526546,0.020111,-0.045251,0.819714,-1.530778,0.366632,0.398231
4092.100000,2.480000,START d_to_g,Transition,1,D-G,0.718958,0.271430,0.578217,0.105229,-1.802217,-1.978065,0.639102,-2.340452,-0.657269,1.627739,-2.044266,-1.202216,-2.523344,0.021241,-0.044567,0.815485,-1.533961,0.360087,0.402849
4092.108000,2.488000,START d_to_g,Transition,1,D-G,0.710958,0.269995,0.577062,0.104397,-1.804733,-1.975881,0.630980,-2.340249,-0.657601,1.634257,-2.056664,-1.199390,-2.520127,0.021902,-0.038872,0.806428,-1.534122,0.357632,0.405915
4092.116000,2.496000,START d_to_g,Transition,1,D-G,0.702958,0.268602,0.575898,0.103551,-1.807293,-1.973368,0.623326,-2.340106,-0.657886,1.640725,-2.068706,-1.196517,-2.516846,0.016539,-0.035196,0.774116,-1.517838,0.357168,0.407926
4092.124000,2.504000,START d_to_g,Transition,1,D-G,0.694958,0.267297,0.574818,0.102721,-1.809865,-1.970993,0.615326,-2.339974,-0.657980,1.646750,-2.080783,-1.193711,-2.513549,0.017122,-0.018081,0.752062,-1.493939,0.352306,0.409680
4092.132000,2.512000,START d_to_g,Transition,1,D-G,0.686958,0.266020,0.573774,0.101979,-1.812260,-1.968665,0.607248,-2.339819,-0.658122,1.652586,-2.092664,-1.190863,-2.510336,0.017607,-0.010376,0.720956,-1.474241,0.349712,0.408575
4092.140000,2.520000,START d_to_g,Transition,1,D-G,0.678958,0.264801,0.572787,0.101301,-1.814789,-1.966207,0.599262,-2.339679,-0.658271,1.658187,-2.104283,-1.188051,-2.506978,0.017755,-0.009688,0.691369,-1.452599,0.347002,0.411580
4092.148000,2.528000,START d_to_g,Transition,1,D-G,0.670958,0.263645,0.571838,0.100626,-1.817174,-1.963888,0.590994,-2.339559,-0.658271,1.663495,-2.115953,-1.185255,-2.503729,0.015335,-0.000006,0.655628,-1.423717,0.340900,0.407812
4092.156000,2.536000,START d_to_g,Transition,1,D-G,0.662958,0.262532,0.570896,0.099913,-1.819552,-1.961439,0.583844,-2.339482,-0.658223,1.668672,-2.126733,-1.182692,-2.500556,0.013140,0.007980,0.625390,-1.342049,0.317470,0.387422
4092.164000,2.544000,START d_to_g,Transition,1,D-G,0.654958,0.261457,0.570005,0.099228,-1.821763,-1.959184,0.576889,-2.339383,-0.658120,1.673561,-2.137144,-1.180269,-2.497532,0.012055,0.014328,0.595092,-1.287067,0.300281,0.372184
4092.172000,2.552000,START d_to_g,Transition,1,D-G,0.646958,0.260438,0.569187,0.098609,-1.823768,-1.957160,0.569861,-2.339252,-0.657980,1.678083,-2.147274,-1.177923,-2.494667,0.012548,0.019785,0.558453,-1.229532,0.286149,0.356908
4092.180000,2.560000,START d_to_g,Transition,1,D-G,0.638958,0.259496,0.568401,0.098017,-1.825722,-1.955084,0.563408,-2.339170,-0.657832,1.682362,-2.156734,-1.175699,-2.491904,0.013376,0.018851,0.525405,-1.164256,0.269114,0.339789
4092.188000,2.568000,START d_to_g,Transition,1,D-G,0.630958,0.258578,0.567661,0.097462,-1.827541,-1.953222,0.557334,-2.339059,-0.657695,1.686413,-2.165692,-1.173679,-2.489294,0.012767,0.018900,0.493416,-1.097715,0.252798,0.322552
4092.196000,2.576000,START d_to_g,Transition,1,D-G,0.622958,0.257721,0.566956,0.096913,-1.829298,-1.951358,0.551595,-2.338975,-0.657500,1.690230,-2.174217,-1.171739,-2.486772,0.011176,0.019225,0.463708,-1.030170,0.235047,0.302632
4092.204000,2.584000,START d_to_g,Transition,1,D-G,0.614958,0.256931,0.566289,0.096435,-1.830951,-1.949612,0.546268,-2.338919,-0.657380,1.693806,-2.182111,-1.169965,-2.484416,0.009497,0.017925,0.429999,-0.966724,0.218315,0.284818
4092.212000,2.592000,START d_to_g,Transition,1,D-G,0.606958,0.256162,0.565673,0.096001,-1.832346,-1.948077,0.541311,-2.338812,-0.657276,1.697135,-2.189450,-1.168305,-2.482290,0.008434,0.015560,0.397556,-0.897965,0.201693,0.266459
4092.220000,2.600000,START d_to_g,Transition,1,D-G,0.598958,0.255469,0.565100,0.095582,-1.833762,-1.946537,0.536689,-2.338748,-0.657131,1.700213,-2.196332,-1.166761,-2.480213,0.008054,0.016408,0.367236,-0.831849,0.189232,0.245182
4092.228000,2.608000,START d_to_g,Transition,1,D-G,0.590958,0.254818,0.564555,0.095178,-1.834986,-1.945155,0.532517,-2.338688,-0.656976,1.703078,-2.202650,-1.165356,-2.478368,0.007128,0.017952,0.338570,-0.764380,0.169115,0.228362
4092.236000,2.616000,START d_to_g,Transition,1,D-G,0.582958,0.254264,0.564068,0.094826,-1.836171,-1.943773,0.528567,-2.338671,-0.656816,1.705622,-2.208469,-1.164008,-2.476611,0.004829,0.016997,0.305233,-0.701523,0.156406,0.209148
4092.244000,2.624000,START d_to_g,Transition,1,D-G,0.574958,0.253787,0.563652,0.094565,-1.837290,-1.942676,0.524743,-2.338663,-0.656729,1.707820,-2.213782,-1.162893,-2.475012,0.003604,0.012346,0.273958,-0.634575,0.138826,0.190185
4092.252000,2.632000,START d_to_g,Transition,1,D-G,0.566958,0.253343,0.563273,0.094356,-1.838202,-1.941672,0.521223,-2.338635,-0.656692,1.709829,-2.218597,-1.161805,-2.473600,0.001948,0.009853,0.242486,-0.570277,0.124628,0.169291
4092.260000,2.640000,START d_to_g,Transition,1,D-G,0.558958,0.252943,0.562935,0.094124,-1.839072,-1.940711,0.518390,-2.338611,-0.656597,1.711624,-2.222745,-1.160888,-2.472310,0.001519,0.008659,0.214867,-0.500197,0.110634,0.148778
4092.268000,2.648000,START d_to_g,Transition,1,D-G,0.550958,0.252609,0.562625,0.093920,-1.839817,-1.939838,0.515972,-2.338623,-0.656520,1.713205,-2.226317,-1.160083,-2.471218,0.000957,0.009412,0.185496,-0.428600,0.094379,0.130240
4092.276000,2.656000,START d_to_g,Transition,1,D-G,0.542958,0.252322,0.562364,0.093735,-1.840438,-1.939121,0.513891,-2.338627,-0.656420,1.714531,-2.229391,-1.159406,-2.470296,0.000694,0.008631,0.157706,-0.366869,0.080054,0.111315
4092.292000,2.672000,START d_to_g,Transition,1,D-G,0.526958,0.251865,0.561973,0.093496,-1.841323,-1.938125,0.510557,-2.338596,-0.656340,1.716562,-2.234143,-1.158373,-2.468907,0.000423,0.002376,0.099075,-0.233029,0.050932,0.069934
4092.300000,2.680000,START d_to_g,Transition,1,D-G,0.518958,0.251715,0.561853,0.093442,-1.841623,-1.937815,0.509473,-2.338577,-0.656355,1.717215,-2.235647,-1.158053,-2.468442,0.000300,0.000769,0.071047,-0.164356,0.035850,0.051077
4092.308000,2.688000,START d_to_g,Transition,1,D-G,0.510958,0.251656,0.561748,0.093394,-1.841889,-1.937494,0.508765,-2.338646,-0.656352,1.717670,-2.236651,-1.157821,-2.468129,0.000047,-0.000414,0.041392,-0.097335,0.019590,0.030591
4092.316000,2.696000,START d_to_g,Transition,1,D-G,0.502958,0.251614,0.561727,0.093404,-1.841935,-1.937459,0.508336,-2.338623,-0.656379,1.717817,-2.237106,-1.157718,-2.468011,0.000000,-0.000652,0.012734,-0.029849,0.007012,0.010726
4092.324000,2.704000,START g_bow,Transition,0,D-G,0.494958,0.251601,0.561749,0.093407,-1.841896,-1.937510,0.508420,-2.338580,-0.656376,1.717768,-2.237008,-1.157738,-2.468023,0.009083,0.008926,-0.012360,0.018032,-0.002926,-0.002795
4092.332000,2.712000,START g_bow,Transition,0,D-G,0.486958,0.251621,0.561810,0.093421,-1.841889,-1.937564,0.508298,-2.338536,-0.656316,1.717562,-2.236972,-1.157733,-2.467987,0.011569,0.011196,-0.027232,0.018061,0.001915,0.002430
4092.340000,2.720000,START g_bow,Transition,0,D-G,0.478958,0.251633,0.561907,0.093447,-1.841917,-1.937563,0.508232,-2.338443,-0.656256,1.717290,-2.236852,-1.157698,-2.467867,0.017427,0.012510,-0.040519,0.015196,0.009964,0.013742
4092.348000,2.728000,START g_bow,Transition,0,D-G,0.470958,0.251636,0.562047,0.093456,-1.841851,-1.937589,0.508128,-2.338284,-0.656105,1.716891,-2.236728,-1.157598,-2.467752,0.020045,0.019351,-0.054187,0.021698,0.014758,0.017944
4092.356000,2.736000,START g_bow,Transition,0,D-G,0.462958,0.251644,0.562217,0.093464,-1.841777,-1.937623,0.508046,-2.338097,-0.655918,1.716394,-2.236536,-1.157494,-2.467619,0.024948,0.024446,-0.067712,0.029497,0.016832,0.016374
4092.364000,2.744000,START g_bow,Transition,0,D-G,0.454958,0.251638,0.562419,0.093470,-1.841655,-1.937665,0.508029,-2.337854,-0.655701,1.715822,-2.236262,-1.157363,-2.467475,0.027540,0.030261,-0.080347,0.037972,0.014866,0.018471
4092.372000,2.752000,START g_bow,Transition,0,D-G,0.446958,0.251663,0.562664,0.093470,-1.841515,-1.937738,0.508009,-2.337599,-0.655406,1.715068,-2.235887,-1.157240,-2.467341,0.029289,0.035973,-0.096229,0.052789,0.015196,0.021188
4092.380000,2.760000,START g_bow,Transition,0,D-G,0.438958,0.251699,0.562926,0.093472,-1.841453,-1.937791,0.508037,-2.337343,-0.655106,1.714269,-2.235456,-1.157155,-2.467151,0.034438,0.040017,-0.112645,0.062988,0.016682,0.024421
4092.388000,2.768000,START g_bow,Transition,0,D-G,0.430958,0.251749,0.563230,0.093483,-1.841341,-1.937765,0.508042,-2.337052,-0.654758,1.713333,-2.234949,-1.156961,-2.466930,0.037334,0.043192,-0.124746,0.070014,0.018974,0.026632
4092.396000,2.776000,START g_bow,Transition,0,D-G,0.422958,0.251821,0.563570,0.093498,-1.841250,-1.937823,0.508012,-2.336749,-0.654371,1.712251,-2.234378,-1.156833,-2.466709,0.039219,0.048782,-0.141314,0.077223,0.021046,0.028959
4092.404000,2.784000,START g_bow,Transition,0,D-G,0.414958,0.251902,0.563948,0.093512,-1.841145,-1.937808,0.508032,-2.336414,-0.653935,1.711059,-2.233712,-1.156638,-2.466446,0.041913,0.055934,-0.155863,0.087445,0.023374,0.032048
4092.412000,2.792000,START g_bow,Transition,0,D-G,0.406958,0.252028,0.564341,0.093548,-1.841043,-1.937773,0.507982,-2.336113,-0.653495,1.709757,-2.232978,-1.156427,-2.466200,0.043320,0.058879,-0.171302,0.096933,0.025007,0.035578
4092.420000,2.800000,START g_bow,Transition,0,D-G,0.398958,0.252123,0.564799,0.093595,-1.840942,-1.937845,0.507932,-2.335707,-0.653027,1.708319,-2.232184,-1.156260,-2.465884,0.048062,0.062591,-0.186693,0.104120,0.026447,0.038482
4092.428000,2.808000,START g_bow,Transition,0,D-G,0.390958,0.252215,0.565292,0.093636,-1.840784,-1.937883,0.507937,-2.335253,-0.652508,1.706782,-2.231306,-1.156029,-2.465556,0.052667,0.066220,-0.200883,0.113225,0.028607,0.042416
4092.436000,2.816000,START g_bow,Transition,0,D-G,0.382958,0.252371,0.565806,0.093688,-1.840703,-1.937821,0.507920,-2.334857,-0.651956,1.705107,-2.230329,-1.155778,-2.465195,0.055864,0.070052,-0.217314,0.123095,0.031814,0.046172
4092.444000,2.824000,START g_bow,Transition,0,D-G,0.374958,0.252508,0.566375,0.093751,-1.840563,-1.937849,0.507841,-2.334374,-0.651364,1.703291,-2.229321,-1.155519,-2.464812,0.057934,0.074623,-0.232447,0.128538,0.032096,0.049283
4092.452000,2.832000,START g_bow,Transition,0,D-G,0.366958,0.252670,0.566967,0.093815,-1.840369,-1.937903,0.507728,-2.333891,-0.650728,1.701357,-2.228251,-1.155244,-2.464472,0.062095,0.080821,-0.246959,0.137110,0.036448,0.050716
4092.460000,2.840000,START g_bow,Transition,0,D-G,0.358958,0.252830,0.567609,0.093881,-1.840244,-1.937864,0.507657,-2.333356,-0.650049,1.699308,-2.227115,-1.154923,-2.464005,0.067107,0.085057,-0.259703,0.146238,0.038958,0.053812
4092.468000,2.848000,START g_bow,Transition,0,D-G,0.350958,0.253013,0.568287,0.093937,-1.840097,-1.937858,0.507586,-2.332809,-0.649292,1.697106,-2.225902,-1.154611,-2.463551,0.070639,0.093432,-0.276949,0.156512,0.040716,0.057502
4092.476000,2.856000,START g_bow,Transition,0,D-G,0.342958,0.253195,0.569025,0.094034,-1.839919,-1.937918,0.507407,-2.332192,-0.648541,1.694739,-2.224623,-1.154284,-2.463059,0.073286,0.096211,-0.292031,0.160033,0.042894,0.058968
4092.484000,2.864000,START g_bow,Transition,0,D-G,0.334958,0.253383,0.569779,0.094124,-1.839759,-1.937932,0.507271,-2.331569,-0.647759,1.692323,-2.223299,-1.153938,-2.462539,0.079249,0.101939,-0.306811,0.168153,0.045386,0.063046
4092.492000,2.872000,START g_bow,Transition,0,D-G,0.326958,0.253599,0.570551,0.094215,-1.839545,-1.937941,0.507089,-2.330954,-0.646928,1.689795,-2.221930,-1.153552,-2.462056,0.080131,0.105844,-0.321856,0.176964,0.045847,0.066845
4092.500000,2.880000,START g_bow,Transition,0,D-G,0.318958,0.253818,0.571371,0.094300,-1.839363,-1.937943,0.506934,-2.330294,-0.646031,1.687125,-2.220490,-1.153166,-2.461508,0.085047,0.111191,-0.337942,0.186160,0.048954,0.069337
4092.508000,2.888000,START g_bow,Transition,0,D-G,0.310958,0.254052,0.572224,0.094400,-1.839176,-1.937926,0.506794,-2.329616,-0.645121,1.684345,-2.218948,-1.152760,-2.460939,0.085145,0.119110,-0.352372,0.193964,0.050489,0.073209
4092.516000,2.896000,START g_bow,Transition,0,D-G,0.302958,0.254282,0.573105,0.094487,-1.838982,-1.937934,0.506680,-2.328905,-0.644151,1.681476,-2.217371,-1.152362,-2.460354,0.091288,0.122739,-0.368087,0.201369,0.053073,0.075446
4092.524000,2.904000,START g_bow,Transition,0,D-G,0.294958,0.254520,0.574018,0.094571,-1.838795,-1.937910,0.506588,-2.328171,-0.643137,1.678507,-2.215731,-1.151939,-2.459732,0.095861,0.128655,-0.384165,0.209670,0.054003,0.077962
4092.532000,2.912000,START g_bow,Transition,0,D-G,0.286958,0.254784,0.574984,0.094662,-1.838604,-1.937855,0.506489,-2.327412,-0.642056,1.675345,-2.213978,-1.151478,-2.459076,0.097547,0.135644,-0.400827,0.219823,0.058513,0.081271
4092.540000,2.920000,START g_bow,Transition,0,D-G,0.278958,0.255000,0.575989,0.094762,-1.838293,-1.937947,0.506395,-2.326548,-0.640961,1.672113,-2.212185,-1.151028,-2.458451,0.102115,0.140517,-0.414075,0.228460,0.058279,0.083014
4092.548000,2.928000,START g_bow,Transition,0,D-G,0.270958,0.255291,0.577032,0.094855,-1.838106,-1.937915,0.506253,-2.325740,-0.639773,1.668673,-2.210318,-1.150561,-2.457745,0.104456,0.147897,-0.432886,0.234082,0.060907,0.086482
4092.556000,2.936000,START g_bow,Transition,0,D-G,0.262958,0.255546,0.578123,0.094958,-1.837803,-1.937962,0.506153,-2.324835,-0.638555,1.665130,-2.208358,-1.150063,-2.457056,0.110565,0.154179,-0.446525,0.244819,0.061953,0.087579
4092.564000,2.944000,START g_bow,Transition,0,D-G,0.254958,0.255841,0.579236,0.095090,-1.837530,-1.937967,0.505868,-2.323956,-0.637329,1.661468,-2.206422,-1.149521,-2.456335,0.114117,0.160178,-0.462481,0.252072,0.062464,0.090200
4092.572000,2.952000,START g_bow,Transition,0,D-G,0.246958,0.256103,0.580408,0.095202,-1.837241,-1.938031,0.505791,-2.322978,-0.636028,1.657671,-2.204311,-1.149023,-2.455570,0.118490,0.165290,-0.480514,0.259319,0.064988,0.092121
4092.580000,2.960000,START g_bow,Transition,0,D-G,0.238958,0.256409,0.581594,0.095340,-1.836922,-1.938047,0.505588,-2.322036,-0.634716,1.653764,-2.202171,-1.148458,-2.454831,0.122144,0.173323,-0.495989,0.267634,0.067145,0.095831
4092.588000,2.968000,START g_bow,Transition,0,D-G,0.230958,0.256707,0.582847,0.095491,-1.836616,-1.938101,0.505371,-2.321019,-0.633354,1.649677,-2.199947,-1.147900,-2.454018,0.122633,0.178823,-0.511935,0.277452,0.069721,0.100076
4092.596000,2.976000,START g_bow,Transition,0,D-G,0.222958,0.257018,0.584096,0.095598,-1.836350,-1.938116,0.505326,-2.320029,-0.631913,1.645560,-2.197643,-1.147379,-2.453210,0.125511,0.184762,-0.528158,0.287101,0.073268,0.101211
4092.604000,2.984000,START g_bow,Transition,0,D-G,0.214958,0.257342,0.585384,0.095699,-1.835992,-1.938113,0.505207,-2.319007,-0.630381,1.641280,-2.195313,-1.146766,-2.452422,0.126906,0.194159,-0.544940,0.294487,0.074400,0.102808
4092.612000,2.992000,START g_bow,Transition,0,D-G,0.206958,0.257679,0.586695,0.095800,-1.835701,-1.938072,0.505147,-2.317984,-0.628820,1.636921,-2.192902,-1.146171,-2.451578,0.133175,0.203229,-0.561216,0.301959,0.075399,0.106093
4092.620000,3.000000,START g_bow,Transition,0,D-G,0.198958,0.258036,0.588076,0.095922,-1.835370,-1.938143,0.504900,-2.316915,-0.627183,1.632300,-2.190463,-1.145589,-2.450730,0.129809,0.202808,-0.560090,0.306099,0.074051,0.107552
4092.628000,3.008000,START g_bow,Transition,0,D-G,0.190958,0.258404,0.589442,0.096066,-1.835008,-1.938161,0.504593,-2.315872,-0.625578,1.627702,-2.188037,-1.144945,-2.449906,0.130813,0.202347,-0.563271,0.306055,0.076429,0.105595
4092.636000,3.016000,START g_bow,Transition,0,D-G,0.182958,0.258746,0.590799,0.096170,-1.834733,-1.938144,0.504473,-2.314823,-0.623942,1.623171,-2.185596,-1.144359,-2.449023,0.130503,0.204187,-0.566815,0.304906,0.074945,0.104654
4092.644000,3.024000,START g_bow,Transition,0,D-G,0.174958,0.259086,0.592160,0.096263,-1.834408,-1.938148,0.504302,-2.313766,-0.622262,1.618604,-2.183192,-1.143750,-2.448167,0.131086,0.208056,-0.570290,0.305023,0.073292,0.104800
4092.652000,3.032000,START g_bow,Transition,0,D-G,0.166958,0.259410,0.593496,0.096346,-1.834056,-1.938152,0.504293,-2.312719,-0.620604,1.614117,-2.180715,-1.143160,-2.447362,0.133047,0.204572,-0.570386,0.308369,0.076299,0.105545
4092.660000,3.040000,START g_bow,Transition,0,D-G,0.158958,0.259733,0.594840,0.096408,-1.833730,-1.938096,0.504352,-2.311669,-0.618900,1.609603,-2.178213,-1.142551,-2.446522,0.132508,0.203029,-0.571591,0.306691,0.074039,0.104727
4092.668000,3.048000,START g_bow,Transition,0,D-G,0.150958,0.260047,0.596182,0.096474,-1.833437,-1.938091,0.504407,-2.310618,-0.617208,1.605100,-2.175723,-1.142000,-2.445675,0.131820,0.206588,-0.571303,0.311931,0.073248,0.106153
4092.676000,3.056000,START g_bow,Transition,0,D-G,0.142958,0.260406,0.597565,0.096626,-1.833103,-1.938100,0.504119,-2.309577,-0.615562,1.600415,-2.173251,-1.141373,-2.444827,0.133325,0.207687,-0.575337,0.308971,0.072276,0.104225
4092.684000,3.064000,START g_bow,Transition,0,D-G,0.134958,0.260753,0.598943,0.096780,-1.832808,-1.938153,0.503844,-2.308535,-0.613933,1.595756,-2.170789,-1.140806,-2.443968,0.129718,0.205705,-0.579496,0.309441,0.074745,0.104152
4092.692000,3.072000,START g_bow,Transition,0,D-G,0.126958,0.261112,0.600301,0.096964,-1.832450,-1.938195,0.503578,-2.307525,-0.612365,1.591128,-2.168264,-1.140209,-2.443183,0.129235,0.203450,-0.580456,0.310863,0.073245,0.102086
4092.700000,3.080000,START g_bow,Transition,0,D-G,0.118958,0.261452,0.601664,0.097111,-1.832105,-1.938239,0.503338,-2.306495,-0.610724,1.586491,-2.165795,-1.139619,-2.442371,0.127659,0.204461,-0.584767,0.309615,0.072741,0.102778
4092.708000,3.088000,START g_bow,Transition,0,D-G,0.110958,0.261773,0.603036,0.097248,-1.831778,-1.938303,0.503186,-2.305441,-0.609068,1.581847,-2.163283,-1.139065,-2.441539,0.131636,0.203906,-0.583371,0.311845,0.073808,0.101535
4092.716000,3.096000,START g_bow,Transition,0,D-G,0.102958,0.262056,0.604415,0.097370,-1.831420,-1.938355,0.503108,-2.304337,-0.607391,1.577228,-2.160777,-1.138479,-2.440684,0.130801,0.208875,-0.582695,0.310644,0.073915,0.099214
4092.724000,3.104000,START g_bow,Note,0,G,1.894958,0.262432,0.605771,0.097529,-1.831086,-1.938387,0.502825,-2.303368,-0.605733,1.572522,-2.158268,-1.137902,-2.439915,0.127994,0.211201,-0.582595,0.314136,0.072785,0.098322
4092.732000,3.112000,START g_bow,Note,0,G,1.886958,0.262752,0.607158,0.097675,-1.830723,-1.938468,0.502615,-2.302307,-0.604041,1.567792,-2.155748,-1.137328,-2.439099,0.127137,0.214672,-0.585954,0.313800,0.072105,0.098993
4092.740000,3.120000,START g_bow,Note,0,G,1.878958,0.263093,0.608529,0.097848,-1.830342,-1.938616,0.502173,-2.301289,-0.602376,1.563060,-2.153353,-1.136770,-2.438331,0.128373,0.214132,-0.591072,0.312214,0.071684,0.099444
4092.748000,3.128000,START g_bow,Note,0,G,1.870958,0.263434,0.609908,0.098021,-1.829986,-1.938641,0.501891,-2.300267,-0.600708,1.558313,-2.150831,-1.136158,-2.437520,0.124492,0.213087,-0.592735,0.317616,0.071319,0.099648
4092.756000,3.136000,START g_bow,Note,0,G,1.862958,0.263765,0.611276,0.098160,-1.829623,-1.938739,0.501590,-2.299249,-0.598985,1.553577,-2.148390,-1.135599,-2.436740,0.123291,0.216128,-0.592946,0.315448,0.071023,0.097918
4092.764000,3.144000,START g_bow,Note,0,G,1.854958,0.264079,0.612640,0.098292,-1.829301,-1.938756,0.501576,-2.298224,-0.597287,1.548892,-2.145769,-1.135051,-2.435933,0.122681,0.218913,-0.593405,0.318442,0.073831,0.097984
4092.772000,3.152000,START g_bow,Note,0,G,1.846958,0.264436,0.613971,0.098364,-1.828985,-1.938677,0.501510,-2.297281,-0.595471,1.544201,-2.143265,-1.134450,-2.435163,0.124089,0.222947,-0.592994,0.318610,0.072356,0.097069
4092.780000,3.160000,START g_bow,Note,0,G,1.838958,0.264762,0.615357,0.098449,-1.828670,-1.938699,0.501516,-2.296256,-0.593636,1.539382,-2.140638,-1.133915,-2.434356,0.121908,0.223946,-0.593530,0.323965,0.070655,0.097780
4092.788000,3.168000,START g_bow,Note,0,G,1.830958,0.265127,0.616695,0.098539,-1.828380,-1.938639,0.501466,-2.295324,-0.591830,1.534642,-2.138064,-1.133352,-2.433588,0.121886,0.224045,-0.594840,0.318459,0.070697,0.096554
4092.796000,3.176000,START g_bow,Note,0,G,1.822958,0.265461,0.618078,0.098675,-1.828009,-1.938709,0.501218,-2.294314,-0.590042,1.529794,-2.135535,-1.132781,-2.432816,0.122476,0.221212,-0.599278,0.315075,0.070561,0.096755
4092.804000,3.184000,START g_bow,Note,0,G,1.814958,0.265820,0.619430,0.098799,-1.827665,-1.938723,0.500954,-2.293367,-0.588246,1.524990,-2.133048,-1.132202,-2.432067,0.120096,0.218389,-0.601934,0.315360,0.068591,0.095405
4092.812000,3.192000,START g_bow,Note,0,G,1.806958,0.266163,0.620779,0.098918,-1.827373,-1.938668,0.500886,-2.292412,-0.586469,1.520231,-2.130452,-1.131631,-2.431276,0.119551,0.222193,-0.603815,0.320871,0.069399,0.096877
4092.820000,3.200000,START g_bow,Note,0,G,1.798958,0.266510,0.622119,0.099008,-1.827058,-1.938651,0.500840,-2.291473,-0.584639,1.515455,-2.127868,-1.131089,-2.430532,0.120467,0.227069,-0.603124,0.321716,0.068574,0.097211
4092.828000,3.208000,START g_bow,Note,0,G,1.790958,0.266818,0.623485,0.099105,-1.826715,-1.938681,0.500782,-2.290468,-0.582801,1.510650,-2.125295,-1.130541,-2.429756,0.121027,0.226870,-0.605113,0.321365,0.070320,0.096323
4092.836000,3.216000,START g_bow,Note,0,G,1.782958,0.267156,0.624852,0.099225,-1.826393,-1.938720,0.500605,-2.289500,-0.580970,1.505784,-2.122733,-1.130006,-2.428989,0.120239,0.229336,-0.606691,0.318301,0.069962,0.093786
4092.844000,3.224000,START g_bow,Note,0,G,1.774958,0.267516,0.626224,0.099405,-1.826028,-1.938841,0.500148,-2.288554,-0.579190,1.500854,-2.120251,-1.129467,-2.428264,0.122469,0.225402,-0.609620,0.320770,0.068459,0.094656
4092.852000,3.232000,START g_bow,Note,0,G,1.766958,0.267865,0.627590,0.099570,-1.825708,-1.938832,0.499861,-2.287607,-0.577407,1.495974,-2.117702,-1.128882,-2.427484,0.117484,0.223779,-0.612564,0.322099,0.068533,0.096404
4092.860000,3.240000,START g_bow,Note,0,G,1.758958,0.268244,0.628943,0.099743,-1.825437,-1.938819,0.499601,-2.286712,-0.575636,1.491077,-2.115095,-1.128346,-2.426725,0.117023,0.224987,-0.613372,0.325623,0.067263,0.094630
4092.868000,3.248000,START g_bow,Note,0,G,1.750958,0.268577,0.630313,0.099897,-1.825097,-1.938864,0.499455,-2.285750,-0.573830,1.486167,-2.112437,-1.127814,-2.425981,0.118000,0.226777,-0.616048,0.326887,0.067336,0.091798
4092.876000,3.256000,START g_bow,Note,0,G,1.742958,0.268929,0.631669,0.100056,-1.824793,-1.938852,0.499220,-2.284826,-0.572026,1.481270,-2.109849,-1.127256,-2.425218,0.120040,0.233131,-0.615474,0.324732,0.070636,0.090622
4092.884000,3.264000,START g_bow,Note,0,G,1.734958,0.269280,0.633025,0.100180,-1.824443,-1.938877,0.499068,-2.283904,-0.570151,1.476331,-2.107217,-1.126717,-2.424513,0.116969,0.237407,-0.618230,0.327496,0.066483,0.091879
4092.892000,3.272000,START g_bow,Note,0,G,1.726958,0.269632,0.634393,0.100298,-1.824139,-1.938856,0.498964,-2.282976,-0.568250,1.471352,-2.104550,-1.126175,-2.423761,0.118360,0.235301,-0.620972,0.329021,0.068297,0.093318
4092.900000,3.280000,START g_bow,Note,0,G,1.718958,0.269974,0.635757,0.100444,-1.823817,-1.938924,0.498692,-2.282046,-0.566385,1.466383,-2.101981,-1.125662,-2.423026,0.119405,0.238341,-0.621817,0.326690,0.067584,0.091442
4092.908000,3.288000,START g_bow,Note,0,G,1.710958,0.270321,0.637112,0.100581,-1.823500,-1.938896,0.498517,-2.281131,-0.564511,1.461430,-2.099358,-1.125100,-2.422282,0.116619,0.237229,-0.624069,0.328878,0.066631,0.092039
4092.916000,3.296000,START g_bow,Note,0,G,1.702958,0.270650,0.638467,0.100683,-1.823185,-1.938910,0.498417,-2.280201,-0.562584,1.456477,-2.096740,-1.124581,-2.421546,0.118560,0.237450,-0.627170,0.330596,0.066786,0.091655
4092.924000,3.304000,START g_bow,Note,0,G,1.694958,0.270997,0.639821,0.100764,-1.822854,-1.938896,0.498314,-2.279294,-0.560595,1.451467,-2.094116,-1.124039,-2.420834,0.116802,0.243493,-0.627626,0.329272,0.069223,0.091967
4092.932000,3.312000,START g_bow,Note,0,G,1.686958,0.271339,0.641197,0.100858,-1.822501,-1.938915,0.498183,-2.278363,-0.558588,1.446378,-2.091457,-1.123496,-2.420121,0.116583,0.244655,-0.627099,0.331806,0.066680,0.091535
4092.940000,3.320000,START g_bow,Note,0,G,1.678958,0.271654,0.642578,0.100954,-1.822189,-1.938940,0.498146,-2.277405,-0.556604,1.441320,-2.088758,-1.122989,-2.419366,0.114985,0.241807,-0.627327,0.332938,0.066170,0.089442
4092.948000,3.328000,START g_bow,Note,0,G,1.670958,0.272022,0.643935,0.101096,-1.821838,-1.938991,0.497812,-2.276529,-0.554656,1.436226,-2.086169,-1.122459,-2.418690,0.118350,0.242173,-0.631253,0.329994,0.066336,0.088577
4092.956000,3.336000,START g_bow,Note,0,G,1.662958,0.272350,0.645299,0.101257,-1.821462,-1.939046,0.497518,-2.275603,-0.552753,1.431175,-2.083564,-1.121908,-2.417986,0.114088,0.241983,-0.633675,0.331506,0.065753,0.087944
4092.964000,3.344000,START g_bow,Note,0,G,1.654958,0.272695,0.646661,0.101384,-1.821152,-1.939043,0.497357,-2.274704,-0.550791,1.426093,-2.080890,-1.121381,-2.417262,0.113654,0.242699,-0.636702,0.334073,0.065187,0.087496
4092.972000,3.352000,START g_bow,Note,0,G,1.646958,0.273005,0.648029,0.101524,-1.820810,-1.939135,0.497207,-2.273766,-0.548855,1.421022,-2.078204,-1.120900,-2.416554,0.112368,0.246371,-0.639283,0.337015,0.065108,0.087675
4092.980000,3.360000,START g_bow,Note,0,G,1.638958,0.273297,0.649401,0.101611,-1.820438,-1.939170,0.497298,-2.272804,-0.546838,1.415940,-2.075409,-1.120391,-2.415858,0.113733,0.246146,-0.640164,0.339177,0.065607,0.087205
4092.988000,3.368000,START g_bow,Note,0,G,1.630958,0.273640,0.650776,0.101738,-1.820094,-1.939161,0.497143,-2.271900,-0.544823,1.410765,-2.072685,-1.119840,-2.415150,0.114140,0.250173,-0.637992,0.336477,0.067345,0.086224
4092.996000,3.376000,START g_bow,Note,0,G,1.622958,0.273960,0.652138,0.101891,-1.819721,-1.939244,0.496859,-2.270986,-0.542867,1.405647,-2.070058,-1.119322,-2.414466,0.113068,0.249623,-0.642879,0.332352,0.066227,0.086215
4093.004000,3.384000,START g_bow,Note,0,G,1.614958,0.274301,0.653508,0.102084,-1.819378,-1.939274,0.496536,-2.270090,-0.540945,1.400479,-2.067378,-1.118778,-2.413755,0.111805,0.250151,-0.645319,0.335109,0.062967,0.086521
4093.012000,3.392000,START g_bow,Note,0,G,1.606958,0.274665,0.654869,0.102249,-1.819057,-1.939282,0.496252,-2.269235,-0.538965,1.395276,-2.064677,-1.118251,-2.413066,0.108673,0.253179,-0.651125,0.337255,0.063437,0.084684
4093.020000,3.400000,START g_bow,Note,0,G,1.598958,0.274961,0.656240,0.102385,-1.818697,-1.939357,0.496095,-2.268297,-0.536964,1.390123,-2.061979,-1.117748,-2.412363,0.107748,0.253217,-0.651353,0.342387,0.062267,0.085138
4093.028000,3.408000,START g_bow,Note,0,G,1.590958,0.275288,0.657600,0.102502,-1.818370,-1.939403,0.495971,-2.267408,-0.534919,1.384932,-2.059249,-1.117264,-2.411679,0.103421,0.252032,-0.634916,0.337766,0.060304,0.082490
4093.036000,3.416000,START g_bow,Note,0,G,1.582958,0.275658,0.658900,0.102617,-1.818052,-1.939404,0.495742,-2.266623,-0.532906,1.379848,-2.056629,-1.116769,-2.411066,0.102000,0.246111,-0.620336,0.326182,0.060599,0.076829
4093.044000,3.424000,START g_bow,Note,0,G,1.574958,0.275979,0.660176,0.102740,-1.817737,-1.939425,0.495543,-2.265808,-0.530974,1.374925,-2.054083,-1.116287,-2.410430,0.099043,0.239559,-0.604656,0.315802,0.058293,0.077633
4093.052000,3.432000,START g_bow,Note,0,G,1.566958,0.276301,0.661399,0.102821,-1.817478,-1.939380,0.495424,-2.265048,-0.529048,1.370169,-2.051624,-1.115816,-2.409799,0.094176,0.237363,-0.588289,0.308170,0.056992,0.075428
4093.060000,3.440000,START g_bow,Note,0,G,1.558958,0.276570,0.662582,0.102899,-1.817187,-1.939372,0.495421,-2.264267,-0.527211,1.365622,-2.049198,-1.115370,-2.409199,0.092983,0.228204,-0.575269,0.302512,0.055025,0.074307
4093.068000,3.448000,START g_bow,Note,0,G,1.550958,0.276846,0.663733,0.102949,-1.816924,-1.939356,0.495522,-2.263527,-0.525373,1.361153,-2.046762,-1.114965,-2.408634,0.088273,0.218686,-0.560543,0.293453,0.051884,0.068009
4093.076000,3.456000,START g_bow,Note,0,G,1.542958,0.277122,0.664857,0.103024,-1.816657,-1.939333,0.495512,-2.262811,-0.523603,1.356775,-2.044420,-1.114542,-2.408078,0.086362,0.213851,-0.543467,0.283300,0.048633,0.067643
4093.084000,3.464000,START g_bow,Note,0,G,1.534958,0.277397,0.665941,0.103077,-1.816393,-1.939328,0.495510,-2.262133,-0.521847,1.352510,-2.042156,-1.114150,-2.407566,0.083531,0.209846,-0.527065,0.275212,0.049020,0.065038
4093.092000,3.472000,START g_bow,Note,0,G,1.526958,0.277685,0.667007,0.103185,-1.816151,-1.939353,0.495362,-2.261489,-0.520188,1.348291,-2.039944,-1.113782,-2.407062,0.081195,0.202536,-0.508809,0.264942,0.046246,0.062597
4093.100000,3.480000,START g_bow,Note,0,G,1.518958,0.277916,0.668038,0.103307,-1.815884,-1.939448,0.495115,-2.260815,-0.518634,1.344287,-2.037926,-1.113430,-2.406555,0.078324,0.194601,-0.493150,0.253444,0.046643,0.063550
4093.108000,3.488000,START g_bow,Note,0,G,1.510958,0.278188,0.669020,0.103456,-1.815660,-1.939464,0.494798,-2.260232,-0.517160,1.340389,-2.035957,-1.113059,-2.406071,0.074853,0.184538,-0.478632,0.248356,0.043531,0.059881
4093.116000,3.496000,START g_bow,Note,0,G,1.502958,0.278455,0.669955,0.103596,-1.815398,-1.939476,0.494486,-2.259683,-0.515732,1.336641,-2.034063,-1.112677,-2.405650,0.069354,0.177806,-0.461424,0.235840,0.042254,0.055151
4093.124000,3.504000,START g_bow,Note,0,G,1.494958,0.278663,0.670863,0.103666,-1.815197,-1.939483,0.494438,-2.259101,-0.514296,1.333081,-2.032193,-1.112357,-2.405187,0.071110,0.175386,-0.444622,0.229965,0.040351,0.053425
4093.132000,3.512000,START g_bow,Note,0,G,1.486958,0.278889,0.671736,0.103756,-1.815000,-1.939498,0.494348,-2.258569,-0.512925,1.329604,-2.030353,-1.112058,-2.404770,0.066279,0.166815,-0.425546,0.222355,0.039739,0.052341
4093.140000,3.520000,START g_bow,Note,0,G,1.478958,0.279082,0.672551,0.103808,-1.814800,-1.939492,0.494339,-2.258054,-0.511603,1.326372,-2.028637,-1.111759,-2.404378,0.064560,0.161399,-0.409019,0.213920,0.037733,0.048992
4093.148000,3.528000,START g_bow,Note,0,G,1.470958,0.279293,0.673363,0.103931,-1.814612,-1.939507,0.494104,-2.257562,-0.510376,1.323143,-2.026994,-1.111454,-2.403975,0.058507,0.154864,-0.388562,0.203833,0.036036,0.046255
4093.156000,3.536000,START g_bow,Note,0,G,1.462958,0.279486,0.674125,0.104022,-1.814399,-1.939545,0.493922,-2.257095,-0.509178,1.320087,-2.025441,-1.111172,-2.403631,0.055303,0.148637,-0.373462,0.192857,0.032244,0.043575
4093.164000,3.544000,START g_bow,Note,0,G,1.454958,0.279672,0.674868,0.104145,-1.814170,-1.939603,0.493648,-2.256635,-0.508055,1.317113,-2.023955,-1.110884,-2.403298,0.053308,0.142917,-0.354177,0.183486,0.031061,0.041773
4093.172000,3.552000,START g_bow,Note,0,G,1.446958,0.279858,0.675560,0.104245,-1.814020,-1.939667,0.493427,-2.256228,-0.506987,1.314322,-2.022554,-1.110672,-2.402974,0.050144,0.133516,-0.339761,0.172798,0.030570,0.039728
4093.180000,3.560000,START g_bow,Note,0,G,1.438958,0.280021,0.676208,0.104304,-1.813868,-1.939679,0.493347,-2.255832,-0.505938,1.311712,-2.021198,-1.110445,-2.402666,0.048091,0.126328,-0.318469,0.167667,0.028323,0.037591
4093.188000,3.568000,START g_bow,Note,0,G,1.430958,0.280179,0.676805,0.104336,-1.813731,-1.939658,0.493379,-2.255477,-0.504934,1.309288,-2.019884,-1.110233,-2.402394,0.047522,0.121218,-0.302331,0.156839,0.028701,0.036473
4093.196000,3.576000,START g_bow,Note,0,G,1.422958,0.280290,0.677385,0.104350,-1.813609,-1.939659,0.493472,-2.255090,-0.503969,1.307005,-2.018644,-1.110045,-2.402095,0.043769,0.115087,-0.282104,0.148300,0.025180,0.034048
4093.204000,3.584000,START g_bow,Note,0,G,1.414958,0.280431,0.677921,0.104399,-1.813478,-1.939661,0.493419,-2.254770,-0.503093,1.304826,-2.017497,-1.109853,-2.401850,0.041514,0.108347,-0.264511,0.140314,0.023654,0.029695
4093.212000,3.592000,START g_bow,Note,0,G,1.406958,0.280568,0.678408,0.104429,-1.813361,-1.939629,0.493404,-2.254489,-0.502266,1.302827,-2.016438,-1.109662,-2.401630,0.038201,0.100224,-0.246386,0.128026,0.022116,0.028614
4093.220000,3.600000,START g_bow,Note,0,G,1.398958,0.280687,0.678870,0.104458,-1.813281,-1.939610,0.493362,-2.254214,-0.501490,1.300952,-2.015478,-1.109499,-2.401390,0.035006,0.092307,-0.228410,0.118580,0.020548,0.026454
4093.228000,3.608000,START g_bow,Note,0,G,1.390958,0.280788,0.679301,0.104486,-1.813121,-1.939650,0.493289,-2.253942,-0.500759,1.299192,-2.014592,-1.109335,-2.401226,0.030820,0.085418,-0.211522,0.110779,0.018231,0.024661
4093.236000,3.616000,START g_bow,Note,0,G,1.382958,0.280859,0.679688,0.104491,-1.813020,-1.939640,0.493389,-2.253680,-0.500104,1.297659,-2.013735,-1.109194,-2.401038,0.028586,0.081831,-0.191856,0.099380,0.017500,0.022114
4093.244000,3.624000,START g_bow,Note,0,G,1.374958,0.280955,0.680049,0.104512,-1.812946,-1.939645,0.493362,-2.253468,-0.499489,1.296177,-2.012967,-1.109078,-2.400870,0.026442,0.072290,-0.175451,0.089287,0.015622,0.020772
4093.252000,3.632000,START g_bow,Note,0,G,1.366958,0.281035,0.680361,0.104509,-1.812906,-1.939600,0.493406,-2.253283,-0.498933,1.294908,-2.012296,-1.108963,-2.400698,0.025278,0.065260,-0.155396,0.081057,0.013543,0.018696
4093.260000,3.640000,START g_bow,Note,0,G,1.358958,0.281101,0.680646,0.104534,-1.812809,-1.939614,0.493398,-2.253104,-0.498464,1.293749,-2.011672,-1.108856,-2.400585,0.021127,0.058293,-0.136015,0.069439,0.011442,0.015781
4093.268000,3.648000,START g_bow,Note,0,G,1.350958,0.281154,0.680895,0.104532,-1.812733,-1.939655,0.493348,-2.252944,-0.498014,1.292729,-2.011196,-1.108782,-2.400481,0.018675,0.049463,-0.118370,0.059072,0.009857,0.014008
4093.276000,3.656000,START g_bow,Note,0,G,1.342958,0.281207,0.681110,0.104562,-1.812725,-1.939595,0.493343,-2.252815,-0.497686,1.291880,-2.010738,-1.108685,-2.400331,0.015449,0.041119,-0.100116,0.050440,0.006753,0.012096
4093.284000,3.664000,START g_bow,Note,0,G,1.334958,0.281249,0.681282,0.104586,-1.812629,-1.939704,0.493241,-2.252708,-0.497402,1.291149,-2.010395,-1.108664,-2.400313,0.012259,0.030848,-0.083305,0.040660,0.003738,0.008263
4093.292000,3.672000,START g_bow,Note,0,G,1.326958,0.281290,0.681418,0.104590,-1.812616,-1.939728,0.493200,-2.252635,-0.497158,1.290577,-2.010128,-1.108644,-2.400250,0.009074,0.023913,-0.061381,0.031188,0.003011,0.003803
4093.300000,3.680000,START g_bow,Note,0,G,1.318958,0.281324,0.681512,0.104610,-1.812620,-1.939754,0.493169,-2.252591,-0.497018,1.290180,-2.009916,-1.108647,-2.400206,0.003439,0.015998,-0.042841,0.020713,0.001418,0.001363
4093.308000,3.688000,START g_bow,Note,0,G,1.310958,0.281347,0.681570,0.104628,-1.812577,-1.939803,0.493115,-2.252564,-0.496929,1.289916,-2.009784,-1.108644,-2.400219,0.000760,0.008742,-0.024299,0.010614,0.000590,0.000681
4093.316000,3.696000,START g_bow,Note,0,G,1.302958,0.281369,0.681590,0.104638,-1.812550,-1.939820,0.493066,-2.252569,-0.496890,1.289796,-2.009733,-1.108635,-2.400241,-0.001466,0.000031,-0.005656,0.000138,0.000387,0.000380
4093.324000,3.704000,END g_bow,Note,0,G,1.294958,0.281375,0.681566,0.104634,-1.812618,-1.939747,0.493119,-2.252600,-0.496929,1.289894,-2.009753,-1.108635,-2.400206,-0.000412,-0.002508,0.000044,-0.003069,0.000288,0.000226
4093.332000,3.712000,END g_bow,Note,0,G,1.286958,0.281384,0.681556,0.104627,-1.812581,-1.939758,0.493043,-2.252615,-0.496914,1.289898,-2.009815,-1.108616,-2.400241,-0.000000,-0.001057,0.004422,-0.001181,0.000314,0.000181
4093.340000,3.720000,END g_bow,Note,0,G,1.278958,0.281400,0.681551,0.104658,-1.812624,-1.939742,0.493037,-2.252639,-0.496969,1.289910,-2.009776,-1.108635,-2.400229,-0.001396,-0.002055,-0.000106,-0.000539,0.000387,0.000041
4093.348000,3.728000,START g_to_d,Note,0,G,1.270958,0.281412,0.681562,0.104685,-1.812636,-1.939739,0.492953,-2.252643,-0.496984,1.289863,-2.009780,-1.108627,-2.400210,-0.000833,-0.001166,-0.005548,-0.000280,0.001675,0.000035
4093.356000,3.736000,START g_to_d,Note,0,G,1.262958,0.281530,0.681550,0.104707,-1.812690,-1.939636,0.493054,-2.252778,-0.496965,1.289712,-2.009519,-1.108639,-2.400293,-0.029970,-0.004076,-0.031641,0.028571,0.000049,-0.017577
4093.364000,3.744000,START g_to_d,Note,0,G,1.254958,0.281687,0.681550,0.104783,-1.812699,-1.939593,0.492961,-2.252942,-0.496965,1.289436,-2.009241,-1.108651,-2.400428,-0.018196,-0.000693,-0.041229,0.048384,-0.004848,-0.018900
4093.372000,3.752000,START g_to_d,Note,0,G,1.246958,0.281896,0.681581,0.104919,-1.812750,-1.939552,0.492865,-2.253138,-0.496989,1.288986,-2.008761,-1.108699,-2.400569,-0.030412,-0.000311,-0.057298,0.066813,-0.011847,-0.027180
4093.380000,3.760000,START g_to_d,Note,0,G,1.238958,0.282177,0.681602,0.105073,-1.812810,-1.939471,0.492726,-2.253417,-0.496998,1.288441,-2.008199,-1.108743,-2.400769,-0.038403,-0.001089,-0.075347,0.086617,-0.011375,-0.036345
4093.388000,3.768000,START g_to_d,Note,0,G,1.230958,0.282528,0.681638,0.105267,-1.812809,-1.939484,0.492562,-2.253753,-0.496986,1.287684,-2.007423,-1.108842,-2.401104,-0.045488,-0.000644,-0.090129,0.109459,-0.014554,-0.043730
4093.396000,3.776000,START g_to_d,Note,0,G,1.222958,0.282934,0.681655,0.105458,-1.812857,-1.939378,0.492711,-2.254164,-0.496989,1.286921,-2.006360,-1.108950,-2.401488,-0.053358,-0.000081,-0.103266,0.130774,-0.018017,-0.056614
4093.404000,3.784000,START g_to_d,Note,0,G,1.214958,0.283428,0.681674,0.105654,-1.812916,-1.939267,0.492772,-2.254666,-0.496922,1.285974,-2.005213,-1.109078,-2.401944,-0.062495,0.000652,-0.121085,0.151247,-0.021715,-0.066295
4093.412000,3.792000,START g_to_d,Note,0,G,1.206958,0.283967,0.681701,0.105937,-1.812930,-1.939254,0.492797,-2.255205,-0.496945,1.284916,-2.003864,-1.109265,-2.402503,-0.069752,0.001185,-0.136712,0.172939,-0.025692,-0.075955
4093.420000,3.800000,START g_to_d,Note,0,G,1.198958,0.284554,0.681732,0.106238,-1.812912,-1.939289,0.492739,-2.255789,-0.496941,1.283733,-2.002452,-1.109476,-2.403135,-0.078389,0.000684,-0.153960,0.191169,-0.029264,-0.086589
4093.428000,3.808000,START g_to_d,Note,0,G,1.190958,0.285206,0.681776,0.106594,-1.812869,-1.939341,0.492653,-2.256427,-0.496953,1.282386,-2.000850,-1.109700,-2.403846,-0.084079,0.000454,-0.173032,0.212461,-0.031884,-0.095005
4093.436000,3.816000,START g_to_d,Note,0,G,1.182958,0.285945,0.681812,0.106997,-1.812830,-1.939349,0.492584,-2.257162,-0.496989,1.280917,-1.999046,-1.109927,-2.404641,-0.091397,0.000283,-0.190927,0.232571,-0.034155,-0.102928
4093.444000,3.824000,START g_to_d,Note,0,G,1.174958,0.286750,0.681857,0.107427,-1.812781,-1.939454,0.492457,-2.257956,-0.496993,1.279264,-1.997104,-1.110237,-2.405533,-0.101526,0.000271,-0.211178,0.255277,-0.038660,-0.114632
4093.452000,3.832000,START g_to_d,Note,0,G,1.166958,0.287626,0.681891,0.107834,-1.812795,-1.939398,0.492610,-2.258835,-0.496946,1.277532,-1.994894,-1.110530,-2.406453,-0.110353,0.002237,-0.225635,0.275489,-0.040544,-0.123693
4093.460000,3.840000,START g_to_d,Note,0,G,1.158958,0.288514,0.681946,0.108288,-1.812719,-1.939459,0.492687,-2.259703,-0.496914,1.275675,-1.992588,-1.110850,-2.407456,-0.117342,0.003339,-0.240998,0.298923,-0.043652,-0.129353
4093.468000,3.848000,START g_to_d,Note,0,G,1.150958,0.289533,0.681986,0.108766,-1.812722,-1.939392,0.492849,-2.260721,-0.496854,1.273644,-1.990019,-1.111178,-2.408528,-0.124798,0.007072,-0.260784,0.320627,-0.046207,-0.140888
4093.476000,3.856000,START g_to_d,Note,0,G,1.142958,0.290603,0.682025,0.109280,-1.812686,-1.939476,0.492861,-2.261790,-0.496790,1.271480,-1.987403,-1.111599,-2.409712,-0.133923,0.007964,-0.279248,0.340281,-0.048008,-0.148065
4093.484000,3.864000,START g_to_d,Note,0,G,1.134958,0.291752,0.682066,0.109836,-1.812653,-1.939470,0.492860,-2.262935,-0.496722,1.269165,-1.984617,-1.111975,-2.410939,-0.145105,0.010675,-0.299888,0.358532,-0.052423,-0.155720
4093.492000,3.872000,START g_to_d,Note,0,G,1.126958,0.292945,0.682124,0.110421,-1.812603,-1.939544,0.492936,-2.264111,-0.496638,1.266684,-1.981605,-1.112429,-2.412250,-0.152634,0.012787,-0.321743,0.381952,-0.056912,-0.164531
4093.500000,3.880000,START g_to_d,Note,0,G,1.118958,0.294238,0.682161,0.111012,-1.812595,-1.939485,0.493193,-2.265403,-0.496527,1.264090,-1.978323,-1.112873,-2.413634,-0.163886,0.014237,-0.340135,0.405122,-0.059795,-0.174320
4093.508000,3.888000,START g_to_d,Note,0,G,1.110958,0.295525,0.682243,0.111636,-1.812503,-1.939613,0.493262,-2.266647,-0.496368,1.261293,-1.975035,-1.113371,-2.415065,-0.149067,0.020993,-0.338113,0.412227,-0.059515,-0.171102
4093.516000,3.896000,START g_to_d,Note,0,G,1.102958,0.296744,0.682319,0.112250,-1.812444,-1.939683,0.493229,-2.267825,-0.496243,1.258655,-1.971990,-1.113802,-2.416366,-0.135964,0.020717,-0.320872,0.384479,-0.054938,-0.162763
4093.524000,3.904000,START g_to_d,Note,0,G,1.094958,0.297957,0.682382,0.112861,-1.812471,-1.939725,0.493168,-2.269012,-0.496143,1.256094,-1.969035,-1.114258,-2.417599,-0.155173,0.010403,-0.309598,0.361144,-0.053928,-0.152901
4093.532000,3.912000,START g_to_d,Note,0,G,1.086958,0.299134,0.682418,0.113424,-1.812443,-1.939766,0.493003,-2.270178,-0.496012,1.253659,-1.966314,-1.114658,-2.418834,-0.137021,0.015129,-0.294354,0.344276,-0.049997,-0.141414
4093.540000,3.920000,START g_to_d,Note,0,G,1.078958,0.300221,0.682464,0.113935,-1.812530,-1.939723,0.493178,-2.271249,-0.495892,1.251393,-1.963561,-1.115080,-2.419907,-0.128466,0.015106,-0.273775,0.326633,-0.047339,-0.134340
4093.548000,3.928000,START g_to_d,Note,0,G,1.070958,0.301225,0.682515,0.114453,-1.812521,-1.939780,0.493051,-2.272225,-0.495800,1.249235,-1.961142,-1.115443,-2.420939,-0.119979,0.014702,-0.259298,0.302969,-0.043377,-0.125709
4093.556000,3.936000,START g_to_d,Note,0,G,1.062958,0.302164,0.682558,0.114888,-1.812552,-1.939682,0.493219,-2.273140,-0.495664,1.247248,-1.958748,-1.115735,-2.421867,-0.110983,0.013723,-0.241348,0.282935,-0.039760,-0.114966
4093.564000,3.944000,START g_to_d,Note,0,G,1.054958,0.303033,0.682587,0.115312,-1.812558,-1.939669,0.493225,-2.273994,-0.495572,1.245428,-1.956626,-1.116031,-2.422755,-0.099381,0.011894,-0.224230,0.260346,-0.036200,-0.110016
4093.572000,3.952000,START g_to_d,Note,0,G,1.046958,0.303829,0.682621,0.115730,-1.812535,-1.939732,0.493150,-2.274769,-0.495507,1.243715,-1.954675,-1.116330,-2.423595,-0.091792,0.012199,-0.207091,0.241296,-0.034823,-0.100058
4093.580000,3.960000,START g_to_d,Note,0,G,1.038958,0.304557,0.682657,0.116071,-1.812561,-1.939749,0.493257,-2.275476,-0.495392,1.242133,-1.952809,-1.116628,-2.424340,-0.084723,0.011000,-0.191270,0.221363,-0.032186,-0.092630
4093.588000,3.968000,START g_to_d,Note,0,G,1.030958,0.305223,0.682684,0.116381,-1.812565,-1.939735,0.493319,-2.276124,-0.495284,1.240702,-1.951143,-1.116860,-2.425020,-0.080686,0.011186,-0.174714,0.198645,-0.027809,-0.081386
4093.596000,3.976000,START g_to_d,Note,0,G,1.022958,0.305838,0.682697,0.116677,-1.812563,-1.939708,0.493360,-2.276732,-0.495216,1.239425,-1.949623,-1.117061,-2.425655,-0.071943,0.009609,-0.156656,0.180461,-0.024451,-0.073380
4093.604000,3.984000,START g_to_d,Note,0,G,1.014958,0.306372,0.682707,0.116913,-1.812567,-1.939645,0.493480,-2.277259,-0.495128,1.238319,-1.948272,-1.117222,-2.426199,-0.063023,0.007796,-0.138567,0.155237,-0.020664,-0.063775
4093.612000,3.992000,START g_to_d,Note,0,G,1.006958,0.306866,0.682725,0.117180,-1.812584,-1.939662,0.493345,-2.277742,-0.495096,1.237266,-1.947139,-1.117393,-2.426680,-0.056291,0.004988,-0.118375,0.133743,-0.018517,-0.054911
4093.620000,4.000000,START g_to_d,Note,0,G,0.998958,0.307272,0.682748,0.117408,-1.812621,-1.939684,0.493219,-2.278134,-0.495072,1.236381,-1.946205,-1.117548,-2.427053,-0.049149,0.002358,-0.103603,0.110120,-0.015184,-0.044493
4093.628000,4.008000,START g_to_d,Note,0,G,0.990958,0.307612,0.682759,0.117606,-1.812623,-1.939654,0.493116,-2.278466,-0.495072,1.235672,-1.945423,-1.117626,-2.427373,-0.040521,0.001223,-0.084951,0.092472,-0.013226,-0.037500
4093.636000,4.016000,START g_to_d,Note,0,G,0.982958,0.307885,0.682766,0.117763,-1.812620,-1.939682,0.493023,-2.278734,-0.495069,1.235094,-1.944797,-1.117725,-2.427652,-0.029945,0.000728,-0.065221,0.071373,-0.010312,-0.029183
4093.644000,4.024000,START g_to_d,Note,0,G,0.974958,0.308044,0.682794,0.117894,-1.812565,-1.939761,0.492977,-2.278867,-0.495088,1.234665,-1.944310,-1.117797,-2.427853,-0.019948,0.000455,-0.046608,0.049477,-0.003896,-0.020892
4093.652000,4.032000,START g_to_d,Note,0,G,0.966958,0.308217,0.682785,0.117984,-1.812567,-1.939668,0.492839,-2.279046,-0.495084,1.234365,-1.944038,-1.117762,-2.427985,-0.011889,0.000056,-0.029255,0.029786,-0.000886,-0.012799
4093.660000,4.040000,START g_to_d,Note,0,G,0.958958,0.308251,0.682798,0.118003,-1.812586,-1.939706,0.492855,-2.279071,-0.495069,1.234248,-1.943916,-1.117815,-2.428014,0.000967,0.000000,-0.010596,0.009002,-0.000396,-0.000483
4093.668000,4.048000,START g_to_d,Note,0,G,0.950958,0.308267,0.682800,0.118031,-1.812582,-1.939741,0.492884,-2.279085,-0.495099,1.234207,-1.943817,-1.117851,-2.428048,0.005020,-0.000098,-0.051546,0.081350,-0.028723,-0.030535
4093.676000,4.056000,START g_to_d,Note,0,G,0.942958,0.308180,0.682949,0.117998,-1.812291,-1.940234,0.493996,-2.278856,-0.494925,1.233688,-1.942662,-1.118197,-2.428360,0.023605,0.019675,-0.085136,0.180031,-0.046554,-0.047174
4093.684000,4.064000,START g_to_d,Note,0,G,0.934958,0.308146,0.683147,0.117985,-1.811872,-1.940848,0.495825,-2.278628,-0.494693,1.232830,-1.940647,-1.118697,-2.428915,0.030556,0.031518,-0.119282,0.287245,-0.075142,-0.076169
4093.692000,4.072000,START g_to_d,Note,0,G,0.926958,0.308110,0.683408,0.117968,-1.811337,-1.941714,0.498412,-2.278341,-0.494395,1.231671,-1.937822,-1.119448,-2.429690,0.041049,0.038475,-0.163682,0.399420,-0.105113,-0.106689
4093.700000,4.080000,START g_to_d,Note,0,G,0.918958,0.308088,0.683744,0.117986,-1.810681,-1.942831,0.501721,-2.277997,-0.494060,1.230145,-1.934120,-1.120448,-2.430686,0.046094,0.047037,-0.208051,0.513013,-0.136534,-0.140564
4093.708000,4.088000,START g_to_d,Note,0,G,0.910958,0.308042,0.684165,0.118001,-1.809767,-1.944331,0.505934,-2.277543,-0.493628,1.228222,-1.929425,-1.121739,-2.432015,0.055682,0.060155,-0.252518,0.630885,-0.170822,-0.175765
4093.716000,4.096000,START g_to_d,Note,0,G,0.902958,0.308017,0.684650,0.118000,-1.808746,-1.946011,0.511046,-2.277051,-0.493098,1.225946,-1.923794,-1.123276,-2.433566,0.067000,0.070225,-0.298377,0.750779,-0.204945,-0.207310
4093.724000,4.104000,START g_to_d,Transition,0,G-C,1.094958,0.307962,0.685215,0.117991,-1.807496,-1.948015,0.517234,-2.276449,-0.492490,1.223317,-1.917078,-1.125118,-2.435420,0.076111,0.077680,-0.343867,0.870370,-0.239996,-0.241430
4093.732000,4.112000,START g_to_d,Transition,0,G-C,1.086958,0.307932,0.685838,0.117951,-1.806055,-1.950195,0.524218,-2.275813,-0.491738,1.220317,-1.909517,-1.127153,-2.437536,0.085660,0.093467,-0.390019,0.991322,-0.274428,-0.277375
4093.740000,4.120000,START g_to_d,Transition,0,G-C,1.078958,0.307879,0.686525,0.117952,-1.804384,-1.952745,0.531993,-2.275091,-0.490982,1.217003,-1.901055,-1.129503,-2.439941,0.094298,0.103706,-0.438755,1.111145,-0.310826,-0.310098
4093.748000,4.128000,START g_to_d,Transition,0,G-C,1.070958,0.307824,0.687288,0.117917,-1.802553,-1.955544,0.540883,-2.274297,-0.490084,1.213283,-1.891508,-1.132187,-2.442597,0.101995,0.114602,-0.485785,1.235175,-0.346556,-0.342380
4093.756000,4.136000,START g_to_d,Transition,0,G-C,1.062958,0.307772,0.688127,0.117904,-1.800523,-1.958600,0.550717,-2.273434,-0.489117,1.209159,-1.880933,-1.135169,-2.445502,0.110683,0.126705,-0.537309,1.355509,-0.380587,-0.373464
4093.764000,4.144000,START g_to_d,Transition,0,G-C,1.054958,0.307691,0.689051,0.117895,-1.798197,-1.961970,0.561180,-2.272459,-0.488016,1.204617,-1.869620,-1.138377,-2.448653,0.120919,0.141555,-0.593823,1.469286,-0.420552,-0.404854
4093.772000,4.152000,START g_to_d,Transition,0,G-C,1.046958,0.307628,0.690056,0.117915,-1.795698,-1.965545,0.572682,-2.271429,-0.486835,1.199616,-1.857177,-1.141904,-2.452022,0.132679,0.158023,-0.646030,1.595006,-0.455398,-0.433761
4093.780000,4.160000,START g_to_d,Transition,0,G-C,1.038958,0.307529,0.691154,0.117905,-1.792993,-1.969482,0.585152,-2.270283,-0.485481,1.194159,-1.843790,-1.145838,-2.455598,0.142600,0.175675,-0.698624,1.712299,-0.495161,-0.463518
4093.788000,4.168000,START g_to_d,Transition,0,G-C,1.030958,0.307436,0.692329,0.117923,-1.790054,-1.973501,0.597966,-2.269069,-0.483991,1.188284,-1.829888,-1.149833,-2.459279,0.148637,0.200821,-0.738720,1.718995,-0.493338,-0.449571
4093.796000,4.176000,START g_to_d,Transition,0,G-C,1.022958,0.307318,0.693574,0.117939,-1.787106,-1.977426,0.610825,-2.267777,-0.482367,1.182160,-1.815911,-1.153797,-2.462800,0.157322,0.216293,-0.783666,1.750333,-0.494825,-0.440260
4093.804000,4.184000,START g_to_d,Transition,0,G-C,1.014958,0.307243,0.694854,0.117940,-1.784154,-1.981289,0.623600,-2.266506,-0.480574,1.175752,-1.801918,-1.157773,-2.466250,0.165923,0.237636,-0.828765,1.767919,-0.496428,-0.430316
4093.812000,4.192000,START g_to_d,Transition,0,G-C,1.006958,0.307120,0.696240,0.117954,-1.781025,-1.985144,0.636686,-2.265092,-0.478617,1.168948,-1.787522,-1.161732,-2.469657,0.175302,0.260270,-0.869634,1.788394,-0.495413,-0.419773
4093.820000,4.200000,START g_to_d,Transition,0,G-C,0.998958,0.307030,0.697696,0.117935,-1.777977,-1.989015,0.649621,-2.263669,-0.476410,1.161736,-1.773154,-1.165778,-2.472917,0.183934,0.289403,-0.908929,1.808183,-0.497230,-0.405450
4093.828000,4.208000,START g_to_d,Transition,0,G-C,0.990958,0.306936,0.699232,0.117925,-1.774772,-1.992791,0.662560,-2.262172,-0.474015,1.154138,-1.758612,-1.169702,-2.476131,0.189984,0.312192,-0.960415,1.820055,-0.497359,-0.391862
4093.836000,4.216000,START g_to_d,Transition,0,G-C,0.982958,0.306801,0.700833,0.117898,-1.771497,-1.996477,0.675551,-2.260583,-0.471467,1.146305,-1.744004,-1.173558,-2.479227,0.198820,0.330196,-1.005252,1.837607,-0.496913,-0.379806
4093.844000,4.224000,START g_to_d,Transition,0,G-C,0.974958,0.306663,0.702520,0.117837,-1.768255,-2.000222,0.688686,-2.258934,-0.468676,1.138042,-1.729188,-1.177553,-2.482205,0.207393,0.354084,-1.057848,1.865459,-0.490131,-0.364653
4093.852000,4.232000,START g_to_d,Transition,0,G-C,0.966958,0.306560,0.704276,0.117734,-1.765076,-2.003689,0.702125,-2.257274,-0.465642,1.129384,-1.714042,-1.181490,-2.485016,0.214692,0.380716,-1.097539,1.889224,-0.492369,-0.353964
4093.860000,4.240000,START g_to_d,Transition,0,G-C,0.958958,0.306421,0.706131,0.117689,-1.761645,-2.007435,0.715045,-2.255494,-0.462422,1.120243,-1.699018,-1.185408,-2.487869,0.224199,0.404705,-1.154090,1.900716,-0.487476,-0.343898
