srs827/Robot-Cello-ResidualRL/Data-Files/Big-Logs/long_long_ago-log-detailed.csv
timestamp_robot,time_elapsed_sec,event_label,current_event_type,bow_direction,current_string,remaining_duration_sec,TCP_pose_x,TCP_pose_y,TCP_pose_z,TCP_pose_rx,TCP_pose_ry,TCP_pose_rz,q_base,q_shoulder,q_elbow,q_wrist1,q_wrist2,q_wrist3,qd_base,qd_shoulder,qd_elbow,qd_wrist1,qd_wrist2,qd_wrist3
3500.270000,0.000000,START g_bow,Note,1,G,0.498958,0.195977,0.358612,0.449013,-1.927037,-2.319422,-0.284425,-2.570588,-1.625761,2.021559,-2.112779,-1.402983,-2.740290,0.000000,0.000000,-0.000000,-0.000000,-0.000000,0.000000
3500.278000,0.008000,START g_bow,Note,1,G,0.490958,0.195986,0.358604,0.449005,-1.927103,-2.319350,-0.284413,-2.570625,-1.625765,2.021590,-2.112794,-1.402972,-2.740263,0.000000,0.000000,-0.000000,-0.000000,-0.000000,0.000000
3500.286000,0.016000,START g_bow,Note,1,G,0.482958,0.195977,0.358612,0.449018,-1.927052,-2.319403,-0.284464,-2.570592,-1.625768,2.021556,-2.112794,-1.402975,-2.740275,0.000000,0.000000,-0.000000,-0.000000,-0.000000,0.000000
3500.294000,0.024000,START g_bow,Note,1,G,0.474958,0.195982,0.358610,0.449012,-1.927087,-2.319360,-0.284433,-2.570607,-1.625765,2.021571,-2.112790,-1.402968,-2.740256,0.000000,0.000000,-0.000000,-0.000000,-0.000000,0.000000
3500.302000,0.032000,START g_bow,Note,1,G,0.466958,0.195990,0.358606,0.449016,-1.927115,-2.319350,-0.284434,-2.570629,-1.625768,2.021562,-2.112779,-1.402976,-2.740259,0.000000,0.000000,-0.000000,-0.000000,-0.000000,0.000000
3500.310000,0.040000,START g_bow,Note,1,G,0.458958,0.195979,0.358606,0.449022,-1.927054,-2.319404,-0.284463,-2.570607,-1.625781,2.021556,-2.112779,-1.402975,-2.740290,0.000000,0.000000,-0.000000,-0.000000,-0.000000,0.000000
3500.318000,0.048000,START g_bow,Note,1,G,0.450958,0.195977,0.358606,0.449014,-1.927090,-2.319407,-0.284451,-2.570607,-1.625781,2.021575,-2.112797,-1.403003,-2.740275,0.000000,0.000000,-0.000000,-0.000000,-0.000000,0.000000
3500.326000,0.056000,START g_bow,Note,1,G,0.442958,0.195978,0.358611,0.449012,-1.927045,-2.319430,-0.284417,-2.570592,-1.625761,2.021559,-2.112775,-1.402995,-2.740294,0.000000,0.000000,-0.000000,-0.000000,-0.000000,0.000000
3500.334000,0.064000,START g_bow,Note,1,G,0.434958,0.195975,0.358611,0.449004,-1.927079,-2.319383,-0.284415,-2.570595,-1.625765,2.021590,-2.112800,-1.402983,-2.740259,0.000000,0.000000,-0.000000,-0.000000,-0.000000,0.000000
3500.342000,0.072000,START g_bow,Note,1,G,0.426958,0.195983,0.358610,0.449016,-1.927090,-2.319385,-0.284479,-2.570607,-1.625765,2.021559,-2.112812,-1.402983,-2.740263,0.000000,0.000000,-0.000000,-0.000000,-0.000000,0.000000
3500.350000,0.080000,START g_bow,Note,1,G,0.418958,0.195981,0.358610,0.448995,-1.927035,-2.319395,-0.284399,-2.570599,-1.625742,2.021593,-2.112809,-1.402964,-2.740290,0.000000,0.000000,-0.000000,-0.000000,-0.000000,0.000000
3500.358000,0.088000,START g_bow,Note,1,G,0.410958,0.195974,0.358618,0.449009,-1.927077,-2.319382,-0.284419,-2.570580,-1.625758,2.021571,-2.112794,-1.402983,-2.740244,0.000000,0.000000,-0.000000,-0.000000,-0.000000,0.000000
3500.366000,0.096000,START g_bow,Note,1,G,0.402958,0.195976,0.358610,0.449012,-1.927062,-2.319402,-0.284438,-2.570595,-1.625768,2.021571,-2.112794,-1.402983,-2.740275,0.000000,0.000000,-0.000000,-0.000000,-0.000000,0.000000
3500.398000,0.128000,START g_bow,Note,1,G,0.620958,0.195973,0.358610,0.449005,-1.927047,-2.319409,-0.284435,-2.570588,-1.625765,2.021586,-2.112809,-1.402980,-2.740279,0.000000,0.000000,-0.000000,-0.000000,-0.000000,0.000000
3500.446000,0.176000,START g_bow,Note,1,G,0.572958,0.195987,0.358620,0.449018,-1.927080,-2.319399,-0.284417,-2.570592,-1.625741,2.021528,-2.112766,-1.402995,-2.740263,0.000000,0.000000,-0.000000,-0.000000,-0.000000,0.000000
3500.462000,0.192000,START g_bow,Note,1,G,0.556958,0.195981,0.358607,0.449010,-1.927076,-2.319375,-0.284434,-2.570611,-1.625768,2.021578,-2.112794,-1.402972,-2.740271,0.000000,0.000000,-0.000000,-0.000000,-0.000000,0.000000
3500.470000,0.200000,START g_bow,Note,1,G,0.548958,0.195994,0.358600,0.449012,-1.927126,-2.319360,-0.284446,-2.570645,-1.625768,2.021571,-2.112797,-1.402987,-2.740275,0.000000,0.000000,-0.000000,-0.000000,-0.000000,0.000000
3500.478000,0.208000,START g_bow,Note,1,G,0.540958,0.195973,0.358613,0.449016,-1.927025,-2.319443,-0.284473,-2.570580,-1.625765,2.021556,-2.112806,-1.402987,-2.740294,0.000000,0.000000,-0.000000,-0.000000,-0.000000,0.000000
3500.494000,0.224000,START g_bow,Note,1,G,0.524958,0.195983,0.358616,0.449019,-1.927049,-2.319404,-0.284492,-2.570592,-1.625750,2.021538,-2.112812,-1.402972,-2.740275,0.000000,0.000000,-0.000000,-0.000000,-0.000000,0.000000
3500.510000,0.240000,START g_bow,Note,1,G,0.508958,0.195982,0.358609,0.449012,-1.927077,-2.319392,-0.284444,-2.570607,-1.625765,2.021568,-2.112797,-1.402983,-2.740275,0.000000,0.000000,-0.000000,-0.000000,-0.000000,0.000000
3500.518000,0.248000,START g_bow,Note,1,G,0.500958,0.195981,0.358606,0.449021,-1.927091,-2.319411,-0.284474,-2.570611,-1.625781,2.021556,-2.112794,-1.403003,-2.740279,0.000000,0.000000,-0.000000,-0.000000,-0.000000,0.000000
3500.526000,0.256000,START g_bow,Note,1,G,0.492958,0.195990,0.358603,0.449015,-1.927063,-2.319413,-0.284440,-2.570625,-1.625765,2.021556,-2.112779,-1.402987,-2.740310,0.000000,0.000000,-0.000000,-0.000000,-0.000000,0.000000
3500.534000,0.264000,START g_bow,Note,1,G,0.484958,0.195990,0.358611,0.449012,-1.927098,-2.319392,-0.284454,-2.570614,-1.625750,2.021552,-2.112806,-1.402995,-2.740271,0.000000,0.000000,-0.000000,-0.000000,-0.000000,0.000000
3500.542000,0.272000,START g_bow,Note,1,G,0.476958,0.195973,0.358613,0.449016,-1.927047,-2.319422,-0.284459,-2.570583,-1.625768,2.021559,-2.112797,-1.402987,-2.740279,0.000000,0.000000,-0.000000,-0.000000,-0.000000,0.000000
3500.550000,0.280000,START g_bow,Note,1,G,0.468958,0.195981,0.358608,0.449022,-1.927087,-2.319363,-0.284458,-2.570611,-1.625781,2.021559,-2.112779,-1.402968,-2.740259,0.000000,0.000000,-0.000000,-0.000000,-0.000000,0.000000
3500.558000,0.288000,START g_bow,Note,1,G,0.460958,0.195983,0.358614,0.449006,-1.927107,-2.319359,-0.284414,-2.570604,-1.625753,2.021575,-2.112797,-1.402983,-2.740244,0.000000,0.000000,-0.000000,-0.000000,-0.000000,0.000000
3500.566000,0.296000,START g_bow,Note,1,G,0.452958,0.195990,0.358607,0.449010,-1.927110,-2.319384,-0.284425,-2.570625,-1.625758,2.021565,-2.112790,-1.402999,-2.740275,0.000000,0.000000,-0.000000,-0.000000,-0.000000,0.000000
3500.574000,0.304000,START g_bow,Note,1,G,0.444958,0.195986,0.358607,0.449017,-1.927097,-2.319403,-0.284481,-2.570618,-1.625768,2.021556,-2.112809,-1.402999,-2.740279,0.000000,0.000000,-0.000000,-0.000000,-0.000000,0.000000
3500.582000,0.312000,START g_bow,Note,1,G,0.436958,0.195987,0.358612,0.449026,-1.927077,-2.319400,-0.284501,-2.570607,-1.625761,2.021529,-2.112800,-1.402983,-2.740275,0.000000,0.000000,-0.000000,-0.000000,-0.000000,0.000000
3500.590000,0.320000,START g_bow,Note,1,G,0.428958,0.195984,0.358618,0.449009,-1.927051,-2.319372,-0.284435,-2.570592,-1.625738,2.021556,-2.112800,-1.402956,-2.740263,0.000000,0.000000,-0.000000,-0.000000,-0.000000,0.000000
3500.598000,0.328000,START g_bow,Note,1,G,0.420958,0.195984,0.358609,0.449016,-1.927088,-2.319405,-0.284453,-2.570611,-1.625765,2.021556,-2.112794,-1.402999,-2.740279,0.000000,0.000000,-0.000000,-0.000000,-0.000000,0.000000
3500.606000,0.336000,START g_bow,Note,1,G,0.412958,0.195987,0.358610,0.449018,-1.927079,-2.319392,-0.284488,-2.570611,-1.625758,2.021548,-2.112812,-1.402980,-2.740275,0.000000,0.000000,-0.000000,-0.000000,-0.000000,0.000000
3500.614000,0.344000,START g_bow,Note,1,G,0.404958,0.195987,0.358610,0.449004,-1.927081,-2.319374,-0.284340,-2.570611,-1.625750,2.021571,-2.112744,-1.402983,-2.740275,0.000000,0.000000,-0.000000,-0.000000,-0.000000,0.000000
3500.622000,0.352000,START g_bow,Note,1,G,0.396958,0.195974,0.358606,0.449014,-1.927048,-2.319420,-0.284431,-2.570599,-1.625781,2.021575,-2.112779,-1.402987,-2.740294,0.000000,0.000000,-0.000000,-0.000000,-0.000000,0.000000
3500.630000,0.360000,START g_bow,Note,1,G,0.388958,0.195980,0.358615,0.449007,-1.927058,-2.319369,-0.284412,-2.570592,-1.625750,2.021571,-2.112790,-1.402961,-2.740259,0.000000,0.000000,-0.000000,-0.000000,-0.000000,0.000000
3500.638000,0.368000,START g_bow,Note,1,G,0.380958,0.195985,0.358609,0.449022,-1.927080,-2.319400,-0.284478,-2.570611,-1.625768,2.021544,-2.112794,-1.402987,-2.740279,0.000000,0.000000,-0.000000,-0.000000,-0.000000,0.000000
3500.646000,0.376000,START g_bow,Note,1,G,0.372958,0.195991,0.358612,0.449009,-1.927055,-2.319370,-0.284446,-2.570611,-1.625737,2.021556,-2.112806,-1.402952,-2.740279,0.000000,0.000000,-0.000000,-0.000000,-0.000000,0.000000
3500.654000,0.384000,START g_bow,Note,1,G,0.364958,0.195980,0.358615,0.449010,-1.927069,-2.319413,-0.284407,-2.570592,-1.625753,2.021559,-2.112779,-1.402999,-2.740275,0.000000,0.000481,-0.000702,-0.000000,-0.000000,0.000000
3500.726000,0.456000,START g_bow,Note,1,G,0.292958,0.196117,0.358753,0.448919,-1.927081,-2.319249,-0.283981,-2.570504,-1.625191,2.021286,-2.112779,-1.402948,-2.740131,0.005368,0.016454,-0.010490,-0.000000,0.001265,0.011330
3500.734000,0.464000,START g_bow,Note,1,G,0.284958,0.196141,0.358787,0.448905,-1.927107,-2.319218,-0.283912,-2.570472,-1.625079,2.021220,-2.112785,-1.402955,-2.740076,0.005512,0.018847,-0.013708,0.000723,0.001583,0.006851
3500.742000,0.472000,START g_bow,Note,1,G,0.276958,0.196168,0.358832,0.448882,-1.927050,-2.319216,-0.283772,-2.570412,-1.624920,2.021131,-2.112763,-1.402940,-2.740051,0.005868,0.020055,-0.015065,0.001005,0.005225,0.005871
3500.750000,0.480000,START g_bow,Note,1,G,0.268958,0.196214,0.358879,0.448876,-1.927019,-2.319136,-0.283718,-2.570380,-1.624748,2.021000,-2.112754,-1.402872,-2.739999,0.006875,0.022132,-0.016262,0.001156,0.010373,0.007651
3500.758000,0.488000,START g_bow,Note,1,G,0.260958,0.196262,0.358938,0.448882,-1.926969,-2.319053,-0.283721,-2.570328,-1.624557,2.020822,-2.112758,-1.402788,-2.739932,0.007077,0.024947,-0.017410,0.001393,0.010319,0.008452
3500.766000,0.496000,START g_bow,Note,1,G,0.252958,0.196303,0.358992,0.448853,-1.926913,-2.318983,-0.283572,-2.570272,-1.624353,2.020720,-2.112749,-1.402725,-2.739879,0.010759,0.028053,-0.019042,0.001717,0.010090,0.010077
3500.774000,0.504000,START g_bow,Note,1,G,0.244958,0.196341,0.359075,0.448843,-1.926826,-2.318946,-0.283449,-2.570153,-1.624114,2.020533,-2.112719,-1.402672,-2.739792,0.011703,0.031077,-0.021683,0.001884,0.010922,0.011191
3500.782000,0.512000,START g_bow,Note,1,G,0.236958,0.196401,0.359150,0.448822,-1.926754,-2.318865,-0.283315,-2.570080,-1.623847,2.020353,-2.112703,-1.402592,-2.739724,0.014027,0.034856,-0.024037,0.004091,0.014352,0.012191
3500.790000,0.520000,START g_bow,Note,1,G,0.228958,0.196441,0.359240,0.448807,-1.926633,-2.318765,-0.283233,-2.569950,-1.623579,2.020165,-2.112713,-1.402469,-2.739609,0.014398,0.039044,-0.027231,0.007254,0.012817,0.011830
3500.798000,0.528000,START g_bow,Note,1,G,0.220958,0.196522,0.359337,0.448786,-1.926573,-2.318661,-0.283038,-2.569865,-1.623240,2.019916,-2.112662,-1.402388,-2.739516,0.014823,0.043740,-0.030007,0.006955,0.012748,0.013124
3500.806000,0.536000,START g_bow,Note,1,G,0.212958,0.196600,0.359445,0.448756,-1.926446,-2.318559,-0.282808,-2.569745,-1.622865,2.019665,-2.112614,-1.402273,-2.739424,0.015771,0.049045,-0.032880,0.006039,0.013057,0.014663
3500.814000,0.544000,START g_bow,Note,1,G,0.204958,0.196675,0.359570,0.448701,-1.926322,-2.318456,-0.282465,-2.569590,-1.622442,2.019430,-2.112563,-1.402177,-2.739300,0.015892,0.056555,-0.035939,0.006836,0.014403,0.016197
3500.822000,0.552000,START g_bow,Note,1,G,0.196958,0.196791,0.359702,0.448660,-1.926230,-2.318315,-0.282185,-2.569479,-1.621956,2.019101,-2.112516,-1.402062,-2.739184,0.017792,0.061143,-0.039529,0.008855,0.016347,0.017537
3500.830000,0.560000,START g_bow,Note,1,G,0.188958,0.196895,0.359843,0.448611,-1.926091,-2.318162,-0.281845,-2.569331,-1.621460,2.018789,-2.112452,-1.401919,-2.739052,0.019166,0.065859,-0.043651,0.009087,0.017558,0.019312
3500.838000,0.568000,START g_bow,Note,1,G,0.180958,0.197018,0.360004,0.448554,-1.925990,-2.317981,-0.281495,-2.569175,-1.620894,2.018433,-2.112411,-1.401783,-2.738881,0.020766,0.072991,-0.045958,0.009691,0.019473,0.021698
3500.846000,0.576000,START g_bow,Note,1,G,0.172958,0.197161,0.360181,0.448495,-1.925897,-2.317744,-0.281063,-2.569015,-1.620267,2.018028,-2.112322,-1.401620,-2.738682,0.022811,0.079063,-0.050629,0.009906,0.020717,0.024748
3500.854000,0.584000,START g_bow,Note,1,G,0.164958,0.197301,0.360381,0.448430,-1.925722,-2.317559,-0.280582,-2.568797,-1.619581,2.017585,-2.112222,-1.401456,-2.738490,0.023645,0.087462,-0.056267,0.010916,0.022814,0.028082
3500.862000,0.592000,START g_bow,Note,1,G,0.156958,0.197468,0.360593,0.448370,-1.925560,-2.317321,-0.280172,-2.568594,-1.618836,2.017078,-2.112159,-1.401252,-2.738278,0.028035,0.094812,-0.059941,0.011046,0.024985,0.029585
3500.870000,0.600000,START g_bow,Note,1,G,0.148958,0.197644,0.360815,0.448268,-1.925395,-2.317063,-0.279578,-2.568382,-1.618021,2.016612,-2.112082,-1.401052,-2.738062,0.028963,0.102497,-0.067220,0.011325,0.027242,0.031969
3500.878000,0.608000,START g_bow,Note,1,G,0.390958,0.197838,0.361071,0.448207,-1.925206,-2.316772,-0.279142,-2.568131,-1.617147,2.015997,-2.112017,-1.400802,-2.737791,0.032293,0.111694,-0.072698,0.012805,0.030793,0.034296
3500.886000,0.616000,START g_bow,Note,1,G,0.382958,0.198046,0.361345,0.448111,-1.925003,-2.316480,-0.278511,-2.567859,-1.616181,2.015382,-2.111915,-1.400566,-2.737519,0.034334,0.120325,-0.078759,0.011451,0.032030,0.037297
3500.894000,0.624000,START g_bow,Note,1,G,0.374958,0.198268,0.361629,0.448011,-1.924811,-2.316112,-0.277937,-2.567592,-1.615175,2.014750,-2.111865,-1.400275,-2.737207,0.036075,0.130313,-0.084362,0.012257,0.036606,0.040706
3500.902000,0.632000,START g_bow,Note,1,G,0.366958,0.198504,0.361944,0.447916,-1.924628,-2.315757,-0.277239,-2.567284,-1.614094,2.014023,-2.111724,-1.400019,-2.736865,0.039291,0.138130,-0.091397,0.013283,0.038541,0.043885
3500.910000,0.640000,START g_bow,Note,1,G,0.358958,0.198772,0.362288,0.447806,-1.924395,-2.315313,-0.276541,-2.566961,-1.612889,2.013237,-2.111628,-1.399668,-2.736489,0.042530,0.149714,-0.097226,0.014703,0.040819,0.046468
3500.918000,0.648000,START g_bow,Note,1,G,0.350958,0.199026,0.362647,0.447708,-1.924061,-2.314939,-0.275878,-2.566579,-1.611671,2.012407,-2.111525,-1.399306,-2.736133,0.047644,0.162631,-0.106152,0.014906,0.043442,0.048994
3500.926000,0.656000,START g_bow,Note,1,G,0.342958,0.199328,0.363028,0.447587,-1.923814,-2.314477,-0.275091,-2.566227,-1.610331,2.011517,-2.111402,-1.398946,-2.735733,0.050982,0.172157,-0.113292,0.016497,0.046290,0.055181
3500.990000,0.720000,START g_bow,Note,1,G,0.278958,0.202526,0.367352,0.446096,-1.921000,-2.309431,-0.265886,-2.561997,-1.595407,2.001868,-2.110057,-1.395039,-2.731076,0.083348,0.292181,-0.184701,0.027141,0.073013,0.086498
3501.070000,0.800000,START g_bow,Note,1,G,0.198958,0.208374,0.375429,0.443029,-1.915600,-2.300334,-0.248423,-2.554150,-1.567659,1.984029,-2.107481,-1.387822,-2.722725,0.113916,0.400986,-0.260529,0.040751,0.104036,0.120606
3501.078000,0.808000,START g_bow,Note,1,G,0.190958,0.209062,0.376389,0.442670,-1.914958,-2.299285,-0.246493,-2.553228,-1.564390,1.981870,-2.107210,-1.386964,-2.721754,0.117937,0.414244,-0.270343,0.038252,0.109248,0.123955
3501.086000,0.816000,START g_bow,Note,1,G,0.182958,0.209777,0.377392,0.442291,-1.914335,-2.298199,-0.244500,-2.552270,-1.560989,1.979621,-2.106946,-1.386101,-2.720724,0.120350,0.420512,-0.278009,0.038668,0.110660,0.128017
3501.094000,0.824000,START g_bow,Note,1,G,0.174958,0.210502,0.378421,0.441875,-1.913604,-2.297108,-0.242195,-2.551270,-1.557486,1.977351,-2.106542,-1.385200,-2.719725,0.122010,0.435572,-0.281933,0.041236,0.112096,0.129269
3501.102000,0.832000,START g_bow,Note,1,G,0.166958,0.211252,0.379451,0.441457,-1.913005,-2.295910,-0.240070,-2.550323,-1.553958,1.975061,-2.106266,-1.384281,-2.718654,0.123967,0.445593,-0.289531,0.042213,0.120537,0.134363
3501.110000,0.840000,START g_bow,Note,1,G,0.158958,0.212012,0.380531,0.441035,-1.912305,-2.294744,-0.237820,-2.549290,-1.550309,1.972645,-2.105902,-1.383342,-2.717571,0.126462,0.455437,-0.297159,0.042012,0.120118,0.137518
3501.118000,0.848000,START g_bow,Note,1,G,0.150958,0.212773,0.381622,0.440591,-1.911570,-2.293539,-0.235453,-2.548242,-1.546622,1.970234,-2.105497,-1.382363,-2.716480,0.130300,0.468156,-0.302223,0.043658,0.122860,0.140294
3501.126000,0.856000,START g_bow,Note,1,G,0.642958,0.213558,0.382728,0.440122,-1.910925,-2.292261,-0.233110,-2.547216,-1.542859,1.967810,-2.105172,-1.381383,-2.715334,0.131288,0.480781,-0.308372,0.044807,0.124262,0.142083
3501.134000,0.864000,START g_bow,Note,1,G,0.634958,0.214359,0.383877,0.439617,-1.910266,-2.290895,-0.230639,-2.546143,-1.538965,1.965338,-2.104844,-1.380349,-2.714116,0.134542,0.492460,-0.317032,0.045854,0.130189,0.148012
3501.142000,0.872000,START g_bow,Note,1,G,0.626958,0.215162,0.385058,0.439118,-1.909460,-2.289619,-0.228082,-2.544999,-1.535000,1.962755,-2.104417,-1.379298,-2.712948,0.139765,0.502912,-0.324787,0.047511,0.131462,0.152660
3501.150000,0.880000,START g_bow,Note,1,G,0.618958,0.215986,0.386266,0.438594,-1.908729,-2.288288,-0.225533,-2.543850,-1.530943,1.960131,-2.104053,-1.378253,-2.711714,0.145238,0.512311,-0.333961,0.046291,0.134603,0.154862
3501.158000,0.888000,START g_bow,Note,1,G,0.610958,0.216835,0.387506,0.438015,-1.908042,-2.286869,-0.222743,-2.542689,-1.526750,1.957496,-2.103655,-1.377198,-2.710424,0.149882,0.522669,-0.341282,0.049880,0.136033,0.156818
3501.166000,0.896000,START g_bow,Note,1,G,0.602958,0.217671,0.388779,0.437431,-1.907149,-2.285505,-0.219953,-2.541439,-1.522486,1.954790,-2.103243,-1.376056,-2.709172,0.155128,0.533694,-0.348360,0.050689,0.139595,0.161271
3501.174000,0.904000,START g_bow,Note,1,G,0.594958,0.218581,0.390062,0.436854,-1.906477,-2.284019,-0.217263,-2.540296,-1.518137,1.951956,-2.102862,-1.374945,-2.707857,0.154497,0.542619,-0.354795,0.050489,0.143973,0.163030
3501.182000,0.912000,START g_bow,Note,1,G,0.586958,0.219443,0.391379,0.436282,-1.905608,-2.282604,-0.214564,-2.539021,-1.513778,1.949087,-2.102449,-1.373770,-2.706543,0.158674,0.556092,-0.361061,0.049673,0.145689,0.166656
3501.190000,0.920000,START g_bow,Note,1,G,0.578958,0.220367,0.392725,0.435680,-1.904816,-2.281129,-0.211827,-2.537789,-1.509262,1.946112,-2.102062,-1.372598,-2.705210,0.160625,0.568761,-0.366690,0.051980,0.147855,0.169922
3501.198000,0.928000,START g_bow,Note,1,G,0.570958,0.221289,0.394107,0.435058,-1.904027,-2.279630,-0.209054,-2.536501,-1.504667,1.943089,-2.101692,-1.371417,-2.703812,0.161851,0.580722,-0.379804,0.051110,0.152599,0.176789
3501.206000,0.936000,START g_bow,Note,1,G,0.562958,0.222227,0.395521,0.434390,-1.903126,-2.278084,-0.206007,-2.535175,-1.499945,1.940030,-2.101212,-1.370159,-2.702432,0.165339,0.591668,-0.384482,0.053959,0.154491,0.179471
3501.214000,0.944000,START g_bow,Note,1,G,0.554958,0.223202,0.396962,0.433704,-1.902316,-2.276447,-0.202991,-2.533870,-1.495117,1.936892,-2.100783,-1.368887,-2.700985,0.171163,0.605374,-0.391312,0.055098,0.156322,0.181395
3501.222000,0.952000,START g_bow,Note,1,G,0.546958,0.224153,0.398447,0.432968,-1.901432,-2.274832,-0.199728,-2.532459,-1.490195,1.933755,-2.100293,-1.367615,-2.699500,0.175783,0.614323,-0.395588,0.057119,0.159042,0.184523
3501.230000,0.960000,START g_bow,Note,1,G,0.538958,0.225127,0.399934,0.432231,-1.900623,-2.273177,-0.196605,-2.531094,-1.485250,1.930576,-2.099881,-1.366340,-2.697995,0.177058,0.623387,-0.403978,0.057334,0.162284,0.189898
3501.238000,0.968000,START g_bow,Note,1,G,0.530958,0.226074,0.401448,0.431498,-1.899759,-2.271509,-0.193427,-2.529655,-1.480299,1.927357,-2.099404,-1.365030,-2.696445,0.179871,0.636948,-0.411671,0.058897,0.164762,0.192707
3501.246000,0.976000,START g_bow,Note,1,G,0.522958,0.227086,0.402999,0.430723,-1.898914,-2.269776,-0.190217,-2.528244,-1.475151,1.924016,-2.098970,-1.363682,-2.694887,0.183172,0.647965,-0.420717,0.058990,0.166407,0.195515
3501.254000,0.984000,START g_bow,Note,1,G,0.514958,0.228087,0.404589,0.429923,-1.898017,-2.268033,-0.186887,-2.526761,-1.469930,1.920631,-2.098492,-1.362308,-2.693290,0.186433,0.662025,-0.427820,0.059806,0.168716,0.198162
3501.262000,0.992000,START g_bow,Note,1,G,0.506958,0.229118,0.406225,0.429069,-1.897098,-2.266309,-0.183380,-2.525242,-1.464529,1.917157,-2.097993,-1.360953,-2.691692,0.191761,0.669669,-0.437367,0.062030,0.174634,0.199833
3501.270000,1.000000,START g_bow,Note,1,G,0.498958,0.230161,0.407890,0.428214,-1.896145,-2.264595,-0.179874,-2.523699,-1.459062,1.913578,-2.097457,-1.359580,-2.690093,0.194500,0.678802,-0.440250,0.064792,0.176919,0.204499
3501.334000,1.064000,START g_bow,Note,1,G,0.434958,0.238687,0.422180,0.420392,-1.888279,-2.249317,-0.149889,-2.510449,-1.412604,1.883460,-2.093151,-1.347422,-2.676053,0.215225,0.771784,-0.496872,0.068766,0.199950,0.230709
3501.414000,1.144000,START g_bow,Note,1,G,0.604958,0.250130,0.442711,0.407817,-1.878013,-2.227430,-0.107176,-2.491883,-1.346524,1.840443,-2.087167,-1.330127,-2.656158,0.248777,0.884769,-0.572153,0.079353,0.230584,0.264784
3501.422000,1.152000,START g_bow,Note,1,G,0.596958,0.251326,0.444942,0.406307,-1.876994,-2.225101,-0.102399,-2.489905,-1.339317,1.835819,-2.086530,-1.328328,-2.654040,0.249875,0.891124,-0.581321,0.084292,0.231542,0.267638
3501.430000,1.160000,START g_bow,Note,1,G,0.588958,0.252465,0.447210,0.404719,-1.875800,-2.222745,-0.097287,-2.487807,-1.332033,1.831262,-2.085807,-1.326431,-2.651917,0.256655,0.903770,-0.585186,0.085689,0.235925,0.271786
3501.438000,1.168000,START g_bow,Note,1,G,0.580958,0.253598,0.449494,0.403191,-1.874747,-2.220314,-0.092365,-2.485714,-1.324820,1.826578,-2.085036,-1.324540,-2.649678,0.259753,0.915976,-0.590318,0.087589,0.239201,0.277867
3501.446000,1.176000,START g_bow,Note,1,G,0.572958,0.254733,0.451796,0.401657,-1.873671,-2.217927,-0.087718,-2.483613,-1.317558,1.821804,-2.084421,-1.322630,-2.647444,0.261123,0.925824,-0.600494,0.083187,0.241546,0.277939
3501.454000,1.184000,START g_bow,Note,1,G,0.564958,0.255951,0.454145,0.400072,-1.872663,-2.215497,-0.083094,-2.481561,-1.310064,1.816812,-2.083835,-1.320722,-2.645205,0.262312,0.936805,-0.611825,0.081138,0.245161,0.280198
3501.462000,1.192000,START g_bow,Note,1,G,0.556958,0.257121,0.456523,0.398369,-1.871514,-2.212987,-0.077981,-2.479419,-1.302455,1.811939,-2.083138,-1.318713,-2.642965,0.266198,0.944182,-0.618644,0.084606,0.248702,0.283277
3501.470000,1.200000,START g_bow,Note,1,G,0.548958,0.258286,0.458924,0.396643,-1.870490,-2.210393,-0.072739,-2.477267,-1.294817,1.807023,-2.082359,-1.316729,-2.640626,0.272072,0.960525,-0.619504,0.087762,0.251317,0.291153
3501.478000,1.208000,START g_bow,Note,1,G,0.540958,0.259452,0.461358,0.394870,-1.869412,-2.207816,-0.067472,-2.475086,-1.287071,1.802030,-2.081598,-1.314719,-2.638301,0.275804,0.972397,-0.626864,0.091304,0.253427,0.294981
3501.486000,1.216000,START g_bow,Note,1,G,0.532958,0.260633,0.463807,0.393086,-1.868392,-2.205163,-0.062449,-2.472926,-1.279270,1.796956,-2.080982,-1.312653,-2.635917,0.274056,0.983382,-0.642014,0.090234,0.256931,0.295359
3501.494000,1.224000,START g_bow,Note,1,G,0.524958,0.261834,0.466305,0.391208,-1.867337,-2.202490,-0.057148,-2.470735,-1.271263,1.791791,-2.080293,-1.310576,-2.633541,0.277310,0.993254,-0.646014,0.091792,0.259498,0.299478
3501.502000,1.232000,START g_bow,Note,1,G,0.516958,0.262990,0.468826,0.389277,-1.866267,-2.199732,-0.051475,-2.468479,-1.263236,1.786664,-2.079415,-1.308460,-2.631109,0.283597,1.006531,-0.650194,0.095220,0.262723,0.301449
3501.510000,1.240000,START g_bow,Note,1,G,0.508958,0.264130,0.471370,0.387411,-1.865195,-2.197103,-0.046338,-2.466192,-1.255249,1.781362,-2.078715,-1.306370,-2.628661,0.288547,1.015331,-0.655482,0.093891,0.264075,0.303952
3501.518000,1.248000,START g_bow,Note,1,G,0.500958,0.265285,0.473953,0.385445,-1.864058,-2.194421,-0.041119,-2.463885,-1.247061,1.776005,-2.078099,-1.304200,-2.626217,0.288296,1.024734,-0.671400,0.089556,0.267842,0.308298
3501.526000,1.256000,START g_bow,Note,1,G,0.492958,0.266433,0.476567,0.383372,-1.862982,-2.191718,-0.035433,-2.461550,-1.238736,1.770656,-2.077324,-1.302099,-2.623749,0.291751,1.033673,-0.678260,0.096125,0.269055,0.314657
3501.534000,1.264000,START g_bow,Note,1,G,0.484958,0.267557,0.479185,0.381271,-1.861878,-2.188932,-0.029611,-2.459202,-1.230412,1.765318,-2.076459,-1.299925,-2.621269,0.296624,1.048839,-0.676467,0.101566,0.271020,0.314573
3501.542000,1.272000,START g_bow,Note,1,G,0.476958,0.268624,0.481829,0.379128,-1.860728,-2.186204,-0.023704,-2.456772,-1.222067,1.759986,-2.075584,-1.297765,-2.618769,0.296354,1.043907,-0.673960,0.096974,0.272792,0.315708
3501.550000,1.280000,START g_bow,Note,1,G,0.468958,0.269728,0.484499,0.377016,-1.859641,-2.183425,-0.018293,-2.454376,-1.213661,1.754445,-2.074910,-1.295541,-2.616206,0.295441,1.046658,-0.679025,0.091969,0.273068,0.315967
3501.558000,1.288000,START g_bow,Note,1,G,0.460958,0.270836,0.487132,0.374874,-1.858669,-2.180681,-0.012890,-2.452064,-1.205299,1.748952,-2.074253,-1.293410,-2.613685,0.291811,1.039720,-0.684228,0.089887,0.272089,0.314238
3501.566000,1.296000,START g_bow,Note,1,G,0.452958,0.271887,0.489764,0.372677,-1.857627,-2.177886,-0.007062,-2.449702,-1.196960,1.743554,-2.073371,-1.291237,-2.611178,0.292423,1.046173,-0.675718,0.100091,0.275246,0.314797
3501.574000,1.304000,START g_bow,Note,1,G,0.444958,0.272922,0.492386,0.370431,-1.856669,-2.175018,-0.001227,-2.447363,-1.188611,1.738217,-2.072562,-1.289054,-2.608622,0.293090,1.046637,-0.675897,0.098307,0.273101,0.315695
3501.582000,1.312000,START g_bow,Note,1,G,0.436958,0.273937,0.495045,0.368150,-1.855551,-2.172271,0.004386,-2.444961,-1.180155,1.732763,-2.071900,-1.286825,-2.606129,0.293659,1.045135,-0.682161,0.092746,0.273750,0.315782
3501.590000,1.320000,START g_bow,Note,1,G,0.428958,0.274956,0.497687,0.365840,-1.854605,-2.169448,0.010266,-2.442617,-1.171727,1.727326,-2.071054,-1.284675,-2.603598,0.296274,1.044409,-0.676498,0.099631,0.272766,0.314326
3501.598000,1.328000,START g_bow,Note,1,G,0.420958,0.275940,0.500310,0.363568,-1.853627,-2.166588,0.016001,-2.440278,-1.163416,1.721893,-2.070190,-1.282451,-2.601070,0.295269,1.050899,-0.669514,0.101592,0.272229,0.313659
3501.606000,1.336000,START g_bow,Note,1,G,0.412958,0.276905,0.502932,0.361243,-1.852672,-2.163795,0.021546,-2.437940,-1.155058,1.716474,-2.069536,-1.280261,-2.598542,0.295354,1.049417,-0.678347,0.091116,0.274610,0.314446
3501.614000,1.344000,START g_bow,Note,1,G,0.404958,0.277885,0.505556,0.358918,-1.851784,-2.161008,0.026944,-2.435640,-1.146684,1.710960,-2.068911,-1.278095,-2.596011,0.295100,1.041401,-0.685576,0.093579,0.274168,0.312910
3501.678000,1.408000,START g_bow,Note,1,G,0.340958,0.284576,0.526530,0.339090,-1.844298,-2.138732,0.073151,-2.416617,-1.079688,1.667510,-2.062697,-1.260587,-2.575881,0.295954,1.043839,-0.679848,0.097902,0.273265,0.316254
3501.758000,1.488000,START g_bow,Note,1,G,0.260958,0.291055,0.552281,0.311990,-1.836314,-2.110545,0.131585,-2.392998,-0.995976,1.613254,-2.054999,-1.238710,-2.550600,0.295367,1.046522,-0.682834,0.091833,0.271537,0.314843
3501.766000,1.496000,START g_bow,Note,1,G,0.252958,0.291574,0.554831,0.309117,-1.835504,-2.107835,0.137394,-2.390612,-0.987542,1.607801,-2.054317,-1.236551,-2.548132,0.296206,1.043394,-0.683833,0.094309,0.272420,0.315010
3501.782000,1.512000,START g_bow,Note,1,G,0.236958,0.292521,0.559897,0.303321,-1.834085,-2.102179,0.149720,-2.385841,-0.970818,1.597009,-2.052453,-1.232245,-2.543080,0.297467,1.052996,-0.671996,0.101299,0.274547,0.314729
3501.790000,1.520000,START g_bow,Note,1,G,0.228958,0.292987,0.562433,0.300405,-1.833317,-2.099439,0.155330,-2.383465,-0.962386,1.591488,-2.051861,-1.230043,-2.540581,0.293795,1.045327,-0.680505,0.087679,0.273469,0.316814
3501.798000,1.528000,START g_bow,Note,1,G,0.220958,0.293433,0.564934,0.297448,-1.832669,-2.096579,0.161193,-2.381129,-0.953997,1.586077,-2.051160,-1.227853,-2.538038,0.292603,1.041008,-0.683040,0.091947,0.275121,0.314687
3501.806000,1.536000,START g_bow,Note,1,G,0.212958,0.293856,0.567406,0.294499,-1.832051,-2.093702,0.167225,-2.378815,-0.945700,1.580704,-2.050284,-1.225686,-2.535519,0.292124,1.047056,-0.677459,0.097566,0.273941,0.316385
3501.822000,1.552000,START g_bow,Note,1,G,0.196958,0.294683,0.572376,0.288485,-1.830832,-2.088003,0.178913,-2.374184,-0.928879,1.569737,-2.048824,-1.221336,-2.530466,0.294115,1.044394,-0.683568,0.095231,0.273865,0.316342
3501.830000,1.560000,START g_bow,Note,1,G,0.188958,0.295035,0.574868,0.285448,-1.830178,-2.085200,0.184819,-2.371811,-0.920463,1.564225,-2.048044,-1.219158,-2.527943,0.296797,1.044278,-0.680572,0.097940,0.274304,0.314757
3501.838000,1.568000,START g_bow,Note,1,G,0.180958,0.295314,0.577301,0.282398,-1.829485,-2.082348,0.191010,-2.369436,-0.912207,1.558945,-2.047123,-1.216949,-2.525464,0.295789,1.047280,-0.672656,0.102171,0.271018,0.316958
3501.846000,1.576000,START g_bow,Note,1,G,0.172958,0.295628,0.579756,0.279299,-1.828951,-2.079494,0.196917,-2.367101,-0.903803,1.553501,-2.046413,-1.214797,-2.522898,0.296778,1.051982,-0.677430,0.093121,0.272639,0.315589
3501.854000,1.584000,START g_bow,Note,1,G,0.164958,0.295895,0.582206,0.276205,-1.828223,-2.076739,0.202612,-2.364719,-0.895413,1.548024,-2.045794,-1.212563,-2.520429,0.296058,1.043342,-0.687482,0.092926,0.274042,0.314793
3501.862000,1.592000,START g_bow,Note,1,G,0.156958,0.296113,0.584648,0.273039,-1.827600,-2.073857,0.208814,-2.362315,-0.887021,1.542651,-2.044940,-1.210349,-2.517885,0.296136,1.041256,-0.677086,0.097146,0.271466,0.315798
3501.870000,1.600000,START g_bow,Note,1,G,0.148958,0.296300,0.587057,0.269935,-1.826888,-2.071133,0.214854,-2.359918,-0.878767,1.537268,-2.044043,-1.208178,-2.515458,0.291072,1.033097,-0.664108,0.097620,0.267237,0.312180
3501.878000,1.608000,START g_bow,Note,1,G,0.390958,0.296494,0.589432,0.266821,-1.826353,-2.068338,0.220645,-2.357592,-0.870545,1.531927,-2.043349,-1.206031,-2.512940,0.290283,1.028706,-0.659072,0.092320,0.265590,0.309642
3501.886000,1.616000,START g_bow,Note,1,G,0.382958,0.296671,0.591768,0.263719,-1.825762,-2.065696,0.226271,-2.355296,-0.862392,1.526606,-2.042712,-1.203947,-2.510537,0.285964,1.009383,-0.659896,0.088014,0.262809,0.305193
3501.894000,1.624000,START g_bow,Note,1,G,0.374958,0.296829,0.594044,0.260629,-1.825343,-2.062872,0.232102,-2.353066,-0.854397,1.521462,-2.041950,-1.201856,-2.508052,0.281853,0.996835,-0.649881,0.093658,0.257288,0.301286
3501.902000,1.632000,START g_bow,Note,1,G,0.366958,0.296953,0.596276,0.257528,-1.824889,-2.060102,0.238148,-2.350853,-0.846489,1.516419,-2.041035,-1.199815,-2.505663,0.276170,0.989501,-0.637476,0.093229,0.257602,0.297934
3501.910000,1.640000,START g_bow,Note,1,G,0.358958,0.297064,0.598506,0.254420,-1.824423,-2.057390,0.243701,-2.348638,-0.838542,1.511317,-2.040465,-1.197739,-2.503247,0.274737,0.979568,-0.634443,0.084083,0.253775,0.294375
3501.918000,1.648000,START g_bow,Note,1,G,0.350958,0.297183,0.600699,0.251364,-1.823951,-2.054801,0.249154,-2.346480,-0.830705,1.506182,-2.039808,-1.195747,-2.500937,0.274572,0.964707,-0.629108,0.085426,0.251833,0.289180
3501.926000,1.656000,START g_bow,Note,1,G,0.342958,0.297258,0.602839,0.248353,-1.823480,-2.052166,0.254662,-2.344340,-0.823052,1.501197,-2.039070,-1.193724,-2.498640,0.271756,0.953738,-0.617106,0.088982,0.249481,0.286958
3501.934000,1.664000,START g_bow,Note,1,G,0.334958,0.297288,0.604934,0.245358,-1.823042,-2.049577,0.260264,-2.342208,-0.815541,1.496351,-2.038267,-1.191768,-2.496367,0.266343,0.939740,-0.606917,0.092205,0.247797,0.283659
3501.942000,1.672000,START g_bow,Note,1,G,0.326958,0.297323,0.607014,0.242413,-1.822546,-2.047068,0.265326,-2.340106,-0.808067,1.491422,-2.037724,-1.189765,-2.494131,0.264934,0.932654,-0.607435,0.079590,0.244433,0.278852
3501.950000,1.680000,START g_bow,Note,1,G,0.318958,0.297349,0.609052,0.239451,-1.822159,-2.044532,0.270570,-2.338050,-0.800659,1.486591,-2.037084,-1.187836,-2.491890,0.262213,0.915392,-0.604194,0.082166,0.241688,0.276910
3501.958000,1.688000,START g_bow,Note,1,G,0.310958,0.297311,0.611053,0.236450,-1.821715,-2.042076,0.276021,-2.335969,-0.793310,1.481912,-2.036386,-1.185955,-2.489725,0.257962,0.904847,-0.595357,0.086321,0.235854,0.273677
3502.038000,1.768000,START g_bow,Note,1,G,0.230958,0.296199,0.629320,0.208138,-1.818313,-2.018887,0.325664,-2.316587,-0.725027,1.437569,-2.030017,-1.168232,-2.469072,0.223272,0.799842,-0.514013,0.073764,0.209728,0.239530
3502.102000,1.832000,START g_bow,Note,1,G,0.166958,0.294537,0.641541,0.187371,-1.816297,-2.002370,0.360580,-2.303036,-0.676799,1.406247,-2.025734,-1.155600,-2.454593,0.199579,0.709886,-0.461754,0.063372,0.184928,0.214892
3502.110000,1.840000,START g_bow,Note,1,G,0.158958,0.294275,0.642934,0.184868,-1.816104,-2.000394,0.364905,-2.301435,-0.671138,1.402623,-2.025130,-1.154131,-2.452888,0.196709,0.695508,-0.452168,0.066781,0.182815,0.210477
3502.118000,1.848000,START g_bow,Note,1,G,0.150958,0.293980,0.644294,0.182425,-1.815793,-1.998560,0.369036,-2.299827,-0.665615,1.399081,-2.024597,-1.152673,-2.451284,0.193145,0.687424,-0.442087,0.065467,0.179008,0.206945
3502.126000,1.856000,START g_bow,Transition,1,G-D,0.342958,0.293662,0.645644,0.180027,-1.815561,-1.996794,0.373082,-2.298214,-0.660194,1.395572,-2.024079,-1.151297,-2.449639,0.190658,0.675810,-0.435557,0.061103,0.178949,0.203668
3502.134000,1.864000,START g_bow,Transition,1,G-D,0.334958,0.293423,0.646917,0.177639,-1.815436,-1.994847,0.377051,-2.296763,-0.654840,1.392158,-2.023601,-1.149872,-2.448016,0.191961,0.667233,-0.432341,0.061291,0.173502,0.202300
3502.142000,1.872000,START g_bow,Transition,1,G-D,0.326958,0.293130,0.648199,0.175287,-1.815220,-1.993064,0.380922,-2.295246,-0.649550,1.388739,-2.023138,-1.148488,-2.446436,0.183519,0.651795,-0.422813,0.057973,0.170373,0.199031
3502.150000,1.880000,START g_bow,Transition,1,G-D,0.318958,0.292835,0.649455,0.172944,-1.815092,-1.991252,0.384874,-2.293760,-0.644324,1.385386,-2.022621,-1.147151,-2.444833,0.179742,0.641457,-0.415529,0.059935,0.167981,0.196080
3502.158000,1.888000,START g_bow,Transition,1,G-D,0.310958,0.292587,0.650685,0.170705,-1.814961,-1.989476,0.388460,-2.292351,-0.639230,1.381981,-2.022166,-1.145805,-2.443276,0.177223,0.628138,-0.410591,0.057955,0.163424,0.191035
3502.166000,1.896000,START g_bow,Transition,1,G-D,0.302958,0.292293,0.651874,0.168525,-1.814761,-1.987847,0.392008,-2.290929,-0.634316,1.378732,-2.021705,-1.144525,-2.441808,0.174443,0.621999,-0.399880,0.057236,0.162520,0.187979
3502.174000,1.904000,START g_bow,Transition,1,G-D,0.294958,0.291994,0.653042,0.166355,-1.814570,-1.986161,0.395531,-2.289524,-0.629447,1.375533,-2.021266,-1.143204,-2.440327,0.168803,0.609881,-0.394191,0.056866,0.157792,0.182120
3502.182000,1.912000,START g_bow,Transition,1,G-D,0.286958,0.291739,0.654157,0.164167,-1.814526,-1.984376,0.399131,-2.288224,-0.624613,1.372432,-2.020817,-1.141928,-2.438832,0.164313,0.600690,-0.387194,0.054191,0.154153,0.178102
3502.190000,1.920000,START g_bow,Transition,1,G-D,0.278958,0.291472,0.655238,0.162016,-1.814406,-1.982763,0.402598,-2.286941,-0.619875,1.369389,-2.020409,-1.140730,-2.437456,0.163339,0.586738,-0.381352,0.054776,0.153242,0.176321
3502.198000,1.928000,START g_bow,Transition,1,G-D,0.270958,0.291166,0.656316,0.159879,-1.814299,-1.981173,0.406090,-2.285624,-0.615194,1.366400,-2.019996,-1.139549,-2.436049,0.163006,0.574165,-0.375131,0.051402,0.150858,0.175116
3502.206000,1.936000,START g_bow,Transition,1,G-D,0.262958,0.290858,0.657352,0.157785,-1.814200,-1.979565,0.409629,-2.284345,-0.610648,1.363532,-2.019519,-1.138374,-2.434679,0.162041,0.563135,-0.365973,0.053433,0.147587,0.171725
3502.214000,1.944000,START g_bow,Transition,1,G-D,0.254958,0.290574,0.658369,0.155727,-1.814140,-1.977972,0.412982,-2.283112,-0.606155,1.360656,-2.019111,-1.137219,-2.433313,0.157630,0.552151,-0.358787,0.049585,0.142137,0.165867
3502.222000,1.952000,START g_bow,Transition,1,G-D,0.246958,0.290270,0.659361,0.153746,-1.814000,-1.976481,0.416276,-2.281879,-0.601823,1.357851,-2.018642,-1.136087,-2.432033,0.153611,0.544472,-0.351748,0.053263,0.140909,0.161689
3502.230000,1.960000,START g_bow,Transition,1,G-D,0.238958,0.289997,0.660319,0.151801,-1.813962,-1.974950,0.419381,-2.280716,-0.597569,1.355099,-2.018282,-1.134973,-2.430716,0.151379,0.532680,-0.344814,0.047416,0.139413,0.161576
3502.238000,1.968000,START g_bow,Transition,1,G-D,0.230958,0.289735,0.661279,0.149923,-1.813854,-1.973538,0.422230,-2.279562,-0.593376,1.352265,-2.017956,-1.133877,-2.429465,0.144473,0.520264,-0.341206,0.046614,0.135338,0.155290
3502.246000,1.976000,START g_bow,Transition,1,G-D,0.222958,0.289466,0.662216,0.148059,-1.813764,-1.972139,0.425107,-2.278424,-0.589249,1.349503,-2.017612,-1.132807,-2.428229,0.141941,0.507423,-0.334151,0.046194,0.135936,0.152626
3502.254000,1.984000,START g_bow,Transition,1,G-D,0.214958,0.289175,0.663126,0.146222,-1.813634,-1.970746,0.427978,-2.277285,-0.585215,1.346843,-2.017274,-1.131718,-2.427024,0.142101,0.495088,-0.326204,0.045261,0.130372,0.151749
3502.262000,1.992000,START g_bow,Transition,1,G-D,0.206958,0.288849,0.664007,0.144370,-1.813563,-1.969380,0.431096,-2.276142,-0.581252,1.344333,-2.016841,-1.130719,-2.425821,0.139489,0.485689,-0.312700,0.047428,0.127005,0.145148
3502.270000,2.000000,START g_bow,Transition,1,G-D,0.198958,0.288534,0.664857,0.142553,-1.813451,-1.968049,0.434075,-2.275037,-0.577367,1.341875,-2.016462,-1.129713,-2.424681,0.137939,0.475429,-0.305384,0.042892,0.125446,0.142288
3502.278000,2.008000,START g_bow,Transition,1,G-D,0.190958,0.288204,0.665694,0.140829,-1.813309,-1.966788,0.436869,-2.273927,-0.573643,1.339466,-2.016109,-1.128715,-2.423557,0.135972,0.463022,-0.298751,0.042624,0.123027,0.140450
3502.286000,2.016000,START g_bow,Transition,1,G-D,0.182958,0.287914,0.666488,0.139180,-1.813244,-1.965590,0.439501,-2.272903,-0.570074,1.337126,-2.015772,-1.127812,-2.422472,0.129130,0.454921,-0.288895,0.039389,0.117953,0.137720
3502.294000,2.024000,START g_bow,Transition,1,G-D,0.174958,0.287611,0.667279,0.137548,-1.813134,-1.964401,0.441981,-2.271869,-0.566523,1.334795,-2.015537,-1.126862,-2.421388,0.126242,0.439286,-0.288401,0.037925,0.118015,0.133969
3502.302000,2.032000,START g_bow,Transition,1,G-D,0.166958,0.287327,0.668042,0.135975,-1.813012,-1.963253,0.444438,-2.270878,-0.563092,1.332506,-2.015219,-1.125947,-2.420372,0.121516,0.428561,-0.281864,0.038686,0.113979,0.130489
3502.358000,2.088000,START g_bow,Transition,1,G-D,0.110958,0.285421,0.672723,0.125681,-1.812632,-1.955662,0.460830,-2.264670,-0.541146,1.318332,-2.013178,-1.120252,-2.413768,0.097294,0.351798,-0.227395,0.031818,0.093991,0.106248
3502.446000,2.176000,START g_bow,Note,1,D,0.572958,0.283085,0.677944,0.113532,-1.812365,-1.946642,0.479995,-2.257570,-0.515551,1.301835,-2.010781,-1.113587,-2.406103,0.061516,0.230636,-0.149393,0.020325,0.059411,0.070678
3502.454000,2.184000,START g_bow,Note,1,D,0.564958,0.282907,0.678289,0.112654,-1.812378,-1.945989,0.481408,-2.257079,-0.513757,1.300741,-2.010626,-1.113132,-2.405556,0.060941,0.221371,-0.142607,0.018983,0.057119,0.066163
3502.462000,2.192000,START g_bow,Note,1,D,0.556958,0.282744,0.678641,0.111877,-1.812389,-1.945384,0.482603,-2.256600,-0.512094,1.299618,-2.010474,-1.112685,-2.405007,0.057850,0.206384,-0.132838,0.018255,0.053881,0.063941
3502.470000,2.200000,START g_bow,Note,1,D,0.548958,0.282587,0.678961,0.111137,-1.812380,-1.944808,0.483796,-2.256151,-0.510535,1.298599,-2.010303,-1.112258,-2.404516,0.054700,0.193513,-0.127501,0.016724,0.050472,0.057421
3502.478000,2.208000,START g_bow,Note,1,D,0.540958,0.282430,0.679272,0.110464,-1.812365,-1.944309,0.484817,-2.255713,-0.509089,1.297615,-2.010181,-1.111866,-2.404041,0.052410,0.182098,-0.121227,0.015824,0.047666,0.055796
3502.486000,2.216000,START g_bow,Note,1,D,0.532958,0.282328,0.679548,0.109826,-1.812322,-1.943840,0.485663,-2.255359,-0.507696,1.296646,-2.010111,-1.111483,-2.403659,0.046909,0.171078,-0.114767,0.014764,0.043822,0.051823
3502.494000,2.224000,START g_bow,Note,1,D,0.524958,0.282159,0.679811,0.109191,-1.812234,-1.943404,0.486720,-2.254945,-0.506393,1.295842,-2.009969,-1.111112,-2.403290,0.045454,0.158397,-0.110620,0.014435,0.041023,0.048986
3502.502000,2.232000,START g_bow,Note,1,D,0.516958,0.282037,0.680074,0.108628,-1.812237,-1.943000,0.487542,-2.254586,-0.505171,1.294984,-2.009868,-1.110801,-2.402891,0.043028,0.149057,-0.099771,0.014017,0.037573,0.045606
3502.510000,2.240000,START g_bow,Note,1,D,0.508958,0.281925,0.680310,0.108089,-1.812259,-1.942605,0.488392,-2.254263,-0.504028,1.294213,-2.009742,-1.110524,-2.402524,0.039652,0.140325,-0.092765,0.012061,0.034182,0.041709
3502.518000,2.248000,START g_bow,Note,1,D,0.500958,0.281822,0.680519,0.107555,-1.812250,-1.942202,0.489215,-2.253970,-0.502922,1.293512,-2.009649,-1.110229,-2.402203,0.036936,0.129420,-0.083948,0.012206,0.033677,0.038927
3502.526000,2.256000,START g_bow,Note,1,D,0.492958,0.281715,0.680713,0.107067,-1.812225,-1.941894,0.489997,-2.253687,-0.501919,1.292877,-2.009542,-1.109997,-2.401931,0.033682,0.121049,-0.078685,0.011481,0.031253,0.034959
3502.534000,2.264000,START g_bow,Note,1,D,0.484958,0.281625,0.680885,0.106628,-1.812183,-1.941600,0.490653,-2.253438,-0.501003,1.292292,-2.009474,-1.109759,-2.401694,0.030397,0.108752,-0.069535,0.009742,0.027871,0.032224
3502.542000,2.272000,START g_bow,Note,1,D,0.476958,0.281555,0.681037,0.106224,-1.812237,-1.941293,0.491278,-2.253235,-0.500180,1.291781,-2.009414,-1.109574,-2.401427,0.027994,0.096543,-0.063747,0.006646,0.024627,0.028877
3502.550000,2.280000,START g_bow,Note,1,D,0.468958,0.281479,0.681186,0.105888,-1.812174,-1.941042,0.491748,-2.253019,-0.499453,1.291285,-2.009370,-1.109340,-2.401227,0.025708,0.086451,-0.058510,0.004963,0.022428,0.025572
3502.558000,2.288000,START g_bow,Note,1,D,0.460958,0.281387,0.681317,0.105585,-1.812149,-1.940888,0.492184,-2.252808,-0.498825,1.290888,-2.009358,-1.109200,-2.401035,0.021949,0.075398,-0.048007,0.004416,0.019494,0.022095
3502.566000,2.296000,START g_bow,Note,1,D,0.452958,0.281343,0.681420,0.105333,-1.812164,-1.940679,0.492565,-2.252672,-0.498293,1.290537,-2.009313,-1.109055,-2.400863,0.018383,0.064086,-0.039778,0.003483,0.017111,0.019809
3502.574000,2.304000,START g_bow,Note,1,D,0.444958,0.281277,0.681506,0.105090,-1.812161,-1.940562,0.492993,-2.252528,-0.497822,1.290272,-2.009256,-1.108979,-2.400738,0.015077,0.054472,-0.033043,0.002671,0.013256,0.014905
3502.582000,2.312000,START g_bow,Note,1,D,0.436958,0.281252,0.681573,0.104930,-1.812164,-1.940435,0.493164,-2.252443,-0.497473,1.290032,-2.009274,-1.108878,-2.400627,0.012156,0.042398,-0.025475,0.002067,0.010026,0.012044
3502.590000,2.320000,START g_bow,Note,1,D,0.428958,0.281215,0.681634,0.104815,-1.812115,-1.940377,0.493318,-2.252348,-0.497213,1.289840,-2.009256,-1.108796,-2.400565,0.007017,0.029097,-0.018685,0.001597,0.004487,0.008549
3502.598000,2.328000,START g_bow,Note,1,D,0.420958,0.281204,0.681664,0.104721,-1.812133,-1.940392,0.493449,-2.252312,-0.497025,1.289711,-2.009235,-1.108827,-2.400541,0.001834,0.017623,-0.011810,0.001102,0.001125,0.001315
3502.606000,2.336000,START g_bow,Note,1,D,0.412958,0.281217,0.681657,0.104657,-1.812148,-1.940300,0.493560,-2.252332,-0.496926,1.289702,-2.009235,-1.108787,-2.400534,-0.000559,0.006112,-0.002627,0.000639,0.000612,0.000488
3502.614000,2.344000,START g_bow,Note,1,D,0.404958,0.281201,0.681645,0.104664,-1.812137,-1.940342,0.493608,-2.252324,-0.496973,1.289769,-2.009219,-1.108818,-2.400557,-0.003707,-0.008445,0.018001,0.000263,-0.000363,-0.002661
3502.622000,2.352000,START g_bow,Note,1,D,0.396958,0.281215,0.681570,0.104659,-1.812220,-1.940243,0.493623,-2.252407,-0.497084,1.290044,-2.009353,-1.108818,-2.400550,-0.007447,-0.018045,0.035514,-0.018518,-0.001840,-0.001816
3502.630000,2.360000,START g_bow,Note,1,D,0.388958,0.281208,0.681490,0.104665,-1.812238,-1.940191,0.493725,-2.252468,-0.497236,1.290360,-2.009414,-1.108824,-2.400598,-0.010552,-0.025966,0.046988,-0.020882,-0.004166,-0.004998
3502.638000,2.368000,START g_bow,Note,1,D,0.380958,0.281220,0.681367,0.104670,-1.812298,-1.940103,0.493764,-2.252587,-0.497440,1.290808,-2.009588,-1.108835,-2.400652,-0.014491,-0.028717,0.061996,-0.026900,-0.004634,-0.008261
3502.646000,2.376000,START g_bow,Note,1,D,0.372958,0.281189,0.681224,0.104666,-1.812371,-1.940034,0.493907,-2.252679,-0.497704,1.291407,-2.009788,-1.108876,-2.400693,-0.016236,-0.034628,0.079963,-0.035494,-0.006265,-0.010466
3502.678000,2.408000,START g_bow,Note,1,D,0.340958,0.281046,0.680351,0.104685,-1.812697,-1.939864,0.493912,-2.253290,-0.499264,1.294915,-2.011528,-1.109138,-2.401033,-0.021712,-0.059174,0.139032,-0.075416,-0.011037,-0.013770
3502.750000,2.480000,START g_bow,Note,1,D,0.268958,0.280030,0.676591,0.104367,-1.813547,-1.939954,0.493956,-2.255494,-0.505461,1.310265,-2.019838,-1.110463,-2.402740,-0.043321,-0.116288,0.289541,-0.153961,-0.027607,-0.035833
3502.790000,2.520000,START g_bow,Note,1,D,0.228958,0.279150,0.673261,0.103914,-1.814320,-1.939896,0.494699,-2.257483,-0.510626,1.323648,-2.026759,-1.111667,-2.404334,-0.057672,-0.143463,0.370186,-0.188303,-0.035362,-0.044357
3502.798000,2.528000,START g_bow,Note,1,D,0.220958,0.278938,0.672493,0.103798,-1.814493,-1.939849,0.494934,-2.257934,-0.511795,1.326732,-2.028328,-1.111924,-2.404694,-0.057230,-0.149662,0.385545,-0.201242,-0.036047,-0.046758
3502.806000,2.536000,START g_bow,Note,1,D,0.212958,0.278733,0.671706,0.103701,-1.814641,-1.939862,0.495098,-2.258409,-0.513013,1.329858,-2.029929,-1.112211,-2.405109,-0.062137,-0.159363,0.401076,-0.209424,-0.039085,-0.049043
3502.814000,2.544000,START g_bow,Note,1,D,0.204958,0.278535,0.670892,0.103627,-1.814870,-1.939890,0.495069,-2.258921,-0.514295,1.333081,-2.031715,-1.112538,-2.405479,-0.064956,-0.160086,0.414813,-0.217175,-0.039685,-0.052671
3502.822000,2.552000,START g_bow,Note,1,D,0.196958,0.278320,0.670039,0.103558,-1.815059,-1.939908,0.495179,-2.259449,-0.515661,1.336460,-2.033447,-1.112861,-2.405911,-0.066959,-0.172035,0.431072,-0.222830,-0.041390,-0.055555
3502.830000,2.560000,START g_bow,Note,1,D,0.188958,0.278114,0.669156,0.103526,-1.815287,-1.939956,0.495153,-2.260015,-0.517118,1.339933,-2.035280,-1.113222,-2.406347,-0.070339,-0.177424,0.445110,-0.233929,-0.042521,-0.058723
3502.838000,2.568000,START g_bow,Note,1,D,0.180958,0.277897,0.668234,0.103443,-1.815517,-1.939937,0.495175,-2.260606,-0.518552,1.343549,-2.037232,-1.113548,-2.406787,-0.073219,-0.186226,0.460183,-0.243321,-0.045135,-0.059404
3502.846000,2.576000,START g_bow,Note,1,D,0.172958,0.277644,0.667277,0.103390,-1.815712,-1.939968,0.495224,-2.261186,-0.520114,1.347344,-2.039211,-1.113895,-2.407265,-0.078019,-0.192414,0.477086,-0.249975,-0.045902,-0.059800
3502.854000,2.584000,START g_bow,Note,1,D,0.164958,0.277399,0.666268,0.103274,-1.815994,-1.939903,0.495434,-2.261828,-0.521652,1.351298,-2.041241,-1.114262,-2.407733,-0.076581,-0.196679,0.492422,-0.258581,-0.045103,-0.061876
3502.862000,2.592000,START g_bow,Note,1,D,0.156958,0.277120,0.665241,0.103173,-1.816267,-1.939856,0.495697,-2.262451,-0.523269,1.355372,-2.043280,-1.114642,-2.408203,-0.079123,-0.197886,0.502027,-0.262003,-0.048285,-0.064141
3502.870000,2.600000,START g_bow,Note,1,D,0.148958,0.276864,0.664239,0.103051,-1.816472,-1.939868,0.495854,-2.263075,-0.524768,1.359268,-2.045324,-1.115013,-2.408726,-0.072483,-0.183314,0.472019,-0.246521,-0.045512,-0.060190
3502.878000,2.608000,START g_bow,Note,1,D,0.390958,0.276643,0.663293,0.102973,-1.816700,-1.939929,0.495852,-2.263689,-0.526222,1.362912,-2.047292,-1.115407,-2.409218,-0.075475,-0.177506,0.457634,-0.239926,-0.045131,-0.058599
3502.886000,2.616000,START g_bow,Note,1,D,0.382958,0.276406,0.662395,0.102944,-1.816855,-1.939961,0.495814,-2.264242,-0.527685,1.366430,-2.049165,-1.115708,-2.409682,-0.072835,-0.173624,0.440765,-0.231394,-0.042642,-0.057558
3502.894000,2.624000,START g_bow,Note,1,D,0.374958,0.276246,0.661503,0.102921,-1.817063,-1.940020,0.495637,-2.264876,-0.529084,1.369778,-2.051014,-1.116067,-2.410181,-0.070706,-0.166100,0.426703,-0.225763,-0.041020,-0.058510
3502.902000,2.632000,START g_bow,Note,1,D,0.366958,0.276024,0.660651,0.102850,-1.817246,-1.940044,0.495713,-2.265408,-0.530400,1.373085,-2.052751,-1.116390,-2.410618,-0.071082,-0.161386,0.408538,-0.214162,-0.040885,-0.054229
3502.910000,2.640000,START g_bow,Note,1,D,0.358958,0.275838,0.659808,0.102761,-1.817535,-1.940026,0.495836,-2.265978,-0.531655,1.376302,-2.054431,-1.116760,-2.411011,-0.065455,-0.155903,0.394888,-0.205579,-0.039118,-0.051948
3502.918000,2.648000,START g_bow,Note,1,D,0.350958,0.275614,0.659008,0.102662,-1.817688,-1.940062,0.495985,-2.266462,-0.532843,1.379405,-2.056052,-1.117071,-2.411434,-0.065758,-0.146828,0.378019,-0.197742,-0.036295,-0.049056
3502.926000,2.656000,START g_bow,Note,1,D,0.342958,0.275434,0.658220,0.102568,-1.817906,-1.939950,0.496166,-2.266985,-0.533994,1.382417,-2.057591,-1.117321,-2.411803,-0.059909,-0.139846,0.363594,-0.190151,-0.034273,-0.047175
3502.934000,2.664000,START g_bow,Note,1,D,0.334958,0.275216,0.657472,0.102431,-1.818059,-1.939914,0.496521,-2.267429,-0.535042,1.385318,-2.059009,-1.117596,-2.412190,-0.057633,-0.134992,0.348660,-0.176488,-0.033687,-0.044953
3502.942000,2.672000,START g_bow,Note,1,D,0.326958,0.275066,0.656748,0.102327,-1.818340,-1.939820,0.496724,-2.267936,-0.536065,1.388050,-2.060403,-1.117894,-2.412507,-0.055621,-0.125445,0.330062,-0.172762,-0.032025,-0.043110
3502.950000,2.680000,START g_bow,Note,1,D,0.318958,0.274904,0.656078,0.102248,-1.818478,-1.939771,0.496865,-2.268370,-0.537036,1.390599,-2.061710,-1.118111,-2.412858,-0.053486,-0.119546,0.312868,-0.162971,-0.029822,-0.041422
3502.958000,2.688000,START g_bow,Note,1,D,0.310958,0.274777,0.655437,0.102182,-1.818636,-1.939809,0.496880,-2.268822,-0.537954,1.392969,-2.062989,-1.118393,-2.413225,-0.050278,-0.118195,0.297327,-0.157101,-0.029300,-0.037733
3502.966000,2.696000,START g_bow,Note,1,D,0.302958,0.274615,0.654843,0.102144,-1.818778,-1.939832,0.496869,-2.269191,-0.538873,1.395264,-2.064242,-1.118621,-2.413510,-0.047529,-0.109389,0.281355,-0.147406,-0.026744,-0.037656
3502.974000,2.704000,START g_bow,Note,1,D,0.294958,0.274477,0.654284,0.102113,-1.818894,-1.939831,0.496836,-2.269554,-0.539729,1.397390,-2.065404,-1.118809,-2.413794,-0.044799,-0.103314,0.264934,-0.139441,-0.026676,-0.036129
3502.982000,2.712000,START g_bow,Note,1,D,0.286958,0.274347,0.653749,0.102066,-1.819034,-1.939834,0.496926,-2.269906,-0.540532,1.399424,-2.066442,-1.119031,-2.414070,-0.044292,-0.098265,0.248594,-0.129307,-0.023859,-0.033038
3502.990000,2.720000,START g_bow,Note,1,D,0.278958,0.274210,0.653243,0.102004,-1.819117,-1.939825,0.497030,-2.270221,-0.541260,1.401350,-2.067439,-1.119201,-2.414346,-0.040165,-0.091785,0.235715,-0.121771,-0.022524,-0.031459
3503.054000,2.784000,START g_bow,Note,1,D,0.214958,0.273458,0.650353,0.101696,-1.819837,-1.939756,0.497574,-2.272076,-0.545488,1.412331,-2.073124,-1.120306,-2.415791,-0.019991,-0.041837,0.106731,-0.057531,-0.010963,-0.014943
3503.134000,2.864000,END g_bow,Note,1,D,0.134958,0.273179,0.649661,0.101635,-1.819908,-1.939711,0.497743,-2.272408,-0.546575,1.415129,-2.074576,-1.120457,-2.416087,0.001725,0.000575,-0.000500,0.000709,-0.000194,-0.000176
3503.142000,2.872000,START g_bow,Transition,0,D-G,0.326958,0.273171,0.649671,0.101608,-1.819930,-1.939728,0.497835,-2.272393,-0.546529,1.415101,-2.074536,-1.120495,-2.416076,0.007272,0.011090,-0.023127,0.010140,-0.000292,-0.000152
3503.150000,2.880000,START g_bow,Transition,0,D-G,0.318958,0.273199,0.649732,0.101602,-1.819920,-1.939749,0.497805,-2.272367,-0.546409,1.414839,-2.074425,-1.120491,-2.416060,0.008099,0.020254,-0.035310,0.019802,-0.000128,0.000125
3503.158000,2.888000,START g_bow,Transition,0,D-G,0.310958,0.273212,0.649816,0.101585,-1.819858,-1.939791,0.497793,-2.272300,-0.546241,1.414511,-2.074290,-1.120464,-2.416048,0.010315,0.022541,-0.048481,0.022146,0.004032,0.004298
3503.166000,2.896000,START g_bow,Transition,0,D-G,0.302958,0.273217,0.649933,0.101573,-1.819798,-1.939842,0.497777,-2.272196,-0.546042,1.414091,-2.074114,-1.120431,-2.416000,0.014266,0.027217,-0.061342,0.028674,0.005808,0.008548
3503.174000,2.904000,START g_bow,Transition,0,D-G,0.294958,0.273250,0.650090,0.101583,-1.819766,-1.939918,0.497701,-2.272088,-0.545805,1.413499,-2.073857,-1.120423,-2.415928,0.014045,0.032563,-0.078719,0.036787,0.006946,0.012258
3503.182000,2.912000,START g_bow,Transition,0,D-G,0.286958,0.273284,0.650275,0.101603,-1.819690,-1.939947,0.497662,-2.271952,-0.545542,1.412813,-2.073507,-1.120347,-2.415847,0.017967,0.036576,-0.086882,0.046918,0.010940,0.012383
3503.190000,2.920000,START g_bow,Transition,0,D-G,0.278958,0.273302,0.650494,0.101617,-1.819569,-1.940058,0.497566,-2.271766,-0.545223,1.412025,-2.073167,-1.120284,-2.415767,0.019581,0.041305,-0.105224,0.053292,0.012567,0.013367
3503.198000,2.928000,START g_bow,Transition,0,D-G,0.270958,0.273371,0.650735,0.101655,-1.819512,-1.940058,0.497485,-2.271617,-0.544887,1.411106,-2.072699,-1.120185,-2.415644,0.022806,0.044594,-0.120591,0.061874,0.013037,0.016233
3503.206000,2.936000,START g_bow,Transition,0,D-G,0.262958,0.273404,0.651030,0.101692,-1.819399,-1.940168,0.497391,-2.271379,-0.544491,1.410047,-2.072187,-1.120108,-2.415505,0.024829,0.051156,-0.137384,0.071671,0.013431,0.018738
3503.214000,2.944000,START g_bow,Transition,0,D-G,0.254958,0.273487,0.651342,0.101726,-1.819298,-1.940183,0.497282,-2.271179,-0.544028,1.408852,-2.071603,-1.119973,-2.415361,0.026605,0.057991,-0.149268,0.081160,0.015100,0.020526
3503.222000,2.952000,START g_bow,Transition,0,D-G,0.246958,0.273594,0.651666,0.101743,-1.819264,-1.940150,0.497314,-2.270998,-0.543521,1.407590,-2.070895,-1.119869,-2.415193,0.028594,0.065224,-0.165311,0.091383,0.017007,0.022351
3503.230000,2.960000,START g_bow,Transition,0,D-G,0.238958,0.273664,0.652047,0.101787,-1.819140,-1.940185,0.497261,-2.270720,-0.542988,1.406188,-2.070161,-1.119718,-2.415001,0.029788,0.069926,-0.182260,0.100582,0.019571,0.026022
3503.238000,2.968000,START g_bow,Transition,0,D-G,0.230958,0.273782,0.652445,0.101828,-1.819082,-1.940148,0.497224,-2.270483,-0.542402,1.404663,-2.069341,-1.119566,-2.414781,0.031789,0.075821,-0.196696,0.109203,0.022066,0.026957
3503.246000,2.976000,START g_bow,Transition,0,D-G,0.222958,0.273923,0.652880,0.101921,-1.818994,-1.940137,0.497085,-2.270235,-0.541825,1.402982,-2.068433,-1.119395,-2.414565,0.034421,0.081788,-0.214817,0.119309,0.023443,0.031076
3503.254000,2.984000,START g_bow,Transition,0,D-G,0.214958,0.274041,0.653363,0.101987,-1.818855,-1.940189,0.497002,-2.269917,-0.541146,1.401153,-2.067455,-1.119230,-2.414344,0.038700,0.088623,-0.231396,0.125654,0.024878,0.032183
3503.262000,2.992000,START g_bow,Transition,0,D-G,0.206958,0.274193,0.653867,0.102054,-1.818793,-1.940110,0.496932,-2.269621,-0.540423,1.399226,-2.066420,-1.119015,-2.414046,0.038546,0.093916,-0.242470,0.132909,0.026193,0.034413
3503.270000,3.000000,START g_bow,Transition,0,D-G,0.198958,0.274309,0.654360,0.102111,-1.818656,-1.940164,0.496836,-2.269293,-0.539712,1.397359,-2.065452,-1.118847,-2.413813,0.030788,0.087505,-0.220546,0.122236,0.023076,0.031831
3503.278000,3.008000,START g_bow,Transition,0,D-G,0.190958,0.274447,0.654789,0.102161,-1.818585,-1.940069,0.496917,-2.269049,-0.539083,1.395695,-2.064445,-1.118659,-2.413592,0.036210,0.081347,-0.210345,0.114393,0.024312,0.029940
3503.286000,3.016000,START g_bow,Transition,0,D-G,0.182958,0.274509,0.655225,0.102157,-1.818464,-1.940077,0.496973,-2.268715,-0.538396,1.394101,-2.063616,-1.118488,-2.413345,0.032138,0.077102,-0.195984,0.106647,0.020914,0.028348
3503.294000,3.024000,START g_bow,Transition,0,D-G,0.174958,0.274636,0.655596,0.102160,-1.818415,-1.939975,0.497085,-2.268513,-0.537780,1.392632,-2.062757,-1.118327,-2.413153,0.028117,0.075863,-0.181275,0.099300,0.019500,0.026089
3503.302000,3.032000,START g_bow,Transition,0,D-G,0.166958,0.274720,0.655950,0.102169,-1.818374,-1.939924,0.497133,-2.268282,-0.537223,1.391298,-2.062035,-1.118189,-2.412933,0.026335,0.067308,-0.163059,0.087108,0.017670,0.023892
3503.310000,3.040000,START g_bow,Transition,0,D-G,0.158958,0.274798,0.656266,0.102164,-1.818278,-1.939886,0.497166,-2.268075,-0.536692,1.390078,-2.061391,-1.118036,-2.412781,0.024983,0.063117,-0.150338,0.078175,0.016108,0.021097
3503.318000,3.048000,START g_bow,Transition,0,D-G,0.150958,0.274882,0.656556,0.102168,-1.818265,-1.939803,0.497229,-2.267904,-0.536225,1.388964,-2.060769,-1.117913,-2.412594,0.022035,0.055040,-0.133756,0.073767,0.014863,0.019430
3503.326000,3.056000,START g_bow,Transition,0,D-G,0.142958,0.274977,0.656809,0.102198,-1.818213,-1.939792,0.497140,-2.267774,-0.535829,1.387941,-2.060254,-1.117814,-2.412481,0.018405,0.048954,-0.118002,0.059315,0.013172,0.017248
3503.334000,3.064000,START g_bow,Transition,0,D-G,0.134958,0.275041,0.657029,0.102217,-1.818162,-1.939768,0.497101,-2.267643,-0.535488,1.387085,-2.059815,-1.117713,-2.412368,0.015467,0.041331,-0.107181,0.054037,0.012184,0.014500
3503.398000,3.128000,END g_bow,Transition,0,D-G,0.070958,0.275264,0.657697,0.102363,-1.818009,-1.939877,0.496777,-2.267275,-0.534575,1.384437,-2.058457,-1.117528,-2.412092,0.000002,-0.000531,-0.000013,-0.001603,0.000345,0.000385
3503.478000,3.208000,START g_bow,Transition,1,G-D,0.990958,0.275105,0.656504,0.102349,-1.818566,-1.939406,0.496937,-2.268205,-0.536472,1.388919,-2.060631,-1.117822,-2.412507,-0.023686,-0.048216,0.127580,-0.069633,-0.012537,-0.017544
3503.486000,3.216000,START g_bow,Transition,1,G-D,0.982958,0.275049,0.656218,0.102321,-1.818671,-1.939344,0.496974,-2.268408,-0.536892,1.390002,-2.061200,-1.117911,-2.412623,-0.025473,-0.054700,0.145671,-0.078367,-0.014567,-0.019790
3503.494000,3.224000,START g_bow,Transition,1,G-D,0.974958,0.274949,0.655911,0.102301,-1.818693,-1.939331,0.496994,-2.268577,-0.537375,1.391215,-2.061844,-1.117976,-2.412779,-0.026870,-0.063812,0.157089,-0.085724,-0.016078,-0.022253
3503.502000,3.232000,START g_bow,Transition,1,G-D,0.966958,0.274876,0.655555,0.102287,-1.818788,-1.939326,0.496963,-2.268824,-0.537923,1.392552,-2.062569,-1.118108,-2.412959,-0.028335,-0.072602,0.173916,-0.096491,-0.018119,-0.026147
3503.510000,3.240000,START g_bow,Transition,1,G-D,0.958958,0.274782,0.655179,0.102296,-1.818848,-1.939430,0.496794,-2.269067,-0.538542,1.393978,-2.063412,-1.118283,-2.413179,-0.030092,-0.076513,0.193838,-0.106360,-0.019901,-0.029115
3503.518000,3.248000,START g_bow,Transition,1,G-D,0.950958,0.274654,0.654768,0.102283,-1.818888,-1.939487,0.496776,-2.269303,-0.539206,1.395583,-2.064273,-1.118431,-2.413410,-0.031100,-0.085142,0.212015,-0.110547,-0.022652,-0.030810
3503.526000,3.256000,START g_bow,Transition,1,G-D,0.942958,0.274516,0.654309,0.102213,-1.818975,-1.939535,0.496882,-2.269574,-0.539858,1.397352,-2.065207,-1.118634,-2.413659,-0.033451,-0.087596,0.226111,-0.121372,-0.023873,-0.032132
3503.534000,3.264000,START g_bow,Transition,1,G-D,0.934958,0.274359,0.653830,0.102178,-1.819045,-1.939603,0.496898,-2.269842,-0.540604,1.399226,-2.066221,-1.118825,-2.413910,-0.038898,-0.094590,0.243654,-0.127577,-0.026100,-0.034938
3503.542000,3.272000,START g_bow,Transition,1,G-D,0.926958,0.274223,0.653309,0.102099,-1.819161,-1.939577,0.497007,-2.270174,-0.541329,1.401202,-2.067269,-1.119006,-2.414175,-0.032107,-0.087724,0.230365,-0.128578,-0.023159,-0.032656
3503.550000,3.280000,START g_bow,Transition,1,G-D,0.918958,0.274099,0.652850,0.102020,-1.819246,-1.939597,0.497081,-2.270461,-0.541949,1.402937,-2.068220,-1.119186,-2.414426,-0.032519,-0.083563,0.217006,-0.119486,-0.022909,-0.029926
3503.558000,3.288000,START g_bow,Transition,1,G-D,0.910958,0.273979,0.652398,0.101976,-1.819339,-1.939622,0.497179,-2.270748,-0.542619,1.404653,-2.069086,-1.119377,-2.414678,-0.033270,-0.076854,0.204432,-0.107525,-0.023076,-0.029000
3503.566000,3.296000,START g_bow,Transition,1,G-D,0.902958,0.273866,0.651994,0.101910,-1.819456,-1.939613,0.497296,-2.271000,-0.543181,1.406196,-2.069894,-1.119546,-2.414867,-0.033335,-0.071754,0.189774,-0.099460,-0.021965,-0.026470
3503.574000,3.304000,START g_bow,Transition,1,G-D,0.894958,0.273777,0.651615,0.101899,-1.819522,-1.939662,0.497202,-2.271252,-0.543763,1.407615,-2.070707,-1.119695,-2.415081,-0.030822,-0.069874,0.172490,-0.093923,-0.019201,-0.025243
3503.582000,3.312000,START g_bow,Transition,1,G-D,0.886958,0.273688,0.651266,0.101879,-1.819631,-1.939685,0.497224,-2.271481,-0.544303,1.408943,-2.071402,-1.119860,-2.415251,-0.028070,-0.063689,0.160119,-0.082453,-0.018784,-0.022576
3503.590000,3.320000,START g_bow,Transition,1,G-D,0.878958,0.273613,0.650956,0.101867,-1.819684,-1.939703,0.497220,-2.271684,-0.544779,1.410108,-2.072016,-1.119976,-2.415428,-0.025672,-0.056618,0.141687,-0.073703,-0.015905,-0.020997
3503.598000,3.328000,START g_bow,Transition,1,G-D,0.870958,0.273539,0.650673,0.101845,-1.819769,-1.939694,0.497227,-2.271868,-0.545207,1.411191,-2.072605,-1.120084,-2.415552,-0.021630,-0.048885,0.127112,-0.064538,-0.014325,-0.018326
3503.606000,3.336000,START g_bow,Transition,1,G-D,0.862958,0.273488,0.650411,0.101801,-1.819812,-1.939738,0.497282,-2.272054,-0.545544,1.412128,-2.073091,-1.120219,-2.415738,-0.019267,-0.043216,0.109508,-0.057831,-0.012645,-0.016807
3503.614000,3.344000,START g_bow,Transition,1,G-D,0.854958,0.273421,0.650191,0.101759,-1.819840,-1.939744,0.497380,-2.272183,-0.545839,1.412964,-2.073506,-1.120303,-2.415866,-0.015878,-0.034286,0.093428,-0.048601,-0.011488,-0.013829
3503.622000,3.352000,START g_bow,Transition,1,G-D,0.846958,0.273363,0.649991,0.101679,-1.819899,-1.939710,0.497624,-2.272307,-0.546048,1.413715,-2.073822,-1.120395,-2.415974,-0.014444,-0.026786,0.078543,-0.041458,-0.006990,-0.012282
3503.630000,3.360000,START g_bow,Transition,1,G-D,0.838958,0.273340,0.649834,0.101655,-1.819960,-1.939655,0.497653,-2.272428,-0.546252,1.414283,-2.074124,-1.120435,-2.416039,-0.011407,-0.021831,0.063753,-0.033650,-0.004628,-0.008059
3503.638000,3.368000,START g_bow,Transition,1,G-D,0.830958,0.273305,0.649721,0.101641,-1.819997,-1.939602,0.497710,-2.272496,-0.546420,1.414731,-2.074339,-1.120447,-2.416072,-0.007893,-0.017507,0.047656,-0.023727,-0.002235,-0.003162
3503.646000,3.376000,START g_bow,Transition,1,G-D,0.822958,0.273284,0.649641,0.101614,-1.820041,-1.939579,0.497750,-2.272548,-0.546508,1.415036,-2.074511,-1.120479,-2.416091,-0.002045,-0.012502,0.030604,-0.016241,-0.001629,-0.001594
3503.654000,3.384000,START g_bow,Transition,1,G-D,0.814958,0.273242,0.649624,0.101643,-1.820014,-1.939601,0.497734,-2.272517,-0.546608,1.415173,-2.074569,-1.120467,-2.416084,-0.000000,-0.004158,0.015773,-0.007496,-0.000799,-0.000876
3503.662000,3.392000,END g_bow,Transition,1,G-D,0.806958,0.273212,0.649630,0.101626,-1.819968,-1.939663,0.497769,-2.272476,-0.546589,1.415185,-2.074581,-1.120482,-2.416103,0.003777,0.003076,-0.009172,0.008758,-0.000530,-0.000589
3503.670000,3.400000,END g_bow,Transition,1,G-D,0.798958,0.273194,0.649644,0.101619,-1.819955,-1.939684,0.497779,-2.272444,-0.546568,1.415164,-2.074584,-1.120482,-2.416087,0.000663,0.001036,0.003576,0.002071,-0.000396,-0.000444
3503.678000,3.408000,END g_bow,Transition,1,G-D,0.790958,0.273208,0.649635,0.101621,-1.819975,-1.939634,0.497815,-2.272467,-0.546580,1.415180,-2.074555,-1.120467,-2.416084,0.004261,0.000401,-0.002366,0.001158,-0.000304,-0.000356
3503.710000,3.440000,START g_bow,Transition,0,G-D,0.758958,0.273178,0.649821,0.101558,-1.819812,-1.939872,0.497887,-2.272257,-0.546213,1.414526,-2.074270,-1.120503,-2.416079,0.009782,0.022977,-0.047441,0.022364,0.003591,0.005679
3503.814000,3.544000,START g_bow,Transition,0,G-D,0.654958,0.274201,0.653747,0.102022,-1.818834,-1.940107,0.497032,-2.269740,-0.540546,1.399603,-2.066555,-1.119095,-2.414154,0.037052,0.091232,-0.242645,0.130724,0.026240,0.033891
3503.822000,3.552000,START g_bow,Transition,0,G-D,0.646958,0.274360,0.654277,0.102088,-1.818724,-1.940073,0.496998,-2.269426,-0.539775,1.397556,-2.065418,-1.118888,-2.413893,0.042131,0.099813,-0.259944,0.138820,0.026705,0.034415
3503.830000,3.560000,START g_bow,Transition,0,G-D,0.638958,0.274497,0.654840,0.102141,-1.818588,-1.940088,0.496923,-2.269057,-0.538940,1.395416,-2.064303,-1.118680,-2.413605,0.044608,0.106227,-0.275462,0.146516,0.030060,0.038532
3503.838000,3.568000,START g_bow,Transition,0,G-D,0.630958,0.274633,0.655423,0.102157,-1.818463,-1.940058,0.497018,-2.268670,-0.538026,1.393206,-2.063078,-1.118464,-2.413300,0.046869,0.114085,-0.293141,0.155732,0.030486,0.041709
3503.846000,3.576000,START g_bow,Transition,0,G-D,0.622958,0.274811,0.656052,0.102222,-1.818341,-1.939982,0.496964,-2.268287,-0.537086,1.390786,-2.061779,-1.118190,-2.412959,0.048923,0.123129,-0.310174,0.164762,0.031462,0.043433
3503.854000,3.584000,START g_bow,Transition,0,G-D,0.614958,0.275001,0.656709,0.102272,-1.818210,-1.939948,0.496926,-2.267892,-0.536071,1.388233,-2.060414,-1.117942,-2.412630,0.049159,0.129535,-0.325380,0.174401,0.032523,0.044334
3503.862000,3.592000,START g_bow,Transition,0,G-D,0.606958,0.275187,0.657409,0.102308,-1.818088,-1.939908,0.496921,-2.267457,-0.534973,1.385536,-2.058985,-1.117686,-2.412254,0.053297,0.137039,-0.342523,0.179687,0.034920,0.045469
3503.870000,3.600000,START g_bow,Transition,0,G-D,0.598958,0.275393,0.658143,0.102384,-1.817915,-1.939908,0.496784,-2.267010,-0.533861,1.382681,-2.057505,-1.117407,-2.411898,0.057829,0.140225,-0.359504,0.187226,0.036315,0.048280
3503.878000,3.608000,START g_bow,Transition,0,G-D,0.590958,0.275601,0.658915,0.102462,-1.817742,-1.939899,0.496642,-2.266531,-0.532694,1.379693,-2.055967,-1.117107,-2.411506,0.060083,0.148841,-0.375755,0.196595,0.037506,0.049709
3503.886000,3.616000,START g_bow,Transition,0,G-D,0.582958,0.275813,0.659722,0.102562,-1.817544,-1.939918,0.496424,-2.266027,-0.531498,1.376574,-2.054390,-1.116796,-2.411103,0.063991,0.154620,-0.392351,0.204088,0.040526,0.050091
3503.894000,3.624000,START g_bow,Transition,0,G-D,0.574958,0.276006,0.660560,0.102645,-1.817326,-1.939924,0.496372,-2.265472,-0.530247,1.373370,-2.052674,-1.116473,-2.410683,0.066548,0.160588,-0.407533,0.215126,0.041022,0.052006
3503.902000,3.632000,START g_bow,Transition,0,G-D,0.566958,0.276228,0.661428,0.102728,-1.817113,-1.939878,0.496247,-2.264924,-0.528920,1.370012,-2.050934,-1.116102,-2.410235,0.070749,0.167552,-0.426424,0.221606,0.041966,0.055359
3503.910000,3.640000,START g_bow,Transition,0,G-D,0.558958,0.276430,0.662321,0.102810,-1.816894,-1.939905,0.496174,-2.264334,-0.527573,1.366590,-2.049129,-1.115778,-2.409783,0.073722,0.172934,-0.441716,0.232541,0.044074,0.057865
3503.918000,3.648000,START g_bow,Transition,0,G-D,0.550958,0.276662,0.663239,0.102855,-1.816727,-1.939832,0.496249,-2.263758,-0.526114,1.363027,-2.047187,-1.115435,-2.409294,0.077597,0.179516,-0.459029,0.239110,0.044652,0.060247
3503.926000,3.656000,START g_bow,Transition,0,G-D,0.542958,0.276847,0.664217,0.102918,-1.816485,-1.939840,0.496228,-2.263076,-0.524612,1.359324,-2.045252,-1.115061,-2.408765,0.078101,0.186092,-0.479128,0.250246,0.045669,0.062049
3503.934000,3.664000,START g_bow,Transition,0,G-D,0.534958,0.277114,0.665211,0.103009,-1.816235,-1.939814,0.496201,-2.262468,-0.523066,1.355412,-2.043121,-1.114681,-2.408304,0.079731,0.193650,-0.494180,0.262146,0.044549,0.062649
3503.942000,3.672000,START g_bow,Transition,0,G-D,0.526958,0.277386,0.666246,0.103094,-1.816004,-1.939822,0.496082,-2.261833,-0.521433,1.351334,-2.040999,-1.114313,-2.407800,0.076249,0.195367,-0.490128,0.257736,0.043789,0.060783
3503.950000,3.680000,START g_bow,Transition,0,G-D,0.518958,0.277641,0.667239,0.103224,-1.815766,-1.939872,0.495773,-2.261218,-0.519934,1.347435,-2.039058,-1.113951,-2.407308,0.073315,0.188950,-0.472543,0.248116,0.044585,0.058144
3503.958000,3.688000,START g_bow,Transition,0,G-D,0.510958,0.277883,0.668196,0.103311,-1.815516,-1.939921,0.495649,-2.260622,-0.518429,1.343652,-2.037087,-1.113619,-2.406871,0.075240,0.182728,-0.461776,0.237567,0.044550,0.056168
3503.966000,3.696000,START g_bow,Transition,0,G-D,0.502958,0.278083,0.669113,0.103377,-1.815257,-1.939915,0.495616,-2.260016,-0.516979,1.340080,-2.035204,-1.113250,-2.406423,0.070986,0.176380,-0.448243,0.232055,0.043107,0.054125
3503.974000,3.704000,START g_bow,Transition,0,G-D,0.494958,0.278307,0.669983,0.103457,-1.815037,-1.939896,0.495515,-2.259481,-0.515603,1.336632,-2.033398,-1.112905,-2.406007,0.068834,0.172041,-0.431082,0.227267,0.038130,0.051681
3503.982000,3.712000,START g_bow,Transition,0,G-D,0.486958,0.278493,0.670845,0.103499,-1.814851,-1.939914,0.495484,-2.258917,-0.514206,1.333261,-2.031661,-1.112613,-2.405559,0.064780,0.169024,-0.415632,0.217015,0.038421,0.050788
3503.990000,3.720000,START g_bow,Transition,0,G-D,0.478958,0.278711,0.671660,0.103579,-1.814643,-1.939867,0.495373,-2.258425,-0.512907,1.330003,-2.029962,-1.112267,-2.405167,0.064055,0.158569,-0.401982,0.211675,0.036855,0.050087
3503.998000,3.728000,START g_bow,Transition,0,G-D,0.470958,0.278914,0.672434,0.103644,-1.814511,-1.939842,0.495355,-2.257961,-0.511673,1.326923,-2.028309,-1.112007,-2.404771,0.059798,0.152548,-0.385902,0.203117,0.034968,0.047765
3504.006000,3.736000,START g_bow,Transition,0,G-D,0.462958,0.279121,0.673205,0.103773,-1.814330,-1.939899,0.495118,-2.257501,-0.510523,1.323838,-2.026724,-1.111750,-2.404411,0.056799,0.145104,-0.370656,0.193738,0.035329,0.045101
3504.014000,3.744000,START g_bow,Transition,0,G-D,0.454958,0.279348,0.673930,0.103895,-1.814178,-1.939905,0.494793,-2.257105,-0.509408,1.320880,-2.025274,-1.111479,-2.404063,0.053435,0.138261,-0.359137,0.185107,0.033309,0.042618
3504.022000,3.752000,START g_bow,Transition,0,G-D,0.446958,0.279533,0.674637,0.104017,-1.814001,-1.939892,0.494576,-2.256678,-0.508354,1.318060,-2.023829,-1.111184,-2.403712,0.050760,0.136429,-0.343416,0.176968,0.030121,0.040393
3504.062000,3.792000,START g_bow,Transition,0,G-D,0.406958,0.280215,0.677637,0.104310,-1.813178,-1.940084,0.494225,-2.254769,-0.503575,1.306084,-2.017581,-1.110150,-2.402342,0.041375,0.105532,-0.260663,0.136379,0.022423,0.029764
3504.166000,3.896000,START g_bow,Transition,0,G-D,0.302958,0.281153,0.681568,0.104614,-1.812171,-1.940284,0.493844,-2.252341,-0.497070,1.290140,-2.009312,-1.108836,-2.400565,0.004381,0.018795,-0.045564,0.022226,0.001406,0.002069
3504.174000,3.904000,START g_bow,Transition,0,G-D,0.294958,0.281195,0.681626,0.104609,-1.812179,-1.940277,0.493808,-2.252336,-0.496934,1.289845,-2.009184,-1.108827,-2.400546,0.001481,0.012121,-0.029030,0.013794,0.000959,0.000873
3504.182000,3.912000,START g_bow,Transition,0,G-D,0.286958,0.281231,0.681648,0.104632,-1.812185,-1.940255,0.493775,-2.252355,-0.496909,1.289711,-2.009093,-1.108815,-2.400550,0.000001,0.002915,-0.012296,0.004678,0.000626,0.000491
3504.190000,3.920000,END g_bow,Transition,0,G-D,0.278958,0.281243,0.681627,0.104634,-1.812207,-1.940281,0.493695,-2.252388,-0.496933,1.289762,-2.009171,-1.108846,-2.400565,-0.003556,-0.006784,0.012230,-0.009223,0.000464,0.000273
3504.198000,3.928000,END g_bow,Transition,0,G-D,0.270958,0.281249,0.681636,0.104651,-1.812194,-1.940271,0.493681,-2.252384,-0.496941,1.289726,-2.009136,-1.108827,-2.400565,-0.000000,-0.001296,-0.000881,-0.001079,0.000273,0.000210
3504.206000,3.936000,END g_bow,Transition,0,G-D,0.262958,0.281285,0.681624,0.104666,-1.812230,-1.940239,0.493578,-2.252436,-0.496953,1.289716,-2.009178,-1.108824,-2.400565,-0.002096,-0.001530,0.000006,-0.002277,0.000346,0.000170
3504.214000,3.944000,START g_bow,Transition,1,G-D,0.254958,0.281254,0.681637,0.104670,-1.812204,-1.940263,0.493596,-2.252389,-0.496962,1.289723,-2.009178,-1.108815,-2.400546,-0.000847,-0.001690,0.002068,-0.000583,0.001832,0.000041
3504.222000,3.952000,START g_bow,Transition,1,G-D,0.246958,0.281274,0.681605,0.104703,-1.812253,-1.940210,0.493501,-2.252440,-0.497053,1.289831,-2.009257,-1.108803,-2.400531,-0.007811,-0.016479,0.030226,-0.018708,0.000876,0.000035
3504.230000,3.960000,START g_bow,Transition,1,G-D,0.238958,0.281265,0.681522,0.104701,-1.812288,-1.940136,0.493593,-2.252503,-0.497200,1.290169,-2.009356,-1.108800,-2.400558,-0.006809,-0.025253,0.040547,-0.019011,0.000300,0.000000
3504.238000,3.968000,START g_bow,Transition,1,G-D,0.230958,0.281247,0.681433,0.104730,-1.812328,-1.940127,0.493540,-2.252563,-0.497404,1.290545,-2.009551,-1.108827,-2.400580,-0.010836,-0.026747,0.053644,-0.026093,-0.002654,-0.005051
3504.246000,3.976000,START g_bow,Transition,1,G-D,0.222958,0.281224,0.681320,0.104744,-1.812347,-1.940051,0.493596,-2.252634,-0.497632,1.291021,-2.009728,-1.108811,-2.400622,-0.013635,-0.030214,0.069023,-0.031296,-0.004211,-0.008848
3504.254000,3.984000,START g_bow,Transition,1,G-D,0.214958,0.281195,0.681159,0.104728,-1.812441,-1.940031,0.493634,-2.252746,-0.497895,1.291668,-2.010052,-1.108893,-2.400670,-0.014632,-0.038116,0.085320,-0.041535,-0.007947,-0.011178
3504.262000,3.992000,START g_bow,Transition,1,G-D,0.206958,0.281146,0.680973,0.104720,-1.812489,-1.939990,0.493714,-2.252855,-0.498226,1.292445,-2.010399,-1.108938,-2.400745,-0.016594,-0.041990,0.100374,-0.049143,-0.010500,-0.011209
3504.270000,4.000000,START g_bow,Transition,1,G-D,0.198958,0.281129,0.680739,0.104687,-1.812603,-1.939895,0.493826,-2.253042,-0.498573,1.293341,-2.010802,-1.109010,-2.400841,-0.020138,-0.047885,0.117381,-0.058450,-0.011546,-0.012563
3504.278000,4.008000,START g_bow,Transition,1,G-D,0.190958,0.281068,0.680487,0.104655,-1.812696,-1.939853,0.493913,-2.253198,-0.498981,1.294375,-2.011312,-1.109097,-2.400934,-0.023516,-0.053441,0.134081,-0.070259,-0.012570,-0.015222
3504.286000,4.016000,START g_bow,Transition,1,G-D,0.182958,0.281015,0.680194,0.104635,-1.812794,-1.939792,0.493963,-2.253398,-0.499464,1.295546,-2.011893,-1.109181,-2.401057,-0.023886,-0.060473,0.153150,-0.078284,-0.014124,-0.016979
3504.294000,4.024000,START g_bow,Transition,1,G-D,0.174958,0.280940,0.679882,0.104601,-1.812872,-1.939743,0.493980,-2.253590,-0.499964,1.296817,-2.012581,-1.109255,-2.401184,-0.026726,-0.066915,0.165777,-0.088777,-0.015904,-0.020283
3504.302000,4.032000,START g_bow,Transition,1,G-D,0.166958,0.280847,0.679550,0.104607,-1.812964,-1.939783,0.493901,-2.253781,-0.500570,1.298196,-2.013349,-1.109393,-2.401317,-0.028322,-0.077525,0.182707,-0.097112,-0.017499,-0.022895
3504.310000,4.040000,START g_bow,Transition,1,G-D,0.158958,0.280772,0.679167,0.104603,-1.813020,-1.939809,0.493799,-2.254033,-0.501217,1.299710,-2.014192,-1.109516,-2.401532,-0.029284,-0.083082,0.199664,-0.107827,-0.019350,-0.024833
3504.318000,4.048000,START g_bow,Transition,1,G-D,0.150958,0.280650,0.678768,0.104580,-1.813096,-1.939876,0.493748,-2.254252,-0.501900,1.301360,-2.015116,-1.109680,-2.401720,-0.030774,-0.086967,0.217548,-0.116236,-0.021127,-0.027171
3504.326000,4.056000,START g_bow,Transition,1,G-D,0.142958,0.280514,0.678326,0.104562,-1.813161,-1.939950,0.493700,-2.254492,-0.502665,1.303186,-2.016119,-1.109852,-2.401940,-0.032588,-0.094426,0.234120,-0.125286,-0.022628,-0.029128
3504.334000,4.064000,START g_bow,Transition,1,G-D,0.134958,0.280390,0.677856,0.104519,-1.813270,-1.939973,0.493755,-2.254771,-0.503436,1.305094,-2.017111,-1.110038,-2.402168,-0.035612,-0.100657,0.252830,-0.130445,-0.026035,-0.031868
3504.342000,4.072000,START g_bow,Transition,1,G-D,0.126958,0.280263,0.677341,0.104442,-1.813443,-1.939942,0.493903,-2.255090,-0.504235,1.307175,-2.018174,-1.110245,-2.402385,-0.035619,-0.100805,0.258670,-0.136136,-0.025606,-0.032425
3504.350000,4.080000,START g_bow,Transition,1,G-D,0.118958,0.280122,0.676867,0.104375,-1.813486,-1.939924,0.494008,-2.255349,-0.504975,1.309107,-2.019178,-1.110363,-2.402632,-0.031071,-0.091302,0.233865,-0.124635,-0.023373,-0.030732
3504.358000,4.088000,START g_bow,Transition,1,G-D,0.110958,0.280012,0.676415,0.104318,-1.813588,-1.939999,0.493985,-2.255630,-0.505670,1.310898,-2.020187,-1.110574,-2.402872,-0.033648,-0.082205,0.220329,-0.117051,-0.021656,-0.028839
3504.366000,4.096000,START g_bow,Transition,1,G-D,0.102958,0.279906,0.675998,0.104276,-1.813677,-1.939992,0.494029,-2.255882,-0.506337,1.312578,-2.021071,-1.110714,-2.403073,-0.030314,-0.082351,0.202562,-0.106107,-0.020424,-0.027196
3504.430000,4.160000,START g_bow,Transition,1,D-G,0.538958,0.279360,0.673790,0.103904,-1.814201,-1.939948,0.494677,-2.257241,-0.509622,1.321345,-2.025559,-1.111554,-2.404185,-0.013068,-0.026406,0.072398,-0.038454,-0.004765,-0.007872
3504.510000,4.240000,START g_bow,Transition,0,D-G,0.458958,0.279210,0.673702,0.103829,-1.814062,-1.940176,0.494765,-2.257153,-0.509728,1.321844,-2.025891,-1.111641,-2.404288,0.008581,0.022561,-0.047502,0.022209,0.001861,0.003548
3504.518000,4.248000,START g_bow,Transition,0,D-G,0.450958,0.279216,0.673813,0.103828,-1.814040,-1.940206,0.494820,-2.257062,-0.509556,1.321437,-2.025650,-1.111629,-2.404229,0.012724,0.026787,-0.059534,0.028158,0.002982,0.004615
3504.526000,4.256000,START g_bow,Transition,0,D-G,0.442958,0.279262,0.673947,0.103817,-1.814012,-1.940228,0.494712,-2.256993,-0.509281,1.320858,-2.025454,-1.111590,-2.404169,0.013256,0.032521,-0.076415,0.036106,0.006402,0.009426
3504.534000,4.264000,START g_bow,Transition,0,D-G,0.434958,0.279289,0.674111,0.103843,-1.813903,-1.940291,0.494650,-2.256874,-0.509037,1.320211,-2.025128,-1.111527,-2.404137,0.014968,0.037489,-0.092817,0.046310,0.011616,0.011428
3504.542000,4.272000,START g_bow,Transition,0,D-G,0.426958,0.279334,0.674321,0.103896,-1.813835,-1.940369,0.494443,-2.256738,-0.508746,1.319383,-2.024797,-1.111470,-2.404041,0.018084,0.041591,-0.106473,0.054431,0.011950,0.012251
3504.550000,4.280000,START g_bow,Transition,0,D-G,0.418958,0.279354,0.674575,0.103925,-1.813742,-1.940474,0.494379,-2.256535,-0.508376,1.318429,-2.024333,-1.111420,-2.403926,0.020946,0.047913,-0.123703,0.064390,0.012120,0.014410
3504.558000,4.288000,START g_bow,Transition,0,D-G,0.410958,0.279422,0.674856,0.104018,-1.813647,-1.940524,0.494176,-2.256359,-0.508023,1.317322,-2.023791,-1.111311,-2.403799,0.023642,0.055799,-0.139358,0.075079,0.012916,0.016493
3504.566000,4.296000,START g_bow,Transition,0,D-G,0.402958,0.279476,0.675153,0.104050,-1.813493,-1.940592,0.494122,-2.256151,-0.507556,1.316141,-2.023179,-1.111198,-2.403710,0.025703,0.060939,-0.156812,0.082679,0.013868,0.019098
3504.574000,4.304000,START g_bow,Transition,0,D-G,0.394958,0.279550,0.675483,0.104074,-1.813416,-1.940602,0.494142,-2.255940,-0.507025,1.314832,-2.022463,-1.111092,-2.403554,0.026354,0.068414,-0.171464,0.094948,0.015600,0.021359
3504.582000,4.312000,START g_bow,Transition,0,D-G,0.386958,0.279673,0.675839,0.104091,-1.813356,-1.940580,0.494109,-2.255760,-0.506403,1.313339,-2.021685,-1.110972,-2.403398,0.029644,0.075523,-0.188274,0.104457,0.016820,0.024827
3504.590000,4.320000,START g_bow,Transition,0,D-G,0.378958,0.279793,0.676225,0.104127,-1.813323,-1.940540,0.494114,-2.255552,-0.505775,1.311761,-2.020818,-1.110851,-2.403194,0.030713,0.086659,-0.204728,0.112844,0.019562,0.027047
3504.598000,4.328000,START g_bow,Transition,0,D-G,0.370958,0.279893,0.676660,0.104158,-1.813220,-1.940486,0.494185,-2.255277,-0.505073,1.310034,-2.019840,-1.110664,-2.402975,0.032078,0.088885,-0.223117,0.120641,0.021076,0.029201
3504.606000,4.336000,START g_bow,Transition,0,D-G,0.362958,0.280041,0.677114,0.104218,-1.813135,-1.940484,0.494143,-2.255037,-0.504345,1.308148,-2.018804,-1.110524,-2.402781,0.034183,0.096071,-0.239935,0.130622,0.022850,0.031183
3504.614000,4.344000,START g_bow,Transition,0,D-G,0.354958,0.280176,0.677613,0.104253,-1.813046,-1.940441,0.494101,-2.254746,-0.503515,1.306126,-2.017756,-1.110332,-2.402522,0.037118,0.102505,-0.257442,0.140601,0.024656,0.032362
3504.622000,4.352000,START g_bow,Transition,0,D-G,0.346958,0.280331,0.678091,0.104310,-1.812957,-1.940374,0.494061,-2.254493,-0.502736,1.304146,-2.016680,-1.110133,-2.402294,0.029258,0.094056,-0.235618,0.131679,0.021549,0.029140
3504.630000,4.360000,START g_bow,Transition,0,D-G,0.338958,0.280428,0.678545,0.104360,-1.812895,-1.940337,0.494170,-2.254202,-0.502045,1.302366,-2.015626,-1.109985,-2.402042,0.032983,0.088203,-0.226098,0.124152,0.024206,0.030179
3504.638000,4.368000,START g_bow,Transition,0,D-G,0.330958,0.280515,0.678977,0.104384,-1.812753,-1.940356,0.494149,-2.253916,-0.501326,1.300639,-2.014733,-1.109817,-2.401851,0.031234,0.084825,-0.213291,0.110973,0.021672,0.026119
3504.646000,4.376000,START g_bow,Transition,0,D-G,0.322958,0.280641,0.679363,0.104405,-1.812705,-1.940258,0.494178,-2.253714,-0.500658,1.299035,-2.013856,-1.109646,-2.401646,0.028585,0.079122,-0.194452,0.103637,0.020144,0.024940
3504.654000,4.384000,START g_bow,Transition,0,D-G,0.314958,0.280719,0.679736,0.104426,-1.812622,-1.940209,0.494271,-2.253471,-0.500051,1.297561,-2.013008,-1.109491,-2.401451,0.028327,0.074516,-0.178903,0.095191,0.018089,0.023046
3504.662000,4.392000,START g_bow,Transition,0,D-G,0.306958,0.280769,0.680082,0.104443,-1.812485,-1.940262,0.494210,-2.253220,-0.499476,1.296197,-2.012350,-1.109359,-2.401299,0.026617,0.068449,-0.164895,0.083958,0.016732,0.021765
3504.670000,4.400000,START g_bow,Transition,0,D-G,0.298958,0.280862,0.680370,0.104425,-1.812496,-1.940131,0.494369,-2.253072,-0.498936,1.295005,-2.011645,-1.109234,-2.401115,0.023418,0.061421,-0.146578,0.076099,0.015151,0.019780
3504.678000,4.408000,START g_bow,Transition,0,D-G,0.290958,0.280926,0.680643,0.104448,-1.812400,-1.940136,0.494315,-2.252900,-0.498481,1.293897,-2.011090,-1.109116,-2.400999,0.019848,0.055887,-0.131329,0.066696,0.012281,0.016939
3504.686000,4.416000,START g_bow,Transition,0,D-G,0.282958,0.280996,0.680878,0.104470,-1.812389,-1.940095,0.494280,-2.252772,-0.498093,1.292933,-2.010599,-1.109027,-2.400855,0.016487,0.047596,-0.114480,0.056889,0.012333,0.015238
3504.694000,4.424000,START g_bow,Transition,0,D-G,0.274958,0.281035,0.681094,0.104485,-1.812352,-1.940103,0.494256,-2.252628,-0.497742,1.292081,-2.010173,-1.108959,-2.400731,0.014592,0.038328,-0.099132,0.046902,0.008038,0.013143
3504.702000,4.432000,START g_bow,Transition,0,D-G,0.266958,0.281089,0.681280,0.104543,-1.812298,-1.940182,0.494074,-2.252524,-0.497485,1.291310,-2.009834,-1.108926,-2.400663,0.012361,0.031033,-0.081483,0.039550,0.005700,0.010538
3504.710000,4.440000,START g_bow,Transition,0,D-G,0.258958,0.281117,0.681421,0.104568,-1.812211,-1.940192,0.494024,-2.252428,-0.497269,1.290742,-2.009544,-1.108844,-2.400622,0.010565,0.024445,-0.066202,0.030958,0.004386,0.005633
3504.854000,4.584000,START g_to_d,Transition,0,D-G,0.114958,0.285593,0.681852,0.106850,-1.812475,-1.939810,0.493407,-2.256743,-0.496977,1.281273,-1.998888,-1.110081,-2.404752,-0.089869,0.000427,-0.185848,0.225516,-0.036523,-0.099786
3504.862000,4.592000,START g_to_d,Transition,0,D-G,0.106958,0.286388,0.681896,0.107284,-1.812403,-1.939839,0.493257,-2.257525,-0.496993,1.279656,-1.996989,-1.110310,-2.405615,-0.100833,0.000336,-0.204139,0.249883,-0.038367,-0.113229
3504.870000,4.600000,START g_to_d,Note,0,G,0.148958,0.287219,0.681934,0.107697,-1.812416,-1.939848,0.493424,-2.258355,-0.496989,1.277996,-1.994820,-1.110640,-2.406512,-0.106803,0.000264,-0.222058,0.269960,-0.040459,-0.119168
3504.878000,4.608000,START g_to_d,Note,0,G,0.390958,0.288129,0.681985,0.108150,-1.812353,-1.939891,0.493396,-2.259250,-0.496938,1.276115,-1.992580,-1.110945,-2.407511,-0.116816,0.004216,-0.236785,0.292952,-0.042826,-0.126937
3504.886000,4.616000,START g_to_d,Note,0,G,0.382958,0.289109,0.682028,0.108622,-1.812321,-1.939875,0.493556,-2.260225,-0.496890,1.274138,-1.990066,-1.111280,-2.408579,-0.122709,0.007244,-0.255882,0.316069,-0.045157,-0.138426
3504.894000,4.624000,START g_to_d,Note,0,G,0.374958,0.290151,0.682075,0.109135,-1.812248,-1.939948,0.493577,-2.261256,-0.496834,1.271999,-1.987471,-1.111660,-2.409746,-0.134208,0.008507,-0.273056,0.334339,-0.049285,-0.146287
3504.902000,4.632000,START g_to_d,Note,0,G,0.366958,0.291276,0.682111,0.109663,-1.812199,-1.939997,0.493637,-2.262382,-0.496751,1.269733,-1.984707,-1.112074,-2.410994,-0.142023,0.009843,-0.294598,0.352972,-0.053937,-0.153663
3504.910000,4.640000,START g_to_d,Note,0,G,0.358958,0.292477,0.682158,0.110236,-1.812237,-1.939980,0.493754,-2.263579,-0.496674,1.267307,-1.981722,-1.112521,-2.412238,-0.149600,0.012652,-0.314159,0.374244,-0.056505,-0.161306
3504.918000,4.648000,START g_to_d,Note,0,G,0.350958,0.293721,0.682210,0.110831,-1.812183,-1.940052,0.493875,-2.264810,-0.496571,1.264734,-1.978576,-1.112999,-2.413617,-0.157371,0.014541,-0.332873,0.398502,-0.058208,-0.171086
3504.926000,4.656000,START g_to_d,Note,0,G,0.342958,0.295060,0.682262,0.111457,-1.812187,-1.940113,0.493902,-2.266139,-0.496431,1.261970,-1.975319,-1.113521,-2.415036,-0.164007,0.017378,-0.350413,0.417812,-0.061888,-0.174913
3504.934000,4.664000,START g_to_d,Note,0,G,0.334958,0.296264,0.682351,0.112051,-1.812057,-1.940219,0.493912,-2.267287,-0.496263,1.259297,-1.972244,-1.113937,-2.416376,-0.129678,0.025028,-0.319704,0.393578,-0.054996,-0.163918
3504.942000,4.672000,START g_to_d,Note,0,G,0.326958,0.297492,0.682405,0.112681,-1.812074,-1.940285,0.493924,-2.268496,-0.496202,1.256738,-1.969184,-1.114428,-2.417660,-0.156371,0.010494,-0.314718,0.370568,-0.054332,-0.155307
3504.950000,4.680000,START g_to_d,Note,0,G,0.318958,0.298716,0.682441,0.113248,-1.812116,-1.940225,0.493774,-2.269715,-0.496051,1.254244,-1.966405,-1.114808,-2.418865,-0.140579,0.015039,-0.295413,0.350138,-0.047982,-0.143258
3504.958000,4.688000,START g_to_d,Note,0,G,0.310958,0.299803,0.682487,0.113774,-1.812141,-1.940200,0.493923,-2.270782,-0.495947,1.251968,-1.963634,-1.115205,-2.419981,-0.132152,0.014951,-0.278263,0.333068,-0.047078,-0.137657
3504.966000,4.696000,START g_to_d,Note,0,G,0.302958,0.300868,0.682516,0.114268,-1.812222,-1.940171,0.493867,-2.271844,-0.495820,1.249790,-1.961158,-1.115593,-2.421018,-0.124273,0.014344,-0.264371,0.308914,-0.044408,-0.127394
3504.974000,4.704000,START g_to_d,Note,0,G,0.294958,0.301808,0.682569,0.114730,-1.812226,-1.940152,0.493978,-2.272753,-0.495704,1.247755,-1.958738,-1.115921,-2.421978,-0.113490,0.013843,-0.246442,0.288451,-0.041501,-0.118921
3504.982000,4.712000,START g_to_d,Note,0,G,0.286958,0.302691,0.682600,0.115160,-1.812215,-1.940123,0.494016,-2.273619,-0.495608,1.245901,-1.956550,-1.116206,-2.422890,-0.103268,0.012376,-0.229220,0.266801,-0.039400,-0.110042
3504.990000,4.720000,START g_to_d,Note,0,G,0.278958,0.303494,0.682638,0.115551,-1.812198,-1.940149,0.494065,-2.274398,-0.495500,1.244163,-1.954522,-1.116502,-2.423734,-0.094036,0.013189,-0.212097,0.247316,-0.035379,-0.102269
3504.998000,4.728000,START g_to_d,Note,0,G,0.270958,0.304235,0.682673,0.115923,-1.812166,-1.940197,0.494069,-2.275113,-0.495408,1.242546,-1.952659,-1.116777,-2.424526,-0.086787,0.011449,-0.194983,0.224961,-0.032231,-0.094281
3505.006000,4.736000,START g_to_d,Note,0,G,0.262958,0.304916,0.682700,0.116238,-1.812165,-1.940186,0.494120,-2.275777,-0.495296,1.241087,-1.950968,-1.117013,-2.425226,-0.080576,0.009889,-0.181399,0.204588,-0.028600,-0.083740
3505.014000,4.744000,START g_to_d,Note,0,G,0.254958,0.305563,0.682716,0.116544,-1.812235,-1.940105,0.494173,-2.276419,-0.495224,1.239762,-1.949397,-1.117225,-2.425827,-0.071246,0.009122,-0.160846,0.182777,-0.025415,-0.075637
3505.022000,4.752000,START g_to_d,Note,0,G,0.246958,0.306114,0.682742,0.116822,-1.812224,-1.940125,0.494194,-2.276952,-0.495156,1.238556,-1.947998,-1.117429,-2.426403,-0.065590,0.007965,-0.143938,0.161487,-0.021999,-0.065698
3505.030000,4.760000,START g_to_d,Note,0,G,0.238958,0.306598,0.682758,0.117069,-1.812211,-1.940128,0.494170,-2.277424,-0.495108,1.237526,-1.946816,-1.117588,-2.426904,-0.056548,0.005257,-0.127707,0.138673,-0.019499,-0.059389
3505.038000,4.768000,START g_to_d,Note,0,G,0.230958,0.307024,0.682786,0.117314,-1.812192,-1.940159,0.493984,-2.277827,-0.495072,1.236567,-1.945846,-1.117713,-2.427323,-0.048448,0.002945,-0.107857,0.118032,-0.017060,-0.051477
3505.046000,4.776000,START g_to_d,Note,0,G,0.222958,0.307379,0.682792,0.117506,-1.812247,-1.940176,0.493916,-2.278183,-0.495069,1.235847,-1.945034,-1.117872,-2.427652,-0.042752,0.001394,-0.089944,0.097958,-0.013983,-0.040362
3505.054000,4.784000,START g_to_d,Note,0,G,0.214958,0.307703,0.682797,0.117699,-1.812269,-1.940159,0.493749,-2.278506,-0.495080,1.235191,-1.944352,-1.117956,-2.427944,-0.033928,0.000687,-0.072593,0.076738,-0.009984,-0.031591
3505.150000,4.880000,START g_to_d,Note,0,G,1.118958,0.307862,0.685694,0.117962,-1.806214,-1.949935,0.522472,-2.275873,-0.491948,1.221097,-1.911414,-1.126723,-2.437149,0.082271,0.086560,-0.375441,0.942374,-0.259713,-0.264603
3505.158000,4.888000,START g_to_d,Note,0,G,1.110958,0.307835,0.686359,0.117970,-1.804668,-1.952327,0.529925,-2.275203,-0.491212,1.217871,-1.903264,-1.128965,-2.439425,0.090576,0.100242,-0.423255,1.062744,-0.296710,-0.295529
3505.166000,4.896000,START g_to_d,Note,0,G,1.102958,0.307791,0.687090,0.117914,-1.802886,-1.955005,0.538508,-2.274448,-0.490315,1.214285,-1.894069,-1.131525,-2.442010,0.099475,0.113374,-0.471677,1.188098,-0.333454,-0.327010
3505.174000,4.904000,START g_to_d,Note,0,G,1.094958,0.307730,0.687915,0.117898,-1.800937,-1.957885,0.547935,-2.273590,-0.489360,1.210292,-1.883921,-1.134321,-2.444761,0.111326,0.129342,-0.521743,1.306157,-0.367012,-0.357480
3505.182000,4.912000,START g_to_d,Note,0,G,1.086958,0.307669,0.688808,0.117886,-1.798772,-1.961152,0.558081,-2.272671,-0.488298,1.205890,-1.872951,-1.137475,-2.447788,0.119581,0.139803,-0.575296,1.424026,-0.404845,-0.387853
3505.190000,4.920000,START g_to_d,Note,0,G,1.078958,0.307576,0.689801,0.117899,-1.796307,-1.964684,0.569099,-2.271621,-0.487129,1.201032,-1.861004,-1.140860,-2.451052,0.128979,0.155247,-0.628986,1.542375,-0.439567,-0.415452
3505.198000,4.928000,START g_to_d,Note,0,G,1.070958,0.307485,0.690886,0.117882,-1.793715,-1.968341,0.581291,-2.270495,-0.485791,1.195703,-1.847926,-1.144555,-2.454464,0.139263,0.173134,-0.683291,1.663381,-0.479352,-0.443796
3505.206000,4.936000,START g_to_d,Note,0,G,1.062958,0.307432,0.692027,0.117881,-1.790896,-1.972347,0.593980,-2.269356,-0.484309,1.189905,-1.834170,-1.148584,-2.458134,0.148959,0.194090,-0.729827,1.731965,-0.496102,-0.455472
3505.214000,4.944000,START g_to_d,Note,0,G,1.054958,0.307314,0.693248,0.117889,-1.787962,-1.976258,0.606610,-2.268082,-0.482712,1.183895,-1.820428,-1.152478,-2.461654,0.156428,0.214320,-0.767599,1.730883,-0.490280,-0.436991
3505.222000,4.952000,START g_to_d,Note,0,G,1.046958,0.307203,0.694537,0.117889,-1.785014,-1.980156,0.619281,-2.266765,-0.480939,1.177549,-1.806557,-1.156416,-2.465077,0.164936,0.233085,-0.815311,1.747656,-0.491623,-0.426837
3505.230000,4.960000,START g_to_d,Note,0,G,1.038958,0.307119,0.695882,0.117873,-1.782060,-1.984000,0.632106,-2.265435,-0.478988,1.170864,-1.792462,-1.160406,-2.468427,0.171028,0.254402,-0.860191,1.774847,-0.491091,-0.415131
3505.238000,4.968000,START g_to_d,Note,0,G,1.030958,0.307010,0.697310,0.117825,-1.778995,-1.987619,0.645335,-2.264009,-0.476840,1.163859,-1.777987,-1.164280,-2.471679,0.182617,0.281923,-0.900916,1.797977,-0.492218,-0.401171
3505.246000,4.976000,START g_to_d,Note,0,G,1.022958,0.306885,0.698849,0.117800,-1.775834,-1.991506,0.658141,-2.262480,-0.474457,1.156331,-1.763616,-1.168247,-2.474871,0.189712,0.307610,-0.944407,1.811049,-0.489461,-0.389409
3505.254000,4.984000,START g_to_d,Note,0,G,1.014958,0.306788,0.700431,0.117788,-1.772675,-1.995241,0.671043,-2.260950,-0.471954,1.148531,-1.749056,-1.172181,-2.477964,0.197005,0.323691,-0.994563,1.830573,-0.492740,-0.376478
3505.262000,4.992000,START g_to_d,Note,0,G,1.006958,0.306626,0.702107,0.117742,-1.769373,-1.998848,0.684113,-2.259277,-0.469238,1.140412,-1.734318,-1.175980,-2.480948,0.203443,0.347257,-1.044414,1.848626,-0.491308,-0.368210
3505.270000,5.000000,START g_to_d,Note,0,G,0.998958,0.306514,0.703845,0.117683,-1.766202,-2.002448,0.697348,-2.257623,-0.466318,1.131871,-1.719316,-1.179954,-2.483799,0.212018,0.372644,-1.087464,1.874691,-0.485931,-0.353303
3505.278000,5.008000,START g_to_d,Note,0,G,0.990958,0.306375,0.705702,0.117616,-1.762903,-2.006103,0.710223,-2.255846,-0.463100,1.122795,-1.704395,-1.183826,-2.486553,0.220617,0.398800,-1.140086,1.880555,-0.483250,-0.341726
3505.286000,5.016000,START g_to_d,Note,0,G,0.982958,0.306202,0.707604,0.117588,-1.759510,-2.009661,0.723365,-2.254001,-0.459841,1.113525,-1.689161,-1.187670,-2.489251,0.231280,0.417466,-1.190732,1.901419,-0.480494,-0.331436
3505.294000,5.024000,START g_to_d,Note,0,G,0.974958,0.306032,0.709578,0.117560,-1.756142,-2.013290,0.736289,-2.252117,-0.456377,1.103854,-1.673957,-1.191569,-2.491833,0.238525,0.438180,-1.230804,1.919744,-0.477352,-0.320411
3505.302000,5.032000,START g_to_d,Note,0,G,0.966958,0.305932,0.711562,0.117552,-1.752662,-2.016742,0.749167,-2.250294,-0.452775,1.093881,-1.658591,-1.195350,-2.494452,0.227944,0.449135,-1.233477,1.917225,-0.482403,-0.319547
3505.310000,5.040000,START g_to_d,Note,0,G,0.958958,0.305796,0.713519,0.117516,-1.749299,-2.020093,0.762269,-2.248476,-0.449189,1.084032,-1.643235,-1.199226,-2.496919,0.240083,0.456072,-1.249225,1.919352,-0.480322,-0.317817
3505.318000,5.048000,START g_to_d,Note,0,G,0.950958,0.305639,0.715496,0.117545,-1.745736,-2.023571,0.775216,-2.246620,-0.445580,1.073989,-1.627833,-1.203113,-2.499461,0.231595,0.466489,-1.270064,1.918290,-0.483401,-0.316078
3505.326000,5.056000,START g_to_d,Note,0,G,0.942958,0.305509,0.717494,0.117524,-1.742129,-2.026956,0.788112,-2.244781,-0.441747,1.063664,-1.612418,-1.206959,-2.501969,0.233799,0.478106,-1.282361,1.932781,-0.487288,-0.312151
3505.334000,5.064000,START g_to_d,Note,0,G,0.934958,0.305344,0.719505,0.117520,-1.738496,-2.030360,0.801044,-2.242908,-0.437882,1.053245,-1.596966,-1.210859,-2.504412,0.231040,0.487596,-1.302878,1.934149,-0.486947,-0.307093
3505.342000,5.072000,START g_to_d,Note,0,G,0.926958,0.305134,0.721488,0.117460,-1.734748,-2.033820,0.814295,-2.241020,-0.433958,1.042859,-1.581407,-1.214899,-2.506892,0.231018,0.493435,-1.317248,1.942711,-0.487032,-0.304255
3505.350000,5.080000,START g_to_d,Note,0,G,0.918958,0.304980,0.723498,0.117410,-1.730923,-2.037060,0.827443,-2.239166,-0.429853,1.032126,-1.565732,-1.218776,-2.509352,0.229036,0.503165,-1.331276,1.946949,-0.489594,-0.300674
3505.430000,5.160000,START g_to_d,Note,0,G,1.338958,0.303596,0.739664,0.117212,-1.692486,-2.066398,0.953463,-2.224277,-0.393538,0.936629,-1.420444,-1.258629,-2.533185,0.142374,0.387689,-0.998930,1.521851,-0.437614,-0.247980
3505.494000,5.224000,START g_to_d,Note,0,G,1.274958,0.302936,0.747132,0.117243,-1.671153,-2.080035,1.017407,-2.217500,-0.374201,0.887014,-1.347087,-1.279815,-2.544783,0.071706,0.219243,-0.545946,0.794535,-0.228806,-0.118803
3505.502000,5.232000,START g_to_d,Note,0,G,1.266958,0.302933,0.747714,0.117258,-1.669493,-2.081088,1.022323,-2.217027,-0.372581,0.882898,-1.341307,-1.281534,-2.545660,0.062580,0.195085,-0.484333,0.699390,-0.201907,-0.108419
3505.510000,5.240000,START g_to_d,Note,0,G,1.258958,0.302852,0.748254,0.117256,-1.667936,-2.082048,1.026684,-2.216509,-0.371135,0.879286,-1.336237,-1.282993,-2.546422,0.054712,0.169907,-0.421938,0.606507,-0.174896,-0.090153
3505.518000,5.248000,START g_to_d,Note,0,G,1.250958,0.302846,0.748691,0.117260,-1.666656,-2.082789,1.030426,-2.216149,-0.369893,0.876167,-1.331852,-1.284257,-2.547083,0.046503,0.139739,-0.357665,0.513478,-0.148271,-0.077947
3505.526000,5.256000,START g_to_d,Note,0,G,1.242958,0.302819,0.749057,0.117252,-1.665568,-2.083414,1.033533,-2.215826,-0.368858,0.873607,-1.328248,-1.285294,-2.547628,0.037899,0.114778,-0.290935,0.416927,-0.121655,-0.065320
3505.534000,5.264000,START g_to_d,Note,0,G,1.234958,0.302808,0.749332,0.117235,-1.664704,-2.083859,1.036012,-2.215590,-0.368042,0.871624,-1.325408,-1.286096,-2.548069,0.027656,0.087560,-0.224604,0.324710,-0.093352,-0.049344
3505.542000,5.272000,START g_to_d,Note,0,G,1.226958,0.302797,0.749525,0.117206,-1.664052,-2.084278,1.037868,-2.215422,-0.367434,0.870184,-1.323339,-1.286773,-2.548417,0.019635,0.062546,-0.158991,0.229806,-0.068389,-0.035787
3505.550000,5.280000,START g_to_d,Note,0,G,1.218958,0.302769,0.749672,0.117215,-1.663663,-2.084500,1.039099,-2.215279,-0.367065,0.869223,-1.321934,-1.287169,-2.548583,0.012044,0.036520,-0.092011,0.135108,-0.040492,-0.021604
3505.558000,5.288000,START g_to_d,Note,0,G,1.210958,0.302761,0.749729,0.117220,-1.663447,-2.084624,1.039611,-2.215222,-0.366904,0.868807,-1.321332,-1.287344,-2.548700,0.001556,0.008819,-0.028249,0.040074,-0.013317,-0.007539
3505.566000,5.296000,START d_bow,Note,1,G,1.202958,0.302782,0.749714,0.117239,-1.663509,-2.084579,1.039566,-2.215257,-0.366956,0.868866,-1.321368,-1.287335,-2.548676,0.001777,-0.012477,0.013284,-0.012280,0.007779,0.002793
3505.574000,5.304000,START d_bow,Note,1,G,1.194958,0.302791,0.749681,0.117270,-1.663518,-2.084553,1.039570,-2.215290,-0.367076,0.869031,-1.321401,-1.287340,-2.548692,-0.007628,-0.023315,0.028398,-0.018055,-0.001677,-0.002218
3505.582000,5.312000,START d_bow,Note,1,G,1.186958,0.302851,0.749598,0.117369,-1.663570,-2.084576,1.039472,-2.215413,-0.367350,0.869335,-1.321485,-1.287425,-2.548752,-0.014374,-0.033573,0.045212,-0.016014,-0.007429,-0.011621
3505.590000,5.320000,START d_bow,Note,1,G,1.178958,0.302904,0.749489,0.117465,-1.663534,-2.084591,1.039344,-2.215541,-0.367678,0.869778,-1.321648,-1.287466,-2.548883,-0.017588,-0.045012,0.062618,-0.026032,-0.010986,-0.017515
3505.598000,5.328000,START d_bow,Note,1,G,1.170958,0.302969,0.749349,0.117595,-1.663546,-2.084636,1.039181,-2.215707,-0.368121,0.870361,-1.321871,-1.287563,-2.549011,-0.020628,-0.053075,0.087546,-0.032096,-0.013422,-0.015619
3505.606000,5.336000,START d_bow,Note,1,G,1.162958,0.303005,0.749185,0.117667,-1.663556,-2.084678,1.039153,-2.215864,-0.368576,0.871122,-1.322173,-1.287697,-2.549128,-0.024136,-0.060682,0.108606,-0.043078,-0.015086,-0.016840
3505.614000,5.344000,START d_bow,Note,1,G,1.154958,0.303055,0.748971,0.117749,-1.663559,-2.084651,1.039167,-2.216071,-0.369146,0.872105,-1.322528,-1.287820,-2.549279,-0.024758,-0.069142,0.131067,-0.054910,-0.013200,-0.017875
3505.622000,5.352000,START d_bow,Note,1,G,1.146958,0.303089,0.748736,0.117799,-1.663575,-2.084611,1.039156,-2.216278,-0.369749,0.873251,-1.323032,-1.287928,-2.549419,-0.025813,-0.078556,0.148827,-0.067727,-0.013777,-0.020669
3505.630000,5.360000,START d_bow,Note,1,G,1.138958,0.303090,0.748478,0.117823,-1.663514,-2.084625,1.039186,-2.216467,-0.370389,0.874552,-1.323621,-1.288056,-2.549608,-0.026836,-0.086406,0.169350,-0.079057,-0.014673,-0.023387
3505.638000,5.368000,START d_bow,Note,1,G,1.130958,0.303110,0.748191,0.117860,-1.663506,-2.084580,1.039216,-2.216698,-0.371107,0.875984,-1.324254,-1.288183,-2.549783,-0.028781,-0.092512,0.189636,-0.088111,-0.016534,-0.024687
3505.646000,5.376000,START d_bow,Note,1,G,1.122958,0.303100,0.747871,0.117877,-1.663428,-2.084491,1.039311,-2.216919,-0.371905,0.877648,-1.324975,-1.288265,-2.549996,-0.032328,-0.100751,0.208599,-0.097254,-0.017758,-0.028664
3505.654000,5.384000,START d_bow,Note,1,G,1.114958,0.303104,0.747513,0.117889,-1.663369,-2.084505,1.039406,-2.217185,-0.372759,0.879435,-1.325779,-1.288470,-2.550240,-0.034419,-0.109433,0.229078,-0.103883,-0.019170,-0.031833
3505.662000,5.392000,START d_bow,Note,1,G,1.106958,0.303117,0.747127,0.117901,-1.663306,-2.084454,1.039520,-2.217480,-0.373674,0.881352,-1.326621,-1.288646,-2.550501,-0.037588,-0.115847,0.246215,-0.113701,-0.022360,-0.034868
3505.670000,5.400000,START d_bow,Note,1,G,1.098958,0.303127,0.746693,0.117880,-1.663209,-2.084391,1.039656,-2.217806,-0.374648,0.883495,-1.327596,-1.288829,-2.550808,-0.040864,-0.127833,0.266182,-0.128419,-0.023962,-0.037936
3505.678000,5.408000,START d_bow,Note,1,G,1.090958,0.303102,0.746264,0.117904,-1.663101,-2.084398,1.039684,-2.218092,-0.375711,0.885712,-1.328646,-1.289001,-2.551105,-0.044918,-0.140150,0.284802,-0.133899,-0.025736,-0.040319
3505.686000,5.416000,START d_bow,Note,1,G,1.082958,0.303153,0.745765,0.117937,-1.663055,-2.084318,1.039719,-2.218509,-0.376871,0.888107,-1.329741,-1.289213,-2.551445,-0.050308,-0.147542,0.304036,-0.141463,-0.027495,-0.041492
3505.694000,5.424000,START d_bow,Note,1,G,1.074958,0.303185,0.745264,0.118013,-1.663000,-2.084371,1.039595,-2.218909,-0.378109,0.890554,-1.330943,-1.289463,-2.551798,-0.051950,-0.155336,0.321977,-0.151717,-0.029442,-0.043518
3505.774000,5.504000,START d_bow,Note,1,G,0.994958,0.303697,0.738276,0.118674,-1.662241,-2.083650,1.039884,-2.224592,-0.394491,0.923824,-1.346118,-1.292554,-2.556571,-0.089740,-0.249025,0.497024,-0.227093,-0.047118,-0.074248
