srs827/Robot-Cello-ResidualRL/Data-Files/Big-Logs/paganini_variations-log-detailed.csv
timestamp_robot,time_elapsed_sec,event_label,current_event_type,bow_direction,current_string,remaining_duration_sec,TCP_pose_x,TCP_pose_y,TCP_pose_z,TCP_pose_rx,TCP_pose_ry,TCP_pose_rz,q_base,q_shoulder,q_elbow,q_wrist1,q_wrist2,q_wrist3,qd_base,qd_shoulder,qd_elbow,qd_wrist1,qd_wrist2,qd_wrist3
3901.954000,0.000000,END g_bow,None,0,,0.000000,0.263813,0.611587,0.098047,-1.829346,-1.938870,0.502754,-2.298974,-0.598426,1.552436,-2.146983,-1.135668,-2.436860,0.000000,0.000000,-0.000000,0.000000,0.000000,0.000000
3901.962000,0.008000,END g_bow,None,0,,0.000000,0.263819,0.611591,0.098062,-1.829362,-1.938863,0.502712,-2.298978,-0.598445,1.552425,-2.146987,-1.135664,-2.436844,0.000000,0.000000,-0.000000,0.000000,0.000000,0.000000
3901.970000,0.016000,END g_bow,None,0,,0.000000,0.263813,0.611596,0.098058,-1.829339,-1.938882,0.502721,-2.298966,-0.598433,1.552412,-2.146980,-1.135664,-2.436856,0.000000,0.000000,-0.000000,0.000000,0.000000,0.000000
3902.002000,0.048000,END g_bow,None,0,,0.000000,0.263820,0.611586,0.098063,-1.829358,-1.938872,0.502672,-2.298985,-0.598448,1.552436,-2.147021,-1.135664,-2.436853,0.000000,0.000000,-0.000000,0.000000,0.000000,0.000000
3902.010000,0.056000,END g_bow,None,0,,0.000000,0.263821,0.611588,0.098073,-1.829331,-1.938883,0.502671,-2.298981,-0.598460,1.552425,-2.146994,-1.135656,-2.436872,0.000000,0.000000,-0.000000,0.000000,0.000000,0.000000
3902.018000,0.064000,END g_bow,None,0,,0.000000,0.263819,0.611595,0.098084,-1.829366,-1.938841,0.502673,-2.298974,-0.598479,1.552428,-2.146987,-1.135640,-2.436825,0.000000,0.000000,-0.000000,0.000000,0.000000,0.000000
3902.026000,0.072000,END g_bow,None,0,,0.000000,0.263824,0.611593,0.098068,-1.829343,-1.938889,0.502655,-2.298981,-0.598444,1.552406,-2.147006,-1.135664,-2.436863,0.000000,0.000000,-0.000000,0.000000,0.000000,0.000000
3902.034000,0.080000,END g_bow,None,0,,0.000000,0.263804,0.611602,0.098074,-1.829344,-1.938919,0.502683,-2.298950,-0.598460,1.552412,-2.146990,-1.135683,-2.436844,0.000000,0.000000,-0.000000,0.000000,0.000000,0.000000
3902.106000,0.152000,END g_bow,None,0,,0.000000,0.263802,0.611601,0.098063,-1.829356,-1.938893,0.502698,-2.298950,-0.598444,1.552421,-2.147006,-1.135671,-2.436829,0.000000,0.000000,-0.000000,0.000000,0.000000,0.000000
3902.114000,0.160000,END g_bow,None,0,,0.000000,0.263810,0.611595,0.098063,-1.829336,-1.938865,0.502712,-2.298962,-0.598445,1.552425,-2.146987,-1.135646,-2.436848,0.000000,0.000000,-0.000000,0.000000,0.000000,0.000000
3902.122000,0.168000,END g_bow,None,0,,0.000000,0.263812,0.611598,0.098069,-1.829331,-1.938898,0.502686,-2.298962,-0.598448,1.552409,-2.146987,-1.135664,-2.436860,0.000000,0.000000,-0.000000,0.000000,0.000000,0.000000
3902.210000,0.256000,END g_bow,None,0,,0.000000,0.263823,0.611593,0.098071,-1.829365,-1.938884,0.502646,-2.298981,-0.598451,1.552412,-2.147018,-1.135671,-2.436844,0.000000,0.000000,-0.000000,0.000000,0.000000,0.000000
3902.218000,0.264000,END g_bow,None,0,,0.000000,0.263821,0.611589,0.098067,-1.829351,-1.938877,0.502678,-2.298981,-0.598451,1.552425,-2.147002,-1.135664,-2.436856,0.000000,0.000000,-0.000000,0.000000,0.000000,0.000000
3902.226000,0.272000,END g_bow,None,0,,0.000000,0.263814,0.611595,0.098078,-1.829322,-1.938873,0.502652,-2.298966,-0.598463,1.552421,-2.147006,-1.135633,-2.436856,0.000000,0.000000,-0.000000,0.000000,0.000000,0.000000
3902.306000,0.352000,END g_bow,None,0,,0.000000,0.263814,0.611594,0.098054,-1.829356,-1.938874,0.502740,-2.298970,-0.598429,1.552416,-2.146975,-1.135671,-2.436848,0.000000,0.000000,-0.000633,0.001241,0.000000,0.000000
3902.314000,0.360000,END g_bow,None,0,,0.000000,0.263814,0.611599,0.098075,-1.829338,-1.938858,0.502712,-2.298962,-0.598460,1.552412,-2.146959,-1.135640,-2.436844,0.000000,0.000000,-0.000801,0.001145,0.000000,0.000000
3902.322000,0.368000,END g_bow,None,0,,0.000000,0.263814,0.611593,0.098063,-1.829345,-1.938892,0.502696,-2.298970,-0.598444,1.552419,-2.146994,-1.135671,-2.436856,0.000000,0.000000,-0.001465,0.002069,0.000000,0.000000
3902.330000,0.376000,END g_bow,None,0,,0.000000,0.263823,0.611597,0.098066,-1.829374,-1.938826,0.502754,-2.298978,-0.598448,1.552410,-2.146939,-1.135649,-2.436829,0.000000,0.000000,-0.002535,0.003819,0.000000,0.000000
3902.338000,0.384000,END g_bow,None,0,,0.000000,0.263842,0.611603,0.098088,-1.829370,-1.938842,0.502685,-2.298993,-0.598463,1.552364,-2.146922,-1.135652,-2.436844,0.000000,0.000000,-0.004424,0.008086,0.000000,0.000000
3902.346000,0.392000,END g_bow,None,0,,0.000000,0.263839,0.611611,0.098074,-1.829336,-1.938848,0.502790,-2.298978,-0.598433,1.552332,-2.146840,-1.135652,-2.436868,0.000000,0.000348,-0.005862,0.007891,0.000000,0.000000
3902.354000,0.400000,END g_bow,None,0,,0.000000,0.263852,0.611624,0.098089,-1.829359,-1.938853,0.502776,-2.298981,-0.598440,1.552280,-2.146795,-1.135668,-2.436856,0.000000,0.000386,-0.007124,0.008258,-0.001599,0.000000
3902.362000,0.408000,END g_bow,None,0,,0.000000,0.263849,0.611649,0.098105,-1.829339,-1.938896,0.502772,-2.298953,-0.598440,1.552208,-2.146735,-1.135680,-2.436856,0.000000,0.000654,-0.009242,0.010884,-0.002008,0.000000
3902.370000,0.416000,END g_bow,None,0,,0.000000,0.263874,0.611670,0.098117,-1.829356,-1.938911,0.502753,-2.298962,-0.598421,1.552105,-2.146667,-1.135701,-2.436856,0.000000,0.001169,-0.012116,0.012705,-0.004340,-0.000002
3902.378000,0.424000,END g_bow,None,0,,0.000000,0.263884,0.611694,0.098128,-1.829357,-1.938953,0.502807,-2.298950,-0.598412,1.552016,-2.146552,-1.135740,-2.436865,0.000000,0.002274,-0.013626,0.012669,-0.006745,-0.000839
3902.386000,0.432000,END g_bow,None,0,,0.000000,0.263900,0.611714,0.098129,-1.829367,-1.939020,0.502829,-2.298950,-0.598385,1.551917,-2.146469,-1.135803,-2.436884,0.000000,0.003003,-0.015399,0.013578,-0.008215,-0.001029
3902.394000,0.440000,END g_bow,None,0,,0.000000,0.263942,0.611733,0.098133,-1.829416,-1.939001,0.502840,-2.298981,-0.598349,1.551799,-2.146377,-1.135829,-2.436877,0.000008,0.004852,-0.016490,0.015552,-0.008680,-0.001622
3902.402000,0.448000,END g_bow,None,0,,0.000000,0.263968,0.611776,0.098159,-1.829428,-1.939063,0.502854,-2.298970,-0.598332,1.551624,-2.146218,-1.135883,-2.436880,0.000335,0.006296,-0.018993,0.017925,-0.009584,-0.001869
3902.466000,0.512000,END g_bow,None,0,,0.000000,0.264211,0.612220,0.097978,-1.829398,-1.939829,0.504199,-2.298810,-0.597423,1.549648,-2.144224,-1.136672,-2.437189,0.006040,0.021157,-0.048331,0.049976,-0.017026,-0.007621
3902.514000,0.560000,END g_bow,None,0,,0.000000,0.264541,0.612985,0.097821,-1.829223,-1.941100,0.506270,-2.298427,-0.596162,1.546450,-2.140891,-1.137839,-2.437645,0.010669,0.033274,-0.085662,0.093074,-0.033380,-0.011736
3902.522000,0.568000,END g_bow,None,0,,0.000000,0.264601,0.613155,0.097768,-1.829173,-1.941391,0.506775,-2.298328,-0.595859,1.545752,-2.140156,-1.138101,-2.437748,0.013045,0.036598,-0.093716,0.099919,-0.035629,-0.012156
3902.530000,0.576000,END g_bow,None,0,,0.000000,0.264688,0.613350,0.097711,-1.829186,-1.941623,0.507429,-2.298235,-0.595520,1.544949,-2.139252,-1.138385,-2.437813,0.012562,0.042341,-0.102001,0.108576,-0.039235,-0.012597
3902.618000,0.664000,END g_bow,None,0,,0.000000,0.266278,0.616652,0.097013,-1.828907,-1.946899,0.516691,-2.296815,-0.589971,1.530884,-2.124509,-1.143684,-2.439611,0.021105,0.088644,-0.224565,0.234155,-0.083455,-0.029021
3902.626000,0.672000,END g_bow,None,0,,0.000000,0.266498,0.617077,0.096907,-1.828873,-1.947603,0.517868,-2.296650,-0.589210,1.529025,-2.122618,-1.144392,-2.439863,0.024137,0.094405,-0.236824,0.250187,-0.087543,-0.033212
3902.634000,0.680000,END g_bow,None,0,,0.000000,0.266705,0.617540,0.096800,-1.828794,-1.948314,0.519250,-2.296431,-0.588419,1.527064,-2.120514,-1.145103,-2.440119,0.025201,0.099025,-0.254518,0.267166,-0.092302,-0.033506
3902.666000,0.712000,END g_bow,None,0,,0.000000,0.267695,0.619602,0.096349,-1.828528,-1.951629,0.525194,-2.295545,-0.584879,1.518181,-2.111167,-1.148428,-2.441298,0.029610,0.117536,-0.302115,0.315903,-0.111994,-0.038987
3902.674000,0.720000,END g_bow,None,0,,0.000000,0.267960,0.620173,0.096255,-1.828440,-1.952590,0.526825,-2.295290,-0.583958,1.515738,-2.108553,-1.149371,-2.441634,0.031059,0.120578,-0.312515,0.325572,-0.114979,-0.042087
3902.682000,0.728000,END g_bow,None,0,,0.000000,0.268223,0.620766,0.096138,-1.828341,-1.953571,0.528547,-2.295010,-0.582968,1.513207,-2.105861,-1.150332,-2.441970,0.032150,0.123265,-0.323143,0.338596,-0.120273,-0.042378
3902.690000,0.736000,END g_bow,None,0,,0.000000,0.268528,0.621392,0.096018,-1.828274,-1.954557,0.530274,-2.294750,-0.581905,1.510499,-2.103063,-1.151326,-2.442302,0.033440,0.129337,-0.333487,0.346666,-0.122937,-0.041813
3902.698000,0.744000,END g_bow,None,0,,0.000000,0.268816,0.622022,0.095913,-1.828142,-1.955593,0.531946,-2.294463,-0.580862,1.507791,-2.100285,-1.152303,-2.442662,0.036018,0.133190,-0.346413,0.358461,-0.127733,-0.044238
3902.706000,0.752000,END g_bow,None,0,,0.000000,0.269142,0.622677,0.095813,-1.828073,-1.956679,0.533643,-2.294199,-0.579778,1.504939,-2.097394,-1.153369,-2.443019,0.035582,0.138394,-0.354016,0.369583,-0.131774,-0.045219
3902.714000,0.760000,END g_bow,None,0,,0.000000,0.269467,0.623363,0.095714,-1.827948,-1.957771,0.535384,-2.293900,-0.578651,1.501978,-2.094406,-1.154406,-2.443386,0.034878,0.143927,-0.367276,0.381628,-0.135918,-0.044904
3902.722000,0.768000,END g_bow,None,0,,0.000000,0.269778,0.624049,0.095607,-1.827821,-1.958946,0.537286,-2.293588,-0.577531,1.499019,-2.091305,-1.155536,-2.443785,0.037542,0.146102,-0.375954,0.392460,-0.141612,-0.047889
3902.730000,0.776000,END g_bow,None,0,,0.000000,0.270124,0.624745,0.095445,-1.827726,-1.960054,0.539382,-2.293307,-0.576288,1.495951,-2.088068,-1.156683,-2.444193,0.037709,0.152988,-0.388435,0.405201,-0.143071,-0.049984
3902.738000,0.784000,END g_bow,None,0,,0.000000,0.270453,0.625474,0.095306,-1.827607,-1.961199,0.541529,-2.292976,-0.575053,1.492806,-2.084726,-1.157839,-2.444582,0.040156,0.158235,-0.397172,0.414521,-0.150227,-0.051575
3902.746000,0.792000,END g_bow,None,0,,0.000000,0.270785,0.626202,0.095163,-1.827420,-1.962396,0.543669,-2.292645,-0.573798,1.489628,-2.081363,-1.158998,-2.445033,0.039413,0.162205,-0.408785,0.424733,-0.151656,-0.052804
3902.754000,0.800000,END g_bow,None,0,,0.000000,0.271129,0.626960,0.095010,-1.827264,-1.963664,0.545885,-2.292302,-0.572487,1.486321,-2.077890,-1.160245,-2.445481,0.040378,0.169865,-0.420878,0.437699,-0.155435,-0.054018
3902.762000,0.808000,END g_bow,None,0,,0.000000,0.271478,0.627735,0.094856,-1.827165,-1.964918,0.548164,-2.291954,-0.571155,1.482956,-2.074350,-1.161523,-2.445881,0.043134,0.172558,-0.430696,0.450170,-0.161954,-0.055770
3902.770000,0.816000,END g_bow,None,0,,0.000000,0.271859,0.628533,0.094675,-1.827031,-1.966171,0.550624,-2.291619,-0.569730,1.479433,-2.070601,-1.162825,-2.446337,0.043705,0.176898,-0.441209,0.461017,-0.162736,-0.056265
3902.778000,0.824000,END g_bow,None,0,,0.000000,0.272242,0.629362,0.094511,-1.826890,-1.967509,0.552933,-2.291256,-0.568274,1.475793,-2.066892,-1.164152,-2.446778,0.044564,0.179213,-0.452494,0.468545,-0.167022,-0.058153
3902.786000,0.832000,END g_bow,None,0,,0.000000,0.272631,0.630207,0.094374,-1.826710,-1.968963,0.555150,-2.290884,-0.566827,1.472073,-2.063164,-1.165530,-2.447261,0.045327,0.184289,-0.462186,0.479506,-0.173873,-0.058757
3902.794000,0.840000,END g_bow,None,0,,0.000000,0.273045,0.631045,0.094223,-1.826548,-1.970344,0.557529,-2.290547,-0.565356,1.468324,-2.059303,-1.166908,-2.447757,0.045941,0.187567,-0.472815,0.492293,-0.174772,-0.060521
3902.802000,0.848000,END g_bow,None,0,,0.000000,0.273422,0.631917,0.094036,-1.826377,-1.971805,0.560202,-2.290141,-0.563820,1.464501,-2.055247,-1.168381,-2.448245,0.046631,0.193565,-0.485005,0.505549,-0.180683,-0.062611
3902.810000,0.856000,END g_bow,None,0,,0.000000,0.273837,0.632778,0.093823,-1.826200,-1.973135,0.563007,-2.289785,-0.562226,1.460637,-2.051088,-1.169796,-2.448756,0.049032,0.198023,-0.495415,0.520683,-0.183746,-0.062839
3902.818000,0.864000,END g_bow,None,0,,0.000000,0.274231,0.633666,0.093619,-1.826009,-1.974606,0.565782,-2.289383,-0.560616,1.456693,-2.046911,-1.171293,-2.449268,0.048194,0.203051,-0.505258,0.527740,-0.188659,-0.064901
3902.826000,0.872000,END g_bow,None,0,,0.000000,0.274654,0.634593,0.093453,-1.825801,-1.976096,0.568507,-2.288975,-0.558995,1.452578,-2.042613,-1.172787,-2.449784,0.051262,0.205603,-0.517096,0.540227,-0.193155,-0.065459
3902.834000,0.880000,END g_bow,None,0,,0.000000,0.275087,0.635523,0.093231,-1.825625,-1.977603,0.571477,-2.288580,-0.557277,1.448396,-2.038173,-1.174371,-2.450316,0.053602,0.208620,-0.527068,0.553522,-0.196868,-0.065679
3902.842000,0.888000,END g_bow,None,0,,0.000000,0.275554,0.636483,0.093059,-1.825453,-1.979179,0.574229,-2.288195,-0.555562,1.444058,-2.033739,-1.175973,-2.450849,0.052890,0.212236,-0.536271,0.559322,-0.200170,-0.069115
3902.850000,0.896000,END g_bow,None,0,,0.000000,0.276019,0.637462,0.092889,-1.825226,-1.980772,0.576987,-2.287788,-0.553812,1.439638,-2.029252,-1.177555,-2.451401,0.053615,0.213822,-0.546743,0.568697,-0.202786,-0.071559
3902.858000,0.904000,END g_bow,None,0,,0.000000,0.276441,0.638465,0.092767,-1.824920,-1.982524,0.579781,-2.287310,-0.552136,1.435193,-2.024660,-1.179202,-2.451987,0.054491,0.216309,-0.558340,0.579966,-0.207444,-0.074025
3902.866000,0.912000,END g_bow,None,0,,0.000000,0.276889,0.639468,0.092603,-1.824684,-1.984219,0.582739,-2.286866,-0.550377,1.430686,-2.019975,-1.180894,-2.452551,0.054685,0.221009,-0.569346,0.590359,-0.209238,-0.074821
3902.874000,0.920000,END g_bow,None,0,,0.000000,0.277354,0.640478,0.092423,-1.824436,-1.985905,0.585766,-2.286435,-0.548563,1.426105,-2.015216,-1.182595,-2.453135,0.057510,0.226497,-0.579989,0.601287,-0.213935,-0.075953
3902.882000,0.928000,END g_bow,None,0,,0.000000,0.277798,0.641514,0.092247,-1.824135,-1.987681,0.588980,-2.285955,-0.546736,1.421439,-2.010264,-1.184364,-2.453751,0.057484,0.228793,-0.592546,0.615573,-0.219917,-0.076297
3902.890000,0.936000,END g_bow,None,0,,0.000000,0.278260,0.642548,0.092041,-1.823843,-1.989397,0.592378,-2.285499,-0.544853,1.416730,-2.005185,-1.186143,-2.454376,0.060816,0.236165,-0.599781,0.629504,-0.225733,-0.080887
3902.898000,0.944000,END g_bow,None,0,,0.000000,0.278716,0.643636,0.091876,-1.823475,-1.991345,0.595435,-2.284985,-0.542926,1.411806,-2.000207,-1.187973,-2.455029,0.060766,0.240502,-0.611258,0.637995,-0.226222,-0.080644
3902.906000,0.952000,END g_bow,None,0,,0.000000,0.279222,0.644725,0.091743,-1.823175,-1.993199,0.598562,-2.284528,-0.541024,1.406813,-1.995075,-1.189806,-2.455663,0.061494,0.245670,-0.622327,0.650945,-0.233478,-0.081549
3902.914000,0.960000,END g_bow,None,0,,0.000000,0.279688,0.645849,0.091617,-1.822795,-1.995089,0.601823,-2.283995,-0.539105,1.401749,-1.989808,-1.191627,-2.456296,0.062027,0.250668,-0.636119,0.663475,-0.237893,-0.082224
3902.922000,0.968000,END g_bow,None,0,,0.000000,0.280209,0.646953,0.091459,-1.822453,-1.997068,0.605124,-2.283542,-0.537112,1.396599,-1.984492,-1.193586,-2.457004,0.063443,0.251290,-0.649225,0.676248,-0.241211,-0.083704
3902.930000,0.976000,END g_bow,None,0,,0.000000,0.280687,0.648075,0.091275,-1.822107,-1.998935,0.608836,-2.283030,-0.535101,1.391460,-1.978927,-1.195523,-2.457655,0.065352,0.256484,-0.656614,0.689390,-0.244392,-0.084091
3902.938000,0.984000,END g_bow,None,0,,0.000000,0.281148,0.649216,0.091032,-1.821699,-2.000887,0.612558,-2.282480,-0.532951,1.386223,-1.973404,-1.197487,-2.458332,0.067585,0.262830,-0.667394,0.697899,-0.248449,-0.086438
3902.946000,0.992000,END g_bow,None,0,,0.000000,0.281631,0.650390,0.090814,-1.821262,-2.002958,0.616174,-2.281926,-0.530760,1.380798,-1.967821,-1.199511,-2.459042,0.068014,0.272136,-0.675092,0.704970,-0.249405,-0.086642
3902.954000,1.000000,END g_bow,None,0,,0.000000,0.282125,0.651598,0.090666,-1.820807,-2.005005,0.619664,-2.281350,-0.528611,1.375251,-1.962169,-1.201473,-2.459720,0.071210,0.276035,-0.686097,0.714974,-0.255590,-0.090644
3902.962000,1.008000,END g_bow,None,0,,0.000000,0.282632,0.652777,0.090460,-1.820332,-2.007063,0.623428,-2.280818,-0.526397,1.369721,-1.956390,-1.203519,-2.460473,0.070270,0.276384,-0.698155,0.725025,-0.257766,-0.089946
3902.970000,1.016000,END g_bow,None,0,,0.000000,0.283132,0.653979,0.090247,-1.819894,-2.009204,0.627251,-2.280264,-0.524140,1.364096,-1.950546,-1.205660,-2.461198,0.073607,0.276477,-0.711207,0.738254,-0.266544,-0.091335
3902.978000,1.024000,END g_bow,None,0,,0.000000,0.283619,0.655184,0.090032,-1.819429,-2.011267,0.631317,-2.279692,-0.521888,1.358471,-1.944523,-1.207776,-2.461916,0.071543,0.280976,-0.718639,0.750056,-0.267518,-0.093330
3902.986000,1.032000,END g_bow,None,0,,0.000000,0.284136,0.656412,0.089818,-1.818929,-2.013395,0.635365,-2.279133,-0.519559,1.352666,-1.938408,-1.209935,-2.462677,0.074063,0.287676,-0.728341,0.764279,-0.271055,-0.094559
3902.994000,1.040000,END g_bow,None,0,,0.000000,0.284642,0.657684,0.089613,-1.818404,-2.015695,0.639375,-2.278525,-0.517171,1.346681,-1.932232,-1.212195,-2.463447,0.076069,0.295110,-0.739477,0.772294,-0.275990,-0.096555
3903.002000,1.048000,END g_bow,None,0,,0.000000,0.285155,0.658949,0.089437,-1.817846,-2.017923,0.643369,-2.277930,-0.514817,1.340701,-1.926025,-1.214387,-2.464221,0.075440,0.295264,-0.750529,0.784741,-0.278004,-0.096102
3903.010000,1.056000,END g_bow,None,0,,0.000000,0.285647,0.660229,0.089267,-1.817264,-2.020271,0.647406,-2.277300,-0.512454,1.334663,-1.919760,-1.216664,-2.465006,0.079135,0.299851,-0.762018,0.796799,-0.282339,-0.099492
3903.018000,1.064000,END g_bow,None,0,,0.000000,0.286178,0.661517,0.089131,-1.816684,-2.022539,0.651612,-2.276707,-0.510104,1.328523,-1.913250,-1.218939,-2.465807,0.076939,0.303623,-0.775981,0.808549,-0.286409,-0.101148
3903.026000,1.072000,END g_bow,None,0,,0.000000,0.286686,0.662831,0.088995,-1.816078,-2.024901,0.655808,-2.276069,-0.507713,1.322289,-1.906718,-1.221260,-2.466597,0.081245,0.307663,-0.783468,0.819418,-0.291308,-0.104229
3903.034000,1.080000,END g_bow,None,0,,0.000000,0.287211,0.664172,0.088864,-1.815386,-2.027306,0.659830,-2.275421,-0.505236,1.315882,-1.900214,-1.223534,-2.467430,0.080425,0.314168,-0.795578,0.827278,-0.292174,-0.104353
3903.042000,1.088000,END g_bow,None,0,,0.000000,0.287689,0.665514,0.088698,-1.814629,-2.029834,0.664224,-2.274724,-0.502732,1.309479,-1.893499,-1.225947,-2.468312,0.082589,0.315953,-0.806365,0.836811,-0.298792,-0.104705
3903.050000,1.096000,END g_bow,None,0,,0.000000,0.288209,0.666842,0.088511,-1.813964,-2.032210,0.668658,-2.274092,-0.500176,1.303042,-1.886768,-1.228329,-2.469138,0.080911,0.320798,-0.815394,0.848047,-0.303603,-0.107098
3903.058000,1.104000,END g_bow,None,0,,0.000000,0.288710,0.668184,0.088320,-1.813279,-2.034674,0.673289,-2.273429,-0.497600,1.296542,-1.879877,-1.230812,-2.469976,0.082548,0.328132,-0.825919,0.861232,-0.309329,-0.106032
3903.066000,1.112000,END g_bow,None,0,,0.000000,0.289237,0.669552,0.088122,-1.812536,-2.037111,0.677891,-2.272770,-0.494920,1.289853,-1.872911,-1.233248,-2.470837,0.082865,0.332456,-0.837542,0.875709,-0.311398,-0.108168
3903.074000,1.120000,END g_bow,None,0,,0.000000,0.289769,0.670949,0.087916,-1.811784,-2.039701,0.682399,-2.272094,-0.492152,1.282990,-1.865952,-1.235779,-2.471712,0.083827,0.334808,-0.847515,0.883825,-0.314227,-0.110644
3903.082000,1.128000,END g_bow,None,0,,0.000000,0.290259,0.672338,0.087724,-1.810949,-2.042293,0.687217,-2.271380,-0.489444,1.276190,-1.858780,-1.238336,-2.472617,0.087181,0.336544,-0.859933,0.897489,-0.320793,-0.110065
3903.090000,1.136000,END g_bow,None,0,,0.000000,0.290755,0.673745,0.087537,-1.810071,-2.044846,0.692183,-2.270657,-0.486693,1.269275,-1.851430,-1.240881,-2.473531,0.088064,0.343984,-0.869583,0.911007,-0.323025,-0.112083
3903.098000,1.144000,END g_bow,None,0,,0.000000,0.291268,0.675132,0.087346,-1.809263,-2.047477,0.696996,-2.269978,-0.483932,1.262363,-1.844220,-1.243515,-2.474433,0.085360,0.346927,-0.878651,0.916881,-0.325683,-0.113595
3903.106000,1.152000,END g_bow,None,0,,0.000000,0.291814,0.676565,0.087200,-1.808449,-2.050150,0.701856,-2.269295,-0.481128,1.255188,-1.836770,-1.246198,-2.475335,0.085696,0.350849,-0.889795,0.933326,-0.330062,-0.115711
3903.114000,1.160000,END g_bow,None,0,,0.000000,0.292351,0.678000,0.087081,-1.807550,-2.052843,0.706623,-2.268598,-0.478332,1.247980,-1.829338,-1.248834,-2.476273,0.089197,0.357589,-0.900810,0.936565,-0.336027,-0.116464
3903.122000,1.168000,END g_bow,None,0,,0.000000,0.292828,0.679461,0.086992,-1.806575,-2.055628,0.711582,-2.267817,-0.475576,1.240746,-1.821733,-1.251524,-2.477207,0.088565,0.358773,-0.912418,0.950811,-0.336352,-0.115766
3903.130000,1.176000,END g_bow,None,0,,0.000000,0.293347,0.680905,0.086875,-1.805615,-2.058369,0.716517,-2.267098,-0.472739,1.233439,-1.814143,-1.254218,-2.478160,0.090392,0.362110,-0.926349,0.958826,-0.343923,-0.118661
3903.138000,1.184000,END g_bow,None,0,,0.000000,0.293866,0.682363,0.086699,-1.804645,-2.061119,0.721831,-2.266371,-0.469774,1.225994,-1.806293,-1.257017,-2.479119,0.092008,0.368287,-0.936064,0.974828,-0.346998,-0.119517
3903.146000,1.192000,END g_bow,None,0,,0.000000,0.294394,0.683837,0.086556,-1.803629,-2.063914,0.726990,-2.265640,-0.466790,1.218429,-1.798454,-1.259798,-2.480096,0.093259,0.376498,-0.942145,0.985793,-0.352239,-0.120000
3903.154000,1.200000,END g_bow,None,0,,0.000000,0.294897,0.685316,0.086412,-1.802572,-2.066801,0.732221,-2.264881,-0.463789,1.210829,-1.790565,-1.262648,-2.481086,0.094026,0.376740,-0.958147,0.992046,-0.354534,-0.121177
3903.162000,1.208000,END g_bow,None,0,,0.000000,0.295402,0.686805,0.086268,-1.801423,-2.069684,0.737537,-2.264114,-0.460735,1.203117,-1.782551,-1.265481,-2.482123,0.097283,0.376054,-0.968414,1.005906,-0.358956,-0.124034
3903.170000,1.216000,END g_bow,None,0,,0.000000,0.295906,0.688307,0.086085,-1.800325,-2.072521,0.743099,-2.263343,-0.457590,1.195306,-1.774379,-1.268371,-2.483102,0.098294,0.385207,-0.975821,1.023050,-0.363827,-0.127854
3903.178000,1.224000,END g_bow,None,0,,0.000000,0.296412,0.689807,0.085913,-1.799254,-2.075450,0.748747,-2.262580,-0.454443,1.187437,-1.766119,-1.271387,-2.484076,0.095767,0.393810,-0.983500,1.032519,-0.366995,-0.125278
3903.186000,1.232000,END g_bow,None,0,,0.000000,0.296933,0.691308,0.085779,-1.798081,-2.078255,0.754336,-2.261829,-0.451300,1.179506,-1.757801,-1.274255,-2.485086,0.097580,0.395780,-0.997780,1.037136,-0.369387,-0.128470
3903.194000,1.240000,END g_bow,None,0,,0.000000,0.297409,0.692821,0.085656,-1.796893,-2.081356,0.759873,-2.261027,-0.448155,1.171518,-1.749522,-1.277328,-2.486109,0.098463,0.391968,-1.000261,1.042500,-0.371723,-0.129313
3903.202000,1.248000,END g_bow,None,0,,0.000000,0.297890,0.694329,0.085587,-1.795633,-2.084307,0.765396,-2.260232,-0.445066,1.163532,-1.741171,-1.280257,-2.487140,0.099500,0.398414,-1.001038,1.045663,-0.371962,-0.132159
3903.210000,1.256000,END g_bow,None,0,,0.000000,0.298358,0.695841,0.085473,-1.794276,-2.087336,0.770993,-2.259417,-0.441864,1.155440,-1.732782,-1.283224,-2.488224,0.099278,0.398912,-0.999081,1.046388,-0.372992,-0.130918
3903.218000,1.264000,END g_bow,None,0,,0.000000,0.298838,0.697328,0.085390,-1.792963,-2.090244,0.776673,-2.258642,-0.438729,1.147415,-1.724331,-1.286167,-2.489270,0.098451,0.395575,-1.005434,1.045867,-0.370004,-0.129292
3903.226000,1.272000,END g_bow,None,0,,0.000000,0.299254,0.698810,0.085318,-1.791655,-2.093277,0.782215,-2.257811,-0.435642,1.139485,-1.716064,-1.289158,-2.490269,0.099018,0.394613,-1.003440,1.045468,-0.373371,-0.129584
3903.234000,1.280000,END g_bow,None,0,,0.000000,0.299689,0.700297,0.085226,-1.790259,-2.096313,0.787830,-2.256992,-0.432452,1.131403,-1.707686,-1.292150,-2.491328,0.100919,0.396065,-1.003541,1.047128,-0.370948,-0.130239
3903.242000,1.288000,END g_bow,None,0,,0.000000,0.300139,0.701768,0.085109,-1.788910,-2.099293,0.793428,-2.256209,-0.429211,1.123305,-1.699362,-1.295141,-2.492354,0.099629,0.393866,-1.002062,1.047829,-0.374919,-0.129206
3903.250000,1.296000,END g_bow,None,0,,0.000000,0.300521,0.703228,0.085015,-1.787454,-2.102226,0.799295,-2.255364,-0.426060,1.115337,-1.690892,-1.298098,-2.493380,0.101661,0.393438,-1.004800,1.046146,-0.374897,-0.127529
3903.258000,1.304000,END g_bow,None,0,,0.000000,0.300971,0.704639,0.084909,-1.786084,-2.105106,0.804966,-2.254635,-0.422886,1.107390,-1.682593,-1.301069,-2.494413,0.098980,0.395500,-1.004361,1.044450,-0.372714,-0.130758
3903.266000,1.312000,END g_bow,None,0,,0.000000,0.301393,0.706087,0.084830,-1.784670,-2.108087,0.810662,-2.253848,-0.419675,1.099278,-1.674177,-1.304090,-2.495432,0.097768,0.395553,-1.002441,1.050854,-0.373719,-0.129893
3903.274000,1.320000,END g_bow,None,0,,0.000000,0.301830,0.707500,0.084749,-1.783208,-2.110969,0.816348,-2.253105,-0.416473,1.091228,-1.665798,-1.307041,-2.496485,0.096861,0.397937,-1.002336,1.045788,-0.373470,-0.129471
3903.282000,1.328000,END g_bow,None,0,,0.000000,0.302191,0.708908,0.084694,-1.781674,-2.113927,0.822189,-2.252291,-0.413362,1.083293,-1.657362,-1.310038,-2.497527,0.101768,0.396627,-1.001945,1.050999,-0.373105,-0.130627
3903.290000,1.336000,END g_bow,None,0,,0.000000,0.302583,0.710303,0.084666,-1.780206,-2.116958,0.827703,-2.251522,-0.410248,1.075310,-1.649122,-1.313068,-2.498555,0.099386,0.396706,-1.006961,1.046263,-0.371959,-0.129458
3903.298000,1.344000,END g_bow,None,0,,0.000000,0.302916,0.711732,0.084610,-1.778562,-2.119919,0.833550,-2.250662,-0.407042,1.067212,-1.640623,-1.316020,-2.499601,0.101003,0.396616,-1.004098,1.049598,-0.375352,-0.130154
3903.306000,1.352000,END g_bow,None,0,,0.000000,0.303303,0.713125,0.084602,-1.777014,-2.122861,0.839162,-2.249893,-0.403898,1.059136,-1.632246,-1.318992,-2.500635,0.101485,0.398663,-1.004609,1.046772,-0.375242,-0.130331
3903.314000,1.360000,END g_bow,None,0,,0.000000,0.303636,0.714507,0.084578,-1.775405,-2.125983,0.844740,-2.249079,-0.400755,1.051120,-1.623985,-1.322061,-2.501689,0.104498,0.392867,-1.004829,1.048628,-0.372689,-0.127548
3903.322000,1.368000,END g_bow,None,0,,0.000000,0.303948,0.715898,0.084568,-1.773691,-2.128975,0.850333,-2.248233,-0.397592,1.043063,-1.615667,-1.324977,-2.502750,0.102351,0.390492,-1.009000,1.044555,-0.372624,-0.130689
3903.330000,1.376000,END g_bow,None,0,,0.000000,0.304304,0.717262,0.084558,-1.772006,-2.131832,0.856050,-2.247457,-0.394417,1.034985,-1.607241,-1.327880,-2.503809,0.099632,0.393159,-1.003882,1.054113,-0.373739,-0.128817
3903.338000,1.384000,END g_bow,None,0,,0.000000,0.304629,0.718612,0.084500,-1.770337,-2.134752,0.861951,-2.246667,-0.391196,1.026933,-1.598795,-1.330900,-2.504835,0.098950,0.396246,-1.004259,1.050893,-0.373804,-0.128788
3903.346000,1.392000,END g_bow,None,0,,0.000000,0.304937,0.719952,0.084499,-1.768627,-2.137752,0.867691,-2.245869,-0.388060,1.018923,-1.590426,-1.333928,-2.505882,0.100205,0.395111,-1.006195,1.048969,-0.374408,-0.130793
3903.354000,1.400000,END g_bow,None,0,,0.000000,0.305251,0.721266,0.084490,-1.766882,-2.140569,0.873549,-2.245097,-0.384925,1.010966,-1.582002,-1.336850,-2.506924,0.100012,0.394517,-1.004367,1.045063,-0.374254,-0.132138
3903.362000,1.408000,END g_bow,None,0,,0.000000,0.305516,0.722601,0.084494,-1.765102,-2.143656,0.879281,-2.244263,-0.381765,1.002921,-1.573654,-1.339922,-2.507970,0.100172,0.399662,-1.001429,1.050102,-0.372365,-0.128144
3903.370000,1.416000,END g_bow,None,0,,0.000000,0.305792,0.723923,0.084508,-1.763281,-2.146648,0.884988,-2.243448,-0.378599,0.994863,-1.565297,-1.342912,-2.509028,0.100898,0.401191,-1.002018,1.043896,-0.372460,-0.127874
3903.378000,1.424000,END g_bow,None,0,,0.000000,0.306028,0.725233,0.084508,-1.761393,-2.149589,0.890788,-2.242604,-0.375439,0.986880,-1.556944,-1.345855,-2.510082,0.100897,0.396811,-1.006018,1.045725,-0.372947,-0.130273
3903.386000,1.432000,END g_bow,None,0,,0.000000,0.306272,0.726544,0.084536,-1.759553,-2.152498,0.896643,-2.241773,-0.372286,0.978832,-1.548495,-1.348827,-2.511088,0.102510,0.396480,-1.006122,1.049244,-0.374150,-0.128044
3903.394000,1.440000,END g_bow,None,0,,0.000000,0.306510,0.727843,0.084514,-1.757631,-2.155442,0.902449,-2.240943,-0.369034,0.970743,-1.540136,-1.351793,-2.512142,0.103526,0.396760,-1.002658,1.049170,-0.374694,-0.127625
3903.402000,1.448000,END g_bow,None,0,,0.000000,0.306737,0.729126,0.084509,-1.755756,-2.158399,0.908231,-2.240120,-0.365825,0.962705,-1.531821,-1.354796,-2.513153,0.103314,0.392336,-1.002859,1.046482,-0.372823,-0.128261
3903.410000,1.456000,END g_bow,None,0,,0.000000,0.306955,0.730390,0.084540,-1.753845,-2.161292,0.914060,-2.239305,-0.362686,0.954734,-1.523463,-1.357763,-2.514168,0.100772,0.392149,-1.002811,1.048967,-0.374748,-0.130142
3903.418000,1.464000,END g_bow,None,0,,0.000000,0.307192,0.731635,0.084583,-1.751857,-2.164214,0.919945,-2.238521,-0.359535,0.946708,-1.515019,-1.360771,-2.515248,0.098330,0.392393,-1.004140,1.048471,-0.374274,-0.127677
3903.426000,1.472000,END g_bow,None,0,,0.000000,0.307411,0.732903,0.084627,-1.749962,-2.167084,0.925799,-2.237711,-0.356339,0.938593,-1.506578,-1.363759,-2.516214,0.096889,0.397080,-1.002551,1.047445,-0.372651,-0.129886
3903.434000,1.480000,END g_bow,None,0,,0.000000,0.307634,0.734127,0.084700,-1.748027,-2.169973,0.931528,-2.236936,-0.353232,0.930618,-1.498268,-1.366741,-2.517228,0.098277,0.395252,-1.001011,1.043620,-0.373586,-0.130657
3903.442000,1.488000,END g_bow,None,0,,0.000000,0.307847,0.735341,0.084759,-1.746035,-2.172823,0.937386,-2.236161,-0.350092,0.922622,-1.489878,-1.369719,-2.518254,0.095838,0.397964,-1.000261,1.045653,-0.372860,-0.131034
3903.450000,1.496000,END g_bow,None,0,,0.000000,0.308028,0.736554,0.084807,-1.743930,-2.175815,0.943191,-2.235350,-0.346912,0.914591,-1.481543,-1.372747,-2.519337,0.097680,0.397083,-1.005609,1.051161,-0.372857,-0.130367
3903.458000,1.504000,END g_bow,Note,0,A,0.494958,0.308245,0.737759,0.084875,-1.741880,-2.178693,0.949041,-2.234587,-0.343716,0.906472,-1.473103,-1.375756,-2.520383,0.101390,0.399056,-0.999911,1.047881,-0.371843,-0.131491
3903.466000,1.512000,END g_bow,Note,0,A,0.486958,0.308395,0.738959,0.084926,-1.739744,-2.181508,0.954882,-2.233761,-0.340534,0.898475,-1.464768,-1.378649,-2.521413,0.099459,0.396677,-1.004047,1.048643,-0.375219,-0.130110
3903.474000,1.520000,END g_bow,Note,0,A,0.478958,0.308561,0.740130,0.084987,-1.737594,-2.184412,0.960750,-2.232974,-0.337373,0.890490,-1.456422,-1.381656,-2.522477,0.099919,0.393893,-1.005095,1.046898,-0.374469,-0.131602
3903.482000,1.528000,END g_bow,Note,0,A,0.470958,0.308709,0.741312,0.085065,-1.735473,-2.187338,0.966542,-2.232164,-0.334198,0.882442,-1.448100,-1.384666,-2.523491,0.102322,0.389576,-1.004934,1.047263,-0.372618,-0.130764
3903.490000,1.536000,END g_bow,Note,0,A,0.462958,0.308881,0.742486,0.085172,-1.733316,-2.190165,0.972468,-2.231386,-0.331017,0.874303,-1.439588,-1.387656,-2.524519,0.099658,0.397637,-1.002238,1.050788,-0.371777,-0.130122
3903.498000,1.544000,END g_bow,Note,0,A,0.454958,0.309013,0.743635,0.085261,-1.731151,-2.192940,0.978272,-2.230588,-0.327879,0.866348,-1.431297,-1.390559,-2.525518,0.100219,0.395419,-1.005095,1.043586,-0.371648,-0.131325
3903.506000,1.552000,END g_bow,Note,0,A,0.446958,0.309150,0.744747,0.085332,-1.728881,-2.195779,0.984317,-2.229822,-0.324737,0.858424,-1.422883,-1.393586,-2.526594,0.100098,0.393540,-1.004409,1.047629,-0.373021,-0.132853
3903.514000,1.560000,END g_bow,Note,0,A,0.438958,0.309271,0.745901,0.085462,-1.726668,-2.198722,0.990113,-2.229012,-0.321567,0.850290,-1.414492,-1.396626,-2.527604,0.099278,0.396937,-1.003373,1.048209,-0.372989,-0.132211
3903.522000,1.568000,END g_bow,Note,0,A,0.430958,0.309391,0.747010,0.085540,-1.724325,-2.201453,0.996148,-2.228232,-0.318377,0.842287,-1.406043,-1.399551,-2.528673,0.097929,0.400407,-0.999226,1.047599,-0.374916,-0.130453
3903.530000,1.576000,END g_bow,Note,0,A,0.422958,0.309481,0.748119,0.085628,-1.722012,-2.204369,1.001993,-2.227426,-0.315195,0.834284,-1.397758,-1.402573,-2.529714,0.098168,0.397926,-1.004092,1.046387,-0.372250,-0.129971
3903.538000,1.584000,END g_bow,Note,0,A,0.414958,0.309555,0.749224,0.085758,-1.719654,-2.207275,1.007836,-2.226607,-0.312058,0.826276,-1.389425,-1.405575,-2.530759,0.099015,0.396103,-1.007008,1.042779,-0.372156,-0.132569
3903.546000,1.592000,END g_bow,Note,0,A,0.406958,0.309632,0.750316,0.085865,-1.717244,-2.210054,1.013951,-2.225802,-0.308876,0.818232,-1.380906,-1.408565,-2.531801,0.100669,0.395768,-1.004898,1.047104,-0.370878,-0.129295
3903.554000,1.600000,END g_bow,Note,0,A,0.398958,0.309682,0.751421,0.085980,-1.714808,-2.212905,1.019708,-2.224959,-0.305654,0.810136,-1.372619,-1.411474,-2.532846,0.101369,0.396367,-1.002412,1.045619,-0.373880,-0.127432
3903.562000,1.608000,END g_bow,Note,0,A,0.390958,0.309738,0.752486,0.086116,-1.712371,-2.215800,1.025640,-2.224157,-0.302515,0.802139,-1.364254,-1.414516,-2.533898,0.100735,0.390537,-1.005569,1.048317,-0.373771,-0.130229
3903.570000,1.616000,END g_bow,Note,0,A,0.382958,0.309801,0.753536,0.086274,-1.709941,-2.218667,1.031558,-2.223374,-0.299398,0.794143,-1.355879,-1.417558,-2.534940,0.099651,0.392977,-1.003548,1.048692,-0.373738,-0.131068
3903.578000,1.624000,END g_bow,Note,0,A,0.374958,0.309878,0.754580,0.086394,-1.707482,-2.221348,1.037598,-2.222610,-0.296185,0.786065,-1.347410,-1.420502,-2.535970,0.102245,0.395057,-1.003214,1.048503,-0.375054,-0.127938
3903.586000,1.632000,END g_bow,Note,0,A,0.366958,0.309944,0.755615,0.086556,-1.704996,-2.224130,1.043363,-2.221841,-0.293018,0.778006,-1.339107,-1.423435,-2.537027,0.097455,0.395318,-1.002524,1.048327,-0.373078,-0.130970
3903.594000,1.640000,END g_bow,Note,0,A,0.358958,0.309972,0.756625,0.086699,-1.702429,-2.226910,1.049429,-2.221053,-0.289883,0.770056,-1.330692,-1.426443,-2.538087,0.098476,0.396575,-1.004985,1.051447,-0.373461,-0.131922
3903.602000,1.648000,END g_bow,Note,0,A,0.350958,0.310005,0.757624,0.086839,-1.699853,-2.229634,1.055333,-2.220279,-0.286727,0.762103,-1.322391,-1.429366,-2.539152,0.099869,0.397288,-1.003831,1.045381,-0.372712,-0.130597
3903.610000,1.656000,END g_bow,Note,0,A,0.342958,0.310018,0.758638,0.087014,-1.697248,-2.232457,1.061314,-2.219476,-0.283554,0.754010,-1.313945,-1.432384,-2.540202,0.103229,0.398024,-1.003364,1.049396,-0.374403,-0.128771
3903.618000,1.664000,END g_bow,Note,0,A,0.334958,0.310018,0.759652,0.087194,-1.694666,-2.235312,1.067051,-2.218662,-0.280364,0.745902,-1.305673,-1.435356,-2.541231,0.099886,0.396374,-0.995180,1.036094,-0.370312,-0.129375
3903.626000,1.672000,END g_bow,Note,0,A,0.326958,0.309999,0.760611,0.087363,-1.692023,-2.237947,1.073197,-2.217871,-0.277297,0.738083,-1.297266,-1.438295,-2.542249,0.098621,0.389367,-0.984335,1.032073,-0.366388,-0.125705
3903.634000,1.680000,END g_bow,Note,0,A,0.318958,0.309955,0.761573,0.087499,-1.689445,-2.240681,1.078978,-2.217058,-0.274169,0.730259,-1.289185,-1.441208,-2.543225,0.099357,0.382110,-0.975072,1.014122,-0.363242,-0.123347
3903.642000,1.688000,END g_bow,Note,0,A,0.310958,0.309934,0.762517,0.087691,-1.686864,-2.243410,1.084648,-2.216279,-0.271098,0.722427,-1.281107,-1.444113,-2.544223,0.097760,0.376074,-0.963451,1.009825,-0.356130,-0.123328
3903.650000,1.696000,END g_bow,Note,0,A,0.302958,0.309888,0.763420,0.087812,-1.684253,-2.246050,1.090453,-2.215508,-0.268034,0.714811,-1.273143,-1.446997,-2.545208,0.093902,0.375877,-0.951872,0.996314,-0.353535,-0.123489
3903.658000,1.704000,END g_bow,Note,0,A,0.294958,0.309877,0.764294,0.087998,-1.681664,-2.248566,1.096223,-2.214793,-0.265070,0.707256,-1.265142,-1.449821,-2.546197,0.095753,0.370847,-0.942090,0.984371,-0.348989,-0.120556
3903.666000,1.712000,END g_bow,Note,0,A,0.286958,0.309806,0.765177,0.088160,-1.679113,-2.251081,1.101786,-2.214016,-0.262103,0.699789,-1.257379,-1.452555,-2.547114,0.091614,0.365864,-0.933839,0.968888,-0.347411,-0.121714
3903.674000,1.720000,END g_bow,Note,0,A,0.278958,0.309748,0.766038,0.088369,-1.676492,-2.253618,1.107285,-2.213265,-0.259196,0.692344,-1.249613,-1.455291,-2.548095,0.092501,0.365534,-0.920233,0.961256,-0.345126,-0.119537
3903.682000,1.728000,END g_bow,Note,0,A,0.270958,0.309704,0.766875,0.088569,-1.673981,-2.256118,1.112663,-2.212550,-0.256308,0.684973,-1.241994,-1.458021,-2.549016,0.091405,0.364151,-0.910050,0.949250,-0.339694,-0.119725
3903.690000,1.736000,END g_bow,Note,0,A,0.262958,0.309644,0.767689,0.088797,-1.671412,-2.258648,1.118015,-2.211835,-0.253503,0.677724,-1.234432,-1.460761,-2.549969,0.091127,0.355554,-0.899154,0.941509,-0.334750,-0.117562
3903.698000,1.744000,END g_bow,Note,0,A,0.254958,0.309534,0.768497,0.088998,-1.668836,-2.261214,1.123257,-2.211077,-0.250709,0.670589,-1.227056,-1.463469,-2.550894,0.090173,0.350511,-0.892813,0.926949,-0.331298,-0.116473
3903.706000,1.752000,END g_bow,Note,0,A,0.246958,0.309423,0.769278,0.089178,-1.666169,-2.263560,1.128696,-2.210334,-0.247933,0.663568,-1.219601,-1.466058,-2.551843,0.089301,0.347386,-0.878249,0.921016,-0.326142,-0.114865
3903.714000,1.760000,END g_bow,Note,0,A,0.238958,0.309326,0.770052,0.089337,-1.663686,-2.265891,1.133884,-2.209619,-0.245124,0.656552,-1.212371,-1.468629,-2.552693,0.091343,0.343745,-0.867406,0.904503,-0.320869,-0.112670
3903.722000,1.768000,END g_bow,Note,0,A,0.230958,0.309212,0.770807,0.089539,-1.661098,-2.268256,1.139034,-2.208897,-0.242410,0.649640,-1.205167,-1.471187,-2.553605,0.087753,0.336622,-0.859223,0.894644,-0.316192,-0.109478
3903.730000,1.776000,END g_bow,Note,0,A,0.222958,0.309120,0.771533,0.089732,-1.658559,-2.270561,1.144065,-2.208218,-0.239713,0.642814,-1.198102,-1.473708,-2.554509,0.085996,0.329328,-0.850426,0.889311,-0.313277,-0.110581
3903.738000,1.784000,END g_bow,Note,0,A,0.214958,0.309009,0.772231,0.089887,-1.656036,-2.272674,1.149427,-2.207547,-0.237064,0.636175,-1.190947,-1.476209,-2.555343,0.085036,0.329166,-0.839823,0.877439,-0.314480,-0.108749
3903.746000,1.792000,END g_bow,Note,0,A,0.206958,0.308913,0.772923,0.090060,-1.653529,-2.274886,1.154440,-2.206892,-0.234395,0.629481,-1.183996,-1.478690,-2.556212,0.081138,0.326720,-0.825190,0.865560,-0.307664,-0.106325
3903.754000,1.800000,END g_bow,Note,0,A,0.198958,0.308825,0.773606,0.090270,-1.651083,-2.277048,1.159286,-2.206254,-0.231784,0.622833,-1.177136,-1.481107,-2.557053,0.078923,0.326756,-0.815784,0.850417,-0.304157,-0.106139
3903.762000,1.808000,END g_bow,Note,0,A,0.190958,0.308700,0.774257,0.090444,-1.648564,-2.279147,1.164309,-2.205603,-0.229240,0.616428,-1.170329,-1.483516,-2.557899,0.077167,0.317225,-0.802207,0.840708,-0.298852,-0.105150
3903.770000,1.816000,END g_bow,Note,0,A,0.182958,0.308589,0.774900,0.090670,-1.646147,-2.281311,1.168926,-2.204973,-0.226771,0.610073,-1.163774,-1.485881,-2.558727,0.077258,0.312384,-0.793969,0.827382,-0.292705,-0.103432
3903.778000,1.824000,END g_bow,Note,0,A,0.174958,0.308473,0.775520,0.090863,-1.643739,-2.283364,1.173732,-2.204358,-0.224312,0.603823,-1.157184,-1.488246,-2.559520,0.075445,0.310617,-0.783265,0.820312,-0.291055,-0.103050
3903.786000,1.832000,END g_bow,Note,0,A,0.166958,0.308373,0.776130,0.091060,-1.641339,-2.285448,1.178273,-2.203763,-0.221835,0.597555,-1.150765,-1.490563,-2.560344,0.075142,0.307550,-0.772224,0.805313,-0.287784,-0.100429
3903.794000,1.840000,END g_bow,Note,0,A,0.158958,0.308241,0.776734,0.091252,-1.638870,-2.287402,1.182960,-2.203140,-0.219393,0.591389,-1.144289,-1.492794,-2.561161,0.074702,0.302615,-0.763036,0.794473,-0.280525,-0.099928
3903.802000,1.848000,END g_bow,Note,0,A,0.150958,0.308140,0.777307,0.091495,-1.636523,-2.289423,1.187347,-2.202572,-0.217075,0.585361,-1.138047,-1.495052,-2.561962,0.075049,0.293563,-0.752562,0.783779,-0.279122,-0.096827
3903.810000,1.856000,END g_bow,Note,0,A,0.142958,0.308004,0.777883,0.091715,-1.634132,-2.291369,1.191831,-2.201969,-0.214738,0.579364,-1.131778,-1.497252,-2.562743,0.073722,0.290628,-0.743933,0.768662,-0.274439,-0.094836
3903.818000,1.864000,END g_bow,Note,0,A,0.134958,0.307873,0.778431,0.091869,-1.631818,-2.293323,1.196270,-2.201395,-0.212381,0.573503,-1.125711,-1.499492,-2.563484,0.070547,0.287232,-0.731393,0.762976,-0.270756,-0.096965
3903.834000,1.880000,END g_bow,Note,0,A,0.118958,0.307608,0.779499,0.092207,-1.627128,-2.296933,1.205087,-2.200261,-0.207745,0.561921,-1.113610,-1.503716,-2.564986,0.070275,0.278927,-0.706700,0.740742,-0.266508,-0.093007
3903.850000,1.896000,END g_bow,Note,0,A,0.102958,0.307335,0.780494,0.092567,-1.622546,-2.300480,1.213549,-2.199174,-0.203359,0.550862,-1.102011,-1.507845,-2.566452,0.066473,0.272465,-0.685422,0.715864,-0.255028,-0.086800
3903.858000,1.904000,END g_bow,Note,0,A,0.094958,0.307175,0.780975,0.092736,-1.620284,-2.302271,1.217783,-2.198623,-0.201217,0.545471,-1.096314,-1.509938,-2.567145,0.067092,0.269367,-0.674316,0.706369,-0.251841,-0.085862
3903.874000,1.920000,END g_bow,Note,0,A,0.078958,0.306874,0.781912,0.093105,-1.615808,-2.305679,1.225787,-2.197554,-0.197009,0.534841,-1.085245,-1.513857,-2.568554,0.063888,0.260786,-0.654176,0.681856,-0.242219,-0.083939
3903.890000,1.936000,END g_bow,Note,0,A,0.062958,0.306543,0.782822,0.093549,-1.611552,-2.309074,1.233342,-2.196484,-0.193044,0.524560,-1.074597,-1.517676,-2.569841,0.063265,0.249684,-0.632955,0.661599,-0.236679,-0.081741
3903.898000,1.944000,END g_bow,Note,0,A,0.054958,0.306406,0.783251,0.093784,-1.609425,-2.310696,1.237037,-2.195993,-0.191103,0.519495,-1.069340,-1.519531,-2.570512,0.060806,0.243195,-0.625216,0.648438,-0.232948,-0.078837
3903.906000,1.952000,END g_bow,Note,0,A,0.046958,0.306268,0.783657,0.093975,-1.607339,-2.312226,1.240855,-2.195522,-0.189179,0.514578,-1.064131,-1.521387,-2.571138,0.059668,0.237342,-0.612961,0.639857,-0.228136,-0.077848
3903.914000,1.960000,END g_bow,Note,0,A,0.038958,0.306092,0.784068,0.094169,-1.605225,-2.313844,1.244445,-2.195008,-0.187286,0.509742,-1.059126,-1.523195,-2.571786,0.057797,0.235919,-0.603520,0.624027,-0.223700,-0.077951
3903.922000,1.968000,END g_bow,Note,0,A,0.030958,0.305978,0.784454,0.094362,-1.603217,-2.315292,1.248024,-2.194575,-0.185389,0.504907,-1.054110,-1.524950,-2.572403,0.057345,0.231786,-0.592762,0.615647,-0.219767,-0.073725
3903.930000,1.976000,END g_bow,Note,0,A,0.022958,0.305808,0.784843,0.094510,-1.601184,-2.316826,1.251544,-2.194085,-0.183493,0.500197,-1.049274,-1.526710,-2.573004,0.057181,0.231785,-0.578613,0.604991,-0.215353,-0.073395
3903.938000,1.984000,END g_bow,Note,0,A,0.014958,0.305679,0.785199,0.094646,-1.599214,-2.318146,1.255070,-2.193662,-0.181652,0.495650,-1.044506,-1.528364,-2.573593,0.055677,0.228907,-0.566777,0.592327,-0.210149,-0.073131
3903.946000,1.992000,END g_bow,Note,0,A,0.006958,0.305512,0.785565,0.094788,-1.597257,-2.319591,1.258508,-2.193195,-0.179827,0.491122,-1.039824,-1.530063,-2.574154,0.054611,0.221079,-0.557154,0.580926,-0.208783,-0.070555
3903.954000,2.000000,END g_bow,Note,0,A,0.873958,0.305350,0.785913,0.094920,-1.595374,-2.320970,1.261877,-2.192747,-0.178063,0.486755,-1.035284,-1.531718,-2.574679,0.054249,0.216919,-0.547371,0.572392,-0.203491,-0.069181
3903.962000,2.008000,END g_bow,Note,0,A,0.865958,0.305222,0.786236,0.095089,-1.593458,-2.322266,1.265175,-2.192347,-0.176377,0.482477,-1.030771,-1.533306,-2.575263,0.054349,0.211969,-0.536988,0.565581,-0.200462,-0.068808
3903.970000,2.016000,END g_bow,Note,0,A,0.857958,0.305057,0.786556,0.095196,-1.591539,-2.323536,1.268568,-2.191917,-0.174670,0.478314,-1.026336,-1.534892,-2.575806,0.053420,0.207757,-0.525508,0.555666,-0.195965,-0.066659
3903.978000,2.024000,END g_bow,Note,0,A,0.849958,0.304920,0.786877,0.095379,-1.589696,-2.324791,1.271748,-2.191513,-0.173025,0.474097,-1.021920,-1.536425,-2.576344,0.051858,0.203870,-0.516413,0.540857,-0.193322,-0.067774
3903.986000,2.032000,END g_bow,Note,0,A,0.841958,0.304782,0.787186,0.095543,-1.587904,-2.326048,1.274841,-2.191118,-0.171409,0.469996,-1.017652,-1.537948,-2.576860,0.051988,0.201375,-0.506038,0.530041,-0.188921,-0.065425
3903.994000,2.040000,END g_bow,Note,0,A,0.833958,0.304611,0.787501,0.095753,-1.586131,-2.327404,1.277783,-2.190687,-0.169888,0.465983,-1.013493,-1.539476,-2.577361,0.050150,0.193253,-0.492697,0.515279,-0.182402,-0.063779
3904.002000,2.048000,END g_bow,Note,0,A,0.825958,0.304477,0.787789,0.095939,-1.584407,-2.328633,1.280676,-2.190312,-0.168384,0.462082,-1.009437,-1.540936,-2.577866,0.048514,0.188078,-0.484874,0.503501,-0.179695,-0.062141
3904.010000,2.056000,END g_bow,Note,0,A,0.817958,0.304336,0.788076,0.096136,-1.582705,-2.329834,1.283502,-2.189932,-0.166915,0.458234,-1.005436,-1.542352,-2.578358,0.046604,0.182673,-0.474994,0.493749,-0.175149,-0.061765
3904.018000,2.064000,END g_bow,Note,0,A,0.809958,0.304179,0.788353,0.096287,-1.580966,-2.330999,1.286340,-2.189542,-0.165443,0.454510,-1.001543,-1.543727,-2.578862,0.046417,0.180421,-0.461922,0.480599,-0.171050,-0.061946
3904.026000,2.072000,END g_bow,Note,0,A,0.801958,0.304036,0.788624,0.096482,-1.579369,-2.332204,1.288953,-2.189174,-0.164053,0.450847,-0.997794,-1.545102,-2.579317,0.047127,0.175040,-0.451572,0.469386,-0.168616,-0.058548
3904.034000,2.080000,END g_bow,Note,0,A,0.793958,0.303902,0.788874,0.096622,-1.577763,-2.333190,1.291742,-2.188830,-0.162666,0.447341,-0.994044,-1.546383,-2.579757,0.045914,0.173504,-0.439075,0.461748,-0.161896,-0.057398
3904.042000,2.088000,END g_bow,Note,0,A,0.785958,0.303770,0.789126,0.096783,-1.576214,-2.334266,1.294285,-2.188487,-0.161302,0.443840,-0.990450,-1.547658,-2.580197,0.043661,0.169959,-0.430425,0.446596,-0.159985,-0.055391
3904.050000,2.096000,END g_bow,Note,0,A,0.777958,0.303627,0.789367,0.096902,-1.574613,-2.335323,1.296869,-2.188140,-0.159923,0.440425,-0.986921,-1.548922,-2.580659,0.042089,0.164925,-0.419716,0.437843,-0.156776,-0.054288
3904.058000,2.104000,END g_bow,Note,0,A,0.769958,0.303493,0.789600,0.097047,-1.573083,-2.336324,1.299385,-2.187808,-0.158621,0.437107,-0.983452,-1.550142,-2.581090,0.041448,0.162190,-0.406725,0.429551,-0.154195,-0.053284
3904.066000,2.112000,END g_bow,Note,0,A,0.761958,0.303338,0.789830,0.097172,-1.571584,-2.337318,1.301850,-2.187461,-0.157349,0.433909,-0.980106,-1.551334,-2.581494,0.040830,0.161786,-0.397092,0.416078,-0.146903,-0.051890
3904.074000,2.120000,END g_bow,Note,0,A,0.753958,0.303220,0.790044,0.097311,-1.570160,-2.338293,1.304228,-2.187162,-0.156108,0.430743,-0.976821,-1.552532,-2.581890,0.039340,0.153432,-0.385588,0.407635,-0.145597,-0.050979
3904.082000,2.128000,END g_bow,Note,0,A,0.745958,0.303074,0.790255,0.097399,-1.568705,-2.339110,1.306673,-2.186838,-0.154871,0.427734,-0.973608,-1.553602,-2.582274,0.039966,0.150395,-0.374664,0.395807,-0.137570,-0.050317
3904.090000,2.136000,END g_bow,Note,0,A,0.737958,0.302957,0.790443,0.097513,-1.567247,-2.340043,1.308988,-2.186555,-0.153695,0.424788,-0.970501,-1.554748,-2.582708,0.037073,0.146678,-0.366077,0.382566,-0.133731,-0.048227
3904.098000,2.144000,END g_bow,Note,0,A,0.729958,0.302835,0.790637,0.097612,-1.565910,-2.340885,1.311118,-2.186267,-0.152531,0.421922,-0.967565,-1.555772,-2.583084,0.035246,0.140410,-0.355154,0.371434,-0.131186,-0.045358
3904.106000,2.152000,END g_bow,Note,0,A,0.721958,0.302701,0.790828,0.097726,-1.564603,-2.341727,1.313251,-2.185973,-0.151436,0.419156,-0.964666,-1.556801,-2.583432,0.035354,0.138304,-0.345791,0.360231,-0.128942,-0.041627
3904.114000,2.160000,END g_bow,Note,0,A,0.713958,0.302625,0.790986,0.097812,-1.563377,-2.342501,1.315414,-2.185759,-0.150335,0.416449,-0.961812,-1.557867,-2.583767,0.033715,0.132496,-0.336090,0.346270,-0.125349,-0.042241
3904.122000,2.168000,END g_bow,Note,0,A,0.705958,0.302471,0.791170,0.097883,-1.562063,-2.343283,1.317493,-2.185449,-0.149250,0.413835,-0.959071,-1.558813,-2.584115,0.032340,0.127389,-0.324829,0.338423,-0.120700,-0.043129
3904.130000,2.176000,END g_bow,Note,0,A,0.697958,0.302368,0.791332,0.097975,-1.560905,-2.344069,1.319426,-2.185209,-0.148224,0.411285,-0.956446,-1.559796,-2.584422,0.033254,0.122166,-0.312527,0.326268,-0.117067,-0.040503
3904.138000,2.184000,END g_bow,Note,0,A,0.689958,0.302256,0.791492,0.098076,-1.559718,-2.344769,1.321298,-2.184959,-0.147254,0.408848,-0.953888,-1.560669,-2.584753,0.030983,0.115793,-0.301765,0.316226,-0.111158,-0.037800
3904.146000,2.192000,END g_bow,Note,0,A,0.681958,0.302144,0.791656,0.098202,-1.558606,-2.345510,1.322972,-2.184707,-0.146316,0.406424,-0.951447,-1.561514,-2.585065,0.029517,0.112946,-0.290353,0.303465,-0.107763,-0.037288
3904.154000,2.200000,END g_bow,Note,0,A,0.673958,0.302066,0.791792,0.098321,-1.557556,-2.346218,1.324702,-2.184511,-0.145442,0.404141,-0.949054,-1.562412,-2.585357,0.028895,0.108668,-0.279843,0.294631,-0.103074,-0.036482
3904.162000,2.208000,END g_bow,Note,0,A,0.665958,0.301970,0.791929,0.098436,-1.556503,-2.346894,1.326370,-2.184295,-0.144604,0.401955,-0.946750,-1.563244,-2.585648,0.026741,0.106164,-0.268579,0.283793,-0.099682,-0.035654
3904.170000,2.216000,END g_bow,Note,0,A,0.657958,0.301858,0.792072,0.098565,-1.555481,-2.347620,1.327872,-2.184060,-0.143805,0.399827,-0.944576,-1.564044,-2.585936,0.026761,0.098859,-0.259943,0.270048,-0.098141,-0.033657
3904.178000,2.224000,END g_bow,Note,0,A,0.649958,0.301789,0.792187,0.098671,-1.554541,-2.348138,1.329474,-2.183891,-0.143051,0.397853,-0.942418,-1.564781,-2.586187,0.025212,0.093704,-0.248032,0.259870,-0.092329,-0.032508
3904.186000,2.232000,END g_bow,Note,0,A,0.641958,0.301715,0.792303,0.098769,-1.553644,-2.348697,1.330884,-2.183715,-0.142309,0.395934,-0.940429,-1.565480,-2.586439,0.024031,0.091187,-0.237380,0.243719,-0.088314,-0.030226
3904.194000,2.240000,END g_bow,Note,0,A,0.633958,0.301604,0.792438,0.098898,-1.552766,-2.349257,1.332209,-2.183492,-0.141622,0.394058,-0.938482,-1.566114,-2.586663,0.023605,0.087541,-0.226996,0.237297,-0.085951,-0.028431
3904.202000,2.248000,END g_bow,Note,0,A,0.625958,0.301519,0.792543,0.098958,-1.551868,-2.349800,1.333558,-2.183313,-0.140908,0.392312,-0.936669,-1.566773,-2.586922,0.022048,0.087634,-0.216029,0.225949,-0.080936,-0.027597
3904.210000,2.256000,END g_bow,Note,0,A,0.617958,0.301438,0.792651,0.099052,-1.551105,-2.350352,1.334766,-2.183141,-0.140265,0.390620,-0.934946,-1.567420,-2.587118,0.020842,0.079521,-0.205479,0.211985,-0.076851,-0.025300
3904.218000,2.264000,END g_bow,Note,0,A,0.609958,0.301368,0.792740,0.099096,-1.550341,-2.350810,1.336074,-2.182993,-0.139623,0.389061,-0.933273,-1.568047,-2.587310,0.019890,0.076160,-0.197618,0.204363,-0.071310,-0.024759
3904.226000,2.272000,END g_bow,Note,0,A,0.601958,0.301292,0.792832,0.099169,-1.549552,-2.351243,1.337270,-2.182834,-0.139032,0.387552,-0.931654,-1.568595,-2.587533,0.018088,0.071767,-0.183250,0.191506,-0.067529,-0.023546
3904.234000,2.280000,END g_bow,Note,0,A,0.593958,0.301218,0.792922,0.099215,-1.548913,-2.351638,1.338362,-2.182686,-0.138457,0.386142,-0.930192,-1.569111,-2.587678,0.017795,0.068800,-0.173343,0.182851,-0.064200,-0.023184
3904.242000,2.288000,END g_bow,Note,0,A,0.585958,0.301159,0.792997,0.099269,-1.548233,-2.352072,1.339378,-2.182558,-0.137926,0.384815,-0.928815,-1.569636,-2.587876,0.016486,0.064769,-0.162271,0.168141,-0.060734,-0.022022
3904.250000,2.296000,END g_bow,Note,0,A,0.577958,0.301094,0.793074,0.099315,-1.547606,-2.352418,1.340353,-2.182426,-0.137423,0.383573,-0.927506,-1.570080,-2.588044,0.016106,0.060394,-0.152294,0.156786,-0.055637,-0.020435
3904.258000,2.304000,END g_bow,Note,0,A,0.569958,0.301049,0.793144,0.099361,-1.547091,-2.352752,1.341168,-2.182322,-0.136944,0.382387,-0.926335,-1.570495,-2.588181,0.014417,0.056193,-0.142086,0.146350,-0.050870,-0.018439
3904.266000,2.312000,END g_bow,Note,0,A,0.561958,0.300966,0.793224,0.099434,-1.546540,-2.353140,1.341941,-2.182171,-0.136541,0.381296,-0.925215,-1.570895,-2.588321,0.013992,0.051851,-0.131723,0.135707,-0.045939,-0.016951
3904.274000,2.320000,END g_bow,Note,0,A,0.553958,0.300925,0.793277,0.099483,-1.546014,-2.353464,1.342681,-2.182080,-0.136154,0.380307,-0.924189,-1.571279,-2.588487,0.012435,0.046677,-0.119598,0.127302,-0.045265,-0.014922
3904.282000,2.328000,END g_bow,Note,0,A,0.545958,0.300905,0.793332,0.099555,-1.545666,-2.353646,1.343350,-2.182015,-0.135814,0.379355,-0.923185,-1.571576,-2.588560,0.012447,0.041384,-0.108618,0.114976,-0.041241,-0.014423
3904.290000,2.336000,END g_bow,Note,0,A,0.537958,0.300857,0.793382,0.099604,-1.545260,-2.353937,1.343953,-2.181923,-0.135515,0.378555,-0.922349,-1.571904,-2.588668,0.010283,0.037844,-0.101029,0.103005,-0.037558,-0.013417
3904.298000,2.344000,END g_bow,Note,0,A,0.529958,0.300824,0.793423,0.099640,-1.544860,-2.354165,1.344505,-2.181852,-0.135227,0.377823,-0.921583,-1.572176,-2.588795,0.008404,0.033427,-0.087882,0.090415,-0.032878,-0.012136
3904.306000,2.352000,END g_bow,Note,0,A,0.521958,0.300804,0.793462,0.099700,-1.544595,-2.354370,1.344954,-2.181799,-0.134995,0.377140,-0.920885,-1.572431,-2.588860,0.006503,0.031298,-0.076952,0.079041,-0.027271,-0.009605
3904.314000,2.360000,END g_bow,Note,0,A,0.513958,0.300770,0.793496,0.099709,-1.544323,-2.354542,1.345351,-2.181735,-0.134760,0.376599,-0.920352,-1.572627,-2.588932,0.004090,0.026477,-0.064581,0.068697,-0.024388,-0.007345
3904.322000,2.368000,END g_bow,Note,0,A,0.505958,0.300783,0.793515,0.099747,-1.544162,-2.354640,1.345688,-2.181731,-0.134584,0.376101,-0.919837,-1.572807,-2.588976,0.002338,0.022382,-0.054942,0.057864,-0.020389,-0.004561
3904.330000,2.376000,END g_bow,Note,0,A,0.497958,0.300777,0.793534,0.099744,-1.544038,-2.354689,1.346007,-2.181711,-0.134413,0.375725,-0.919443,-1.572935,-2.588988,0.001597,0.017704,-0.043533,0.047671,-0.016690,-0.003200
3904.338000,2.384000,END g_bow,Note,0,A,0.489958,0.300790,0.793547,0.099796,-1.543930,-2.354803,1.346173,-2.181711,-0.134313,0.375363,-0.919099,-1.573075,-2.589031,0.000793,0.014300,-0.033760,0.036470,-0.013093,-0.001627
3904.346000,2.392000,END g_bow,Note,0,A,0.481958,0.300815,0.793542,0.099780,-1.543898,-2.354779,1.346383,-2.181739,-0.134221,0.375193,-0.918890,-1.573155,-2.589031,0.000093,0.009544,-0.022590,0.025071,-0.008332,-0.001256
3904.354000,2.400000,END g_bow,Note,0,A,0.473958,0.300820,0.793550,0.099788,-1.543876,-2.354718,1.346502,-2.181739,-0.134169,0.375060,-0.918723,-1.573148,-2.589024,0.000000,0.002588,-0.012000,0.014046,-0.001642,-0.000761
3904.362000,2.408000,START a_bow,Note,1,A,0.590958,0.300831,0.793545,0.099806,-1.543849,-2.354721,1.346477,-2.181751,-0.134188,0.375059,-0.918713,-1.573144,-2.589055,-0.001192,-0.000753,0.000986,0.000331,-0.000154,-0.000513
3904.370000,2.416000,START a_bow,Note,1,A,0.582958,0.300855,0.793523,0.099799,-1.543896,-2.354725,1.346455,-2.181791,-0.134253,0.375210,-0.918821,-1.573179,-2.589052,-0.011601,-0.034703,0.039620,-0.027550,0.000638,-0.000489
3904.378000,2.424000,START a_bow,Note,1,A,0.574958,0.300871,0.793477,0.099873,-1.543850,-2.354695,1.346516,-2.181835,-0.134570,0.375685,-0.918929,-1.573203,-2.589099,-0.011580,-0.040916,0.064846,-0.024451,-0.006818,-0.009354
3904.386000,2.432000,START a_bow,Note,1,A,0.566958,0.300909,0.793398,0.099890,-1.543749,-2.354683,1.346553,-2.181919,-0.134905,0.376355,-0.919223,-1.573251,-2.589214,-0.014832,-0.053339,0.090064,-0.039311,-0.011042,-0.014062
3904.394000,2.440000,START a_bow,Note,1,A,0.558958,0.300974,0.793292,0.099956,-1.543691,-2.354631,1.346711,-2.182050,-0.135403,0.377224,-0.919483,-1.573358,-2.589307,-0.015964,-0.066628,0.119131,-0.048830,-0.015377,-0.016444
3904.402000,2.448000,START a_bow,Note,1,A,0.550958,0.301033,0.793167,0.099993,-1.543595,-2.354630,1.346806,-2.182185,-0.135962,0.378308,-0.919938,-1.573479,-2.589439,-0.018761,-0.080413,0.147433,-0.065034,-0.014955,-0.015902
3904.410000,2.456000,START a_bow,Note,1,A,0.542958,0.301078,0.793026,0.100050,-1.543514,-2.354633,1.346907,-2.182318,-0.136676,0.379660,-0.920508,-1.573605,-2.589558,-0.020958,-0.091493,0.174989,-0.078631,-0.015612,-0.016314
3904.418000,2.464000,START a_bow,Note,1,A,0.534958,0.301161,0.792858,0.100136,-1.543527,-2.354585,1.346955,-2.182509,-0.137525,0.381219,-0.921182,-1.573734,-2.589659,-0.024821,-0.110062,0.205549,-0.089511,-0.017793,-0.017176
3904.426000,2.472000,START a_bow,Note,1,A,0.526958,0.301270,0.792654,0.100216,-1.543429,-2.354490,1.347066,-2.182744,-0.138462,0.382992,-0.921915,-1.573859,-2.589853,-0.028498,-0.123190,0.233090,-0.105463,-0.019503,-0.019236
3904.434000,2.480000,START a_bow,Note,1,A,0.518958,0.301375,0.792433,0.100290,-1.543421,-2.354437,1.347165,-2.182992,-0.139507,0.384995,-0.922803,-1.574042,-2.589993,-0.032520,-0.138449,0.261920,-0.119555,-0.022093,-0.021218
3904.442000,2.488000,START a_bow,Note,1,A,0.510958,0.301475,0.792195,0.100399,-1.543376,-2.354466,1.347209,-2.183243,-0.140684,0.387186,-0.923793,-1.574265,-2.590173,-0.034005,-0.150783,0.288396,-0.130825,-0.025393,-0.023466
3904.450000,2.496000,START a_bow,Note,1,A,0.502958,0.301617,0.791934,0.100566,-1.543432,-2.354466,1.347025,-2.183551,-0.142008,0.389547,-0.924945,-1.574437,-2.590361,-0.036481,-0.168779,0.313976,-0.146936,-0.025577,-0.025896
3904.458000,2.504000,START a_bow,Note,1,A,0.494958,0.301743,0.791638,0.100681,-1.543368,-2.354435,1.347113,-2.183865,-0.143428,0.392239,-0.926150,-1.574673,-2.590584,-0.039681,-0.182119,0.342697,-0.156794,-0.029923,-0.028248
3904.466000,2.512000,START a_bow,Note,1,A,0.486958,0.301832,0.791341,0.100802,-1.543238,-2.354488,1.347185,-2.184141,-0.144921,0.395069,-0.927440,-1.574928,-2.590832,-0.040979,-0.193473,0.368163,-0.170124,-0.031830,-0.031607
3904.474000,2.520000,START a_bow,Note,1,A,0.478958,0.301957,0.791011,0.100943,-1.543171,-2.354528,1.347182,-2.184477,-0.146540,0.398115,-0.928868,-1.575200,-2.591087,-0.044509,-0.210167,0.395117,-0.178252,-0.034962,-0.034199
3904.482000,2.528000,START a_bow,Note,1,A,0.470958,0.302140,0.790627,0.101104,-1.543073,-2.354509,1.347274,-2.184902,-0.148307,0.401420,-0.930335,-1.575526,-2.591402,-0.046563,-0.222583,0.421329,-0.189463,-0.038324,-0.038177
3904.490000,2.536000,START a_bow,Note,1,A,0.462958,0.302258,0.790256,0.101263,-1.542974,-2.354575,1.347274,-2.185256,-0.150151,0.404892,-0.931966,-1.575827,-2.591690,-0.050463,-0.231670,0.445904,-0.199742,-0.041693,-0.041401
3904.498000,2.544000,START a_bow,Note,1,A,0.454958,0.302432,0.789827,0.101442,-1.542817,-2.354539,1.347411,-2.185701,-0.152153,0.408647,-0.933609,-1.576159,-2.592049,-0.056137,-0.246896,0.467573,-0.208202,-0.042787,-0.043625
3904.506000,2.552000,START a_bow,Note,1,A,0.446958,0.302619,0.789380,0.101600,-1.542695,-2.354504,1.347591,-2.186173,-0.154173,0.412489,-0.935302,-1.576537,-2.592393,-0.062188,-0.258884,0.490885,-0.218402,-0.048946,-0.045343
3904.514000,2.560000,START a_bow,Note,1,A,0.438958,0.302821,0.788904,0.101805,-1.542571,-2.354446,1.347740,-2.186679,-0.156364,0.416570,-0.937077,-1.576909,-2.592764,-0.066456,-0.270539,0.510759,-0.227191,-0.049340,-0.047381
3904.522000,2.568000,START a_bow,Note,1,A,0.430958,0.303070,0.788399,0.101997,-1.542499,-2.354399,1.347812,-2.187250,-0.158561,0.420701,-0.938949,-1.577320,-2.593156,-0.070977,-0.284143,0.533148,-0.237275,-0.051194,-0.050127
3904.530000,2.576000,START a_bow,Note,1,A,0.422958,0.303312,0.787863,0.102172,-1.542350,-2.354330,1.347919,-2.187833,-0.160864,0.425109,-0.940954,-1.577721,-2.593602,-0.074496,-0.294302,0.558913,-0.246417,-0.053877,-0.053050
3904.538000,2.584000,START a_bow,Note,1,A,0.414958,0.303580,0.787304,0.102395,-1.542250,-2.354242,1.348062,-2.188459,-0.163280,0.429619,-0.942932,-1.578164,-2.594033,-0.077702,-0.307734,0.579590,-0.249349,-0.058269,-0.054176
3904.546000,2.592000,START a_bow,Note,1,A,0.406958,0.303847,0.786717,0.102609,-1.542159,-2.354129,1.348291,-2.189106,-0.165794,0.434351,-0.944982,-1.578639,-2.594454,-0.081766,-0.321674,0.598999,-0.258538,-0.059407,-0.056599
3904.554000,2.600000,START a_bow,Note,1,A,0.398958,0.304109,0.786107,0.102794,-1.542012,-2.354035,1.348506,-2.189761,-0.168352,0.439260,-0.947167,-1.579119,-2.594921,-0.087258,-0.332550,0.618930,-0.268387,-0.062374,-0.059918
3904.562000,2.608000,START a_bow,Note,1,A,0.390958,0.304399,0.785459,0.103063,-1.541820,-2.353926,1.348824,-2.190467,-0.171102,0.444348,-0.949271,-1.579658,-2.595431,-0.088516,-0.343230,0.637678,-0.273332,-0.065084,-0.062750
3904.570000,2.616000,START a_bow,Note,1,A,0.382958,0.304713,0.784790,0.103298,-1.541718,-2.353802,1.349027,-2.191214,-0.173848,0.449519,-0.951539,-1.580189,-2.595927,-0.093132,-0.352567,0.653569,-0.289493,-0.068229,-0.066215
3904.578000,2.624000,START a_bow,Note,1,A,0.374958,0.305037,0.784096,0.103576,-1.541545,-2.353663,1.349237,-2.191984,-0.176706,0.454823,-0.953808,-1.580713,-2.596486,-0.097089,-0.361361,0.671847,-0.289309,-0.071715,-0.067821
3904.586000,2.632000,START a_bow,Note,1,A,0.366958,0.305349,0.783382,0.103877,-1.541344,-2.353687,1.349359,-2.192756,-0.179659,0.460265,-0.956208,-1.581331,-2.597080,-0.099431,-0.373734,0.688195,-0.296715,-0.073641,-0.070935
3904.594000,2.640000,START a_bow,Note,1,A,0.358958,0.305714,0.782634,0.104225,-1.541231,-2.353598,1.349460,-2.193604,-0.182720,0.465810,-0.958601,-1.581927,-2.597667,-0.105253,-0.380644,0.703978,-0.306021,-0.075605,-0.073035
3904.602000,2.648000,START a_bow,Note,1,A,0.350958,0.306050,0.781875,0.104573,-1.541123,-2.353500,1.349578,-2.194434,-0.185867,0.471539,-0.961080,-1.582507,-2.598235,-0.107722,-0.391692,0.717118,-0.311442,-0.079358,-0.074693
3904.610000,2.656000,START a_bow,Note,1,A,0.342958,0.306412,0.781078,0.104929,-1.540948,-2.353435,1.349770,-2.195314,-0.189073,0.477365,-0.963554,-1.583170,-2.598865,-0.114254,-0.401165,0.728887,-0.309760,-0.081034,-0.077792
3904.618000,2.664000,START a_bow,Note,1,A,0.334958,0.306751,0.780283,0.105269,-1.540780,-2.353378,1.349962,-2.196172,-0.192262,0.483198,-0.966055,-1.583824,-2.599477,-0.096825,-0.377719,0.708578,-0.304434,-0.077906,-0.075375
3904.626000,2.672000,START a_bow,Note,1,A,0.326958,0.307099,0.779523,0.105606,-1.540622,-2.353311,1.350082,-2.197015,-0.195251,0.488624,-0.968391,-1.584432,-2.600087,-0.100249,-0.367693,0.674127,-0.288348,-0.079534,-0.075516
3904.634000,2.680000,START a_bow,Note,1,A,0.318958,0.307493,0.778759,0.105921,-1.540505,-2.353174,1.350289,-2.197908,-0.198108,0.493822,-0.970568,-1.585068,-2.600682,-0.106269,-0.355216,0.645519,-0.271029,-0.075606,-0.072455
3904.642000,2.688000,START a_bow,Note,1,A,0.310958,0.307820,0.778038,0.106222,-1.540344,-2.353107,1.350455,-2.198706,-0.200865,0.498847,-0.972708,-1.585660,-2.601257,-0.100861,-0.341075,0.621736,-0.262244,-0.074573,-0.069579
3904.650000,2.696000,START a_bow,Note,1,A,0.302958,0.308159,0.777318,0.106492,-1.540205,-2.352898,1.350791,-2.199521,-0.203535,0.503764,-0.974698,-1.586223,-2.601793,-0.099616,-0.327925,0.590960,-0.248224,-0.071026,-0.068630
3904.658000,2.704000,START a_bow,Note,1,A,0.294958,0.308476,0.776638,0.106783,-1.540076,-2.352855,1.350896,-2.200284,-0.206083,0.508376,-0.976679,-1.586790,-2.602336,-0.094404,-0.311383,0.562537,-0.238196,-0.066079,-0.064101
3904.666000,2.712000,START a_bow,Note,1,A,0.286958,0.308777,0.775986,0.107023,-1.539950,-2.352776,1.351045,-2.201015,-0.208461,0.512763,-0.978572,-1.587323,-2.602847,-0.089625,-0.296806,0.537599,-0.227639,-0.066520,-0.062671
3904.674000,2.720000,START a_bow,Note,1,A,0.278958,0.309042,0.775368,0.107280,-1.539770,-2.352717,1.351233,-2.201685,-0.210762,0.516944,-0.980308,-1.587829,-2.603350,-0.086789,-0.281365,0.511634,-0.214806,-0.062462,-0.061334
3904.682000,2.728000,START a_bow,Note,1,A,0.270958,0.309295,0.774777,0.107527,-1.539539,-2.352665,1.351482,-2.202325,-0.212931,0.520871,-0.981883,-1.588333,-2.603857,-0.080181,-0.264204,0.485526,-0.200811,-0.059869,-0.058487
3904.690000,2.736000,START a_bow,Note,1,A,0.262958,0.309560,0.774206,0.107748,-1.539489,-2.352621,1.351541,-2.202970,-0.214995,0.524643,-0.983546,-1.588808,-2.604281,-0.077317,-0.250395,0.461127,-0.198875,-0.056699,-0.054509
3904.698000,2.744000,START a_bow,Note,1,A,0.254958,0.309789,0.773666,0.107968,-1.539308,-2.352548,1.351766,-2.203554,-0.216956,0.528202,-0.984975,-1.589253,-2.604723,-0.077405,-0.238556,0.438453,-0.181659,-0.053072,-0.052492
3904.706000,2.752000,START a_bow,Note,1,A,0.246958,0.310051,0.773133,0.108185,-1.539251,-2.352441,1.351918,-2.204172,-0.218841,0.531603,-0.986377,-1.589691,-2.605116,-0.071331,-0.225247,0.415217,-0.172985,-0.052015,-0.048297
3904.714000,2.760000,START a_bow,Note,1,A,0.238958,0.310258,0.772639,0.108366,-1.539145,-2.352356,1.352089,-2.204708,-0.220610,0.534857,-0.987733,-1.590083,-2.605487,-0.068205,-0.217071,0.390138,-0.162784,-0.048761,-0.046610
3904.722000,2.768000,START a_bow,Note,1,A,0.230958,0.310508,0.772159,0.108607,-1.539151,-2.352274,1.352129,-2.205282,-0.222343,0.537873,-0.988981,-1.590475,-2.605831,-0.065289,-0.205356,0.365777,-0.151737,-0.046554,-0.044491
3904.730000,2.776000,START a_bow,Note,1,A,0.222958,0.310699,0.771717,0.108771,-1.539045,-2.352173,1.352302,-2.205767,-0.223898,0.540724,-0.990142,-1.590816,-2.606172,-0.061535,-0.194110,0.342714,-0.142240,-0.044239,-0.042563
3904.738000,2.784000,START a_bow,Note,1,A,0.214958,0.310921,0.771286,0.108959,-1.538929,-2.352116,1.352406,-2.206273,-0.225371,0.543340,-0.991199,-1.591179,-2.606546,-0.059265,-0.181870,0.321545,-0.131820,-0.042502,-0.039742
3904.746000,2.792000,START a_bow,Note,1,A,0.206958,0.311114,0.770904,0.109156,-1.538942,-2.352121,1.352299,-2.206722,-0.226747,0.545729,-0.992283,-1.591487,-2.606837,-0.054677,-0.168125,0.300659,-0.128095,-0.039125,-0.037011
3904.754000,2.800000,START a_bow,Note,1,A,0.198958,0.311294,0.770530,0.109281,-1.538870,-2.352033,1.352462,-2.207152,-0.227996,0.548032,-0.993216,-1.591799,-2.607121,-0.049536,-0.156733,0.277585,-0.114196,-0.035576,-0.034011
3904.762000,2.808000,START a_bow,Note,1,A,0.190958,0.311474,0.770180,0.109408,-1.538854,-2.351975,1.352525,-2.207567,-0.229161,0.550151,-0.994123,-1.592094,-2.607377,-0.046831,-0.145213,0.257491,-0.107263,-0.033713,-0.033446
3904.770000,2.816000,START a_bow,Note,1,A,0.182958,0.311578,0.769878,0.109508,-1.538695,-2.351932,1.352676,-2.207871,-0.230214,0.552114,-0.994916,-1.592323,-2.607644,-0.041196,-0.128997,0.238156,-0.096680,-0.031127,-0.029887
3904.778000,2.824000,START a_bow,Note,1,A,0.174958,0.311715,0.769584,0.109606,-1.538626,-2.351841,1.352891,-2.208206,-0.231186,0.553900,-0.995578,-1.592582,-2.607856,-0.037535,-0.117815,0.216170,-0.088724,-0.027941,-0.026999
3904.786000,2.832000,START a_bow,Note,1,A,0.166958,0.311816,0.769324,0.109681,-1.538550,-2.351815,1.352988,-2.208482,-0.232063,0.555554,-0.996285,-1.592797,-2.608060,-0.033339,-0.105651,0.195629,-0.077616,-0.024502,-0.024636
3904.794000,2.840000,START a_bow,Note,1,A,0.158958,0.311893,0.769106,0.109797,-1.538458,-2.351839,1.353012,-2.208702,-0.232880,0.556974,-0.996869,-1.592977,-2.608255,-0.029822,-0.097115,0.177004,-0.071224,-0.023830,-0.022020
3904.802000,2.848000,START a_bow,Note,1,A,0.150958,0.311986,0.768891,0.109862,-1.538410,-2.351751,1.353153,-2.208941,-0.233596,0.558311,-0.997383,-1.593138,-2.608407,-0.027202,-0.086978,0.154305,-0.062204,-0.021076,-0.019271
3904.810000,2.856000,START a_bow,Note,1,A,0.142958,0.312065,0.768711,0.109972,-1.538409,-2.351761,1.353137,-2.209142,-0.234272,0.559445,-0.997855,-1.593293,-2.608535,-0.024156,-0.073733,0.135841,-0.054068,-0.017462,-0.017124
3904.818000,2.864000,START a_bow,Note,1,A,0.134958,0.312181,0.768542,0.110060,-1.538440,-2.351713,1.353076,-2.209372,-0.234821,0.560375,-0.998267,-1.593413,-2.608671,-0.021030,-0.066353,0.111181,-0.046368,-0.015280,-0.014051
3904.826000,2.872000,START a_bow,Note,1,A,0.126958,0.312232,0.768414,0.110105,-1.538377,-2.351671,1.353188,-2.209508,-0.235251,0.561160,-0.998541,-1.593518,-2.608775,-0.017869,-0.054498,0.088329,-0.039066,-0.012413,-0.011801
3904.834000,2.880000,START a_bow,Note,1,A,0.118958,0.312268,0.768315,0.110183,-1.538334,-2.351710,1.353156,-2.209609,-0.235651,0.561802,-0.998805,-1.593605,-2.608874,-0.014152,-0.042068,0.071710,-0.030126,-0.009787,-0.009223
3904.842000,2.888000,START a_bow,Note,1,A,0.110958,0.312309,0.768243,0.110208,-1.538390,-2.351682,1.353129,-2.209701,-0.235892,0.562244,-0.999025,-1.593653,-2.608898,-0.010552,-0.030808,0.051308,-0.020892,-0.003569,-0.002826
3904.850000,2.896000,START a_bow,Note,1,A,0.102958,0.312358,0.768184,0.110255,-1.538465,-2.351571,1.353131,-2.209792,-0.236111,0.562580,-0.999125,-1.593650,-2.608903,-0.003086,-0.018937,0.031492,-0.013010,-0.001197,-0.000813
3904.858000,2.904000,START a_bow,Note,1,A,0.094958,0.312328,0.768176,0.110266,-1.538442,-2.351632,1.353118,-2.209768,-0.236204,0.562745,-0.999216,-1.593670,-2.608907,0.000985,-0.006007,0.011922,-0.001828,-0.000682,-0.000384
3904.866000,2.912000,END a_bow,Note,1,A,0.086958,0.312303,0.768187,0.110231,-1.538389,-2.351586,1.353256,-2.209737,-0.236149,0.562718,-0.999146,-1.593654,-2.608895,0.002982,0.004839,-0.009391,0.006974,-0.000000,0.000391
3904.874000,2.920000,END a_bow,Note,1,A,0.078958,0.312284,0.768190,0.110204,-1.538380,-2.351589,1.353302,-2.209717,-0.236137,0.562761,-0.999173,-1.593658,-2.608879,0.000650,0.001751,0.000449,0.001395,-0.000000,0.000569
3904.882000,2.928000,END a_bow,Note,1,A,0.070958,0.312254,0.768205,0.110189,-1.538353,-2.351629,1.353328,-2.209677,-0.236104,0.562729,-0.999165,-1.593665,-2.608867,0.002454,0.001326,0.000000,0.000793,-0.000000,0.000348
3904.890000,2.936000,START a_bow,Note,0,A,0.062958,0.312226,0.768212,0.110188,-1.538253,-2.351653,1.353381,-2.209641,-0.236104,0.562738,-0.999133,-1.593658,-2.608903,0.002005,0.000947,0.000000,0.000527,-0.000000,0.000188
3904.898000,2.944000,START a_bow,Note,0,A,0.054958,0.312134,0.768280,0.110110,-1.538108,-2.351662,1.353638,-2.209502,-0.235879,0.562459,-0.998912,-1.593634,-2.608864,0.038377,0.055336,-0.064401,0.039712,0.016613,0.011150
3904.906000,2.952000,START a_bow,Note,0,A,0.046958,0.312065,0.768426,0.110057,-1.538228,-2.351855,1.353250,-2.209334,-0.235410,0.561624,-0.998831,-1.593527,-2.608756,0.026017,0.068801,-0.120358,0.037340,0.017717,0.016677
3904.914000,2.960000,START a_bow,Note,0,A,0.038958,0.311958,0.768620,0.109978,-1.538205,-2.351923,1.353282,-2.209095,-0.234767,0.560468,-0.998311,-1.593406,-2.608617,0.032569,0.098509,-0.169849,0.068301,0.022132,0.019771
3904.922000,2.968000,START a_bow,Note,0,A,0.030958,0.311850,0.768878,0.109854,-1.538189,-2.352112,1.353037,-2.208807,-0.233820,0.558812,-0.997783,-1.593235,-2.608499,0.041528,0.127116,-0.225164,0.086859,0.027765,0.027144
3904.930000,2.976000,START a_bow,Note,0,A,0.897958,0.311698,0.769204,0.109724,-1.538196,-2.352202,1.352965,-2.208433,-0.232696,0.556787,-0.996941,-1.592992,-2.608276,0.050462,0.156587,-0.282701,0.112472,0.035675,0.033622
3904.938000,2.984000,START a_bow,Note,0,A,0.889958,0.311537,0.769608,0.109574,-1.538333,-2.352329,1.352695,-2.208001,-0.231297,0.554234,-0.995989,-1.592680,-2.607970,0.059524,0.185757,-0.338029,0.137378,0.042288,0.043526
3904.946000,2.992000,START a_bow,Note,0,A,0.881958,0.311306,0.770103,0.109447,-1.538443,-2.352566,1.352318,-2.207435,-0.229701,0.551209,-0.994844,-1.592305,-2.607619,0.068752,0.217301,-0.396555,0.161403,0.051712,0.052008
3904.954000,3.000000,START a_bow,Note,0,A,0.873958,0.311052,0.770658,0.109265,-1.538576,-2.352647,1.352180,-2.206812,-0.227845,0.547767,-0.993370,-1.591861,-2.607168,0.081188,0.251529,-0.455586,0.190312,0.060721,0.058321
3904.962000,3.008000,START a_bow,Note,0,A,0.865958,0.310766,0.771278,0.109027,-1.538684,-2.352783,1.351967,-2.206110,-0.225699,0.543871,-0.991782,-1.591366,-2.606701,0.088306,0.286407,-0.518549,0.214147,0.069470,0.065122
3904.970000,3.016000,START a_bow,Note,0,A,0.857958,0.310447,0.771967,0.108720,-1.538757,-2.352762,1.352070,-2.205333,-0.223237,0.539473,-0.989783,-1.590808,-2.606146,0.098405,0.323566,-0.578627,0.245729,0.073468,0.071392
3904.978000,3.024000,START a_bow,Note,0,A,0.849958,0.310120,0.772715,0.108329,-1.538886,-2.352791,1.352019,-2.204510,-0.220436,0.534590,-0.987748,-1.590204,-2.605556,0.106733,0.359951,-0.640782,0.271202,0.082956,0.078331
3904.986000,3.032000,START a_bow,Note,0,A,0.841958,0.309769,0.773542,0.107961,-1.539022,-2.352810,1.351892,-2.203608,-0.217383,0.529121,-0.985419,-1.589501,-2.604928,0.119299,0.397098,-0.704539,0.299272,0.090594,0.086462
3904.994000,3.040000,START a_bow,Note,0,A,0.833958,0.309369,0.774450,0.107569,-1.539191,-2.352890,1.351668,-2.202605,-0.214046,0.523119,-0.982915,-1.588737,-2.604233,0.128726,0.431193,-0.774424,0.323827,0.098156,0.095363
3905.002000,3.048000,START a_bow,Note,0,A,0.825958,0.308958,0.775424,0.107143,-1.539509,-2.352923,1.351376,-2.201556,-0.210423,0.516592,-0.980224,-1.587903,-2.603420,0.137317,0.464709,-0.848424,0.354125,0.105755,0.102425
3905.010000,3.056000,START a_bow,Note,0,A,0.817958,0.308483,0.776485,0.106702,-1.539778,-2.353002,1.351137,-2.200383,-0.206487,0.509444,-0.977197,-1.587025,-2.602553,0.145084,0.504428,-0.924064,0.392726,0.113908,0.107968
3905.018000,3.064000,START a_bow,Note,0,A,0.809958,0.308014,0.777614,0.106258,-1.540076,-2.353009,1.350864,-2.199175,-0.202220,0.501609,-0.973820,-1.586051,-2.601651,0.154752,0.547645,-1.000977,0.427693,0.121828,0.117842
3905.026000,3.072000,START a_bow,Note,0,A,0.801958,0.307475,0.778815,0.105755,-1.540315,-2.353144,1.350505,-2.197847,-0.197621,0.493237,-0.970310,-1.585044,-2.600732,0.170192,0.590210,-1.082989,0.458686,0.129081,0.123894
3905.034000,3.080000,START a_bow,Note,0,A,0.793958,0.306928,0.780079,0.105277,-1.540624,-2.353174,1.350204,-2.196475,-0.192754,0.484227,-0.966381,-1.583957,-2.599726,0.179216,0.639435,-1.167711,0.502642,0.134424,0.128406
3905.042000,3.088000,START a_bow,Note,0,A,0.785958,0.306308,0.781436,0.104710,-1.540984,-2.353385,1.349839,-2.194975,-0.187410,0.474428,-0.962232,-1.582906,-2.598616,0.176000,0.669173,-1.237863,0.530273,0.136263,0.135298
3905.050000,3.096000,START a_bow,Note,0,A,0.777958,0.305858,0.782665,0.104180,-1.541515,-2.353438,1.349206,-2.193732,-0.182294,0.465039,-0.958405,-1.581851,-2.597602,0.142113,0.614692,-1.160522,0.492733,0.123070,0.121420
3905.058000,3.104000,START a_bow,Note,0,A,0.832458,0.305271,0.783880,0.103687,-1.541665,-2.353478,1.349210,-2.192359,-0.177383,0.455961,-0.954259,-1.580865,-2.596642,0.182031,0.607310,-1.114258,0.492096,0.122920,0.116795
3905.066000,3.112000,START a_bow,Note,0,A,0.824458,0.304711,0.785031,0.103187,-1.541918,-2.353693,1.348886,-2.191058,-0.172626,0.447235,-0.950560,-1.579966,-2.595721,0.156458,0.578471,-1.076002,0.467086,0.109899,0.111094
3905.074000,3.120000,START a_bow,Note,0,A,0.816458,0.304201,0.786093,0.102660,-1.542003,-2.353681,1.348971,-2.189864,-0.168017,0.438888,-0.946777,-1.579094,-2.594902,0.147039,0.556794,-1.023975,0.455068,0.103918,0.102763
3905.082000,3.128000,START a_bow,Note,0,A,0.808458,0.303744,0.787079,0.102198,-1.542139,-2.353749,1.348865,-2.188773,-0.163685,0.430961,-0.943274,-1.578301,-2.594149,0.134265,0.530006,-0.972485,0.427352,0.097188,0.095402
3905.090000,3.136000,START a_bow,Note,0,A,0.800458,0.303304,0.788007,0.101807,-1.542313,-2.353870,1.348713,-2.187739,-0.159625,0.423419,-0.939930,-1.577586,-2.593415,0.124607,0.500726,-0.918208,0.405860,0.088610,0.085675
3905.098000,3.144000,START a_bow,Note,0,A,0.792458,0.302938,0.788843,0.101409,-1.542586,-2.353858,1.348596,-2.186845,-0.155819,0.416422,-0.936843,-1.576903,-2.592692,0.112623,0.463412,-0.862464,0.379669,0.082082,0.081852
3905.106000,3.152000,START a_bow,Note,0,A,0.784458,0.302612,0.789607,0.101096,-1.542740,-2.353976,1.348405,-2.186030,-0.152304,0.409830,-0.933925,-1.576334,-2.592116,0.101628,0.429191,-0.797542,0.351415,0.077278,0.073201
3905.114000,3.160000,START a_bow,Note,0,A,0.776458,0.302323,0.790306,0.100797,-1.542945,-2.353942,1.348248,-2.185298,-0.149035,0.403721,-0.931195,-1.575728,-2.591549,0.090779,0.392274,-0.732426,0.325996,0.067880,0.064236
3905.122000,3.168000,START a_bow,Note,0,A,0.768458,0.302019,0.790957,0.100571,-1.543118,-2.354094,1.347917,-2.184580,-0.146100,0.398132,-0.928792,-1.575208,-2.591046,0.084047,0.347630,-0.666637,0.291514,0.060721,0.057736
3905.130000,3.176000,START a_bow,Note,0,A,0.760458,0.301721,0.791537,0.100398,-1.543166,-2.354277,1.347716,-2.183910,-0.143521,0.393153,-0.926557,-1.574776,-2.590634,0.075741,0.308461,-0.596398,0.263723,0.052465,0.052217
3905.138000,3.184000,START a_bow,Note,0,A,0.752458,0.301488,0.792036,0.100230,-1.543272,-2.354435,1.347416,-2.183358,-0.141217,0.388746,-0.924678,-1.574388,-2.590275,0.066056,0.270600,-0.522468,0.230432,0.045401,0.044469
3905.146000,3.192000,START a_bow,Note,0,A,0.744458,0.301278,0.792464,0.100067,-1.543364,-2.354490,1.347359,-2.182879,-0.139213,0.384942,-0.922938,-1.574064,-2.589923,0.056887,0.230248,-0.445197,0.201809,0.038830,0.037993
3905.154000,3.200000,START a_bow,Note,0,A,0.736458,0.301085,0.792818,0.099881,-1.543398,-2.354510,1.347383,-2.182463,-0.137500,0.381812,-0.921517,-1.573780,-2.589636,0.045801,0.190793,-0.365160,0.162714,0.031676,0.031363
3905.162000,3.208000,START a_bow,Note,0,A,0.728458,0.300913,0.793111,0.099793,-1.543314,-2.354652,1.347287,-2.182100,-0.136168,0.379247,-0.920358,-1.573564,-2.589486,0.038486,0.150004,-0.282696,0.129466,0.024641,0.024204
3905.170000,3.216000,START a_bow,Note,0,A,0.720458,0.300816,0.793317,0.099690,-1.543403,-2.354681,1.347229,-2.181876,-0.135150,0.377364,-0.919548,-1.573412,-2.589296,0.029283,0.108337,-0.200825,0.089096,0.016918,0.017257
3905.178000,3.224000,START a_bow,Note,0,A,0.712458,0.300706,0.793466,0.099627,-1.543388,-2.354741,1.347241,-2.181672,-0.134502,0.376159,-0.918996,-1.573307,-2.589176,0.018759,0.063427,-0.115647,0.054190,0.010036,0.010140
3905.186000,3.232000,START a_bow,Note,0,A,0.704458,0.300647,0.793531,0.099608,-1.543303,-2.354827,1.347217,-2.181568,-0.134229,0.375640,-0.918771,-1.573271,-2.589175,0.004102,0.019910,-0.034405,0.015467,0.000956,0.000257
3905.194000,3.240000,START a_bow,Note,0,A,0.696458,0.300679,0.793511,0.099637,-1.543312,-2.354844,1.347118,-2.181611,-0.134311,0.375746,-0.918857,-1.573280,-2.589214,0.000910,-0.023181,0.034950,-0.027782,-0.004293,-0.005968
3905.202000,3.248000,START a_bow,Note,0,A,0.688458,0.300725,0.793459,0.099712,-1.543360,-2.354871,1.347052,-2.181690,-0.134602,0.376160,-0.919032,-1.573346,-2.589243,-0.012385,-0.041974,0.066181,-0.033255,-0.012257,-0.010325
3905.210000,3.256000,START a_bow,Note,0,A,0.680458,0.300823,0.793360,0.099829,-1.543413,-2.354856,1.346929,-2.181850,-0.135095,0.376901,-0.919355,-1.573419,-2.589331,-0.019606,-0.066190,0.106646,-0.049489,-0.014315,-0.014591
3905.218000,3.264000,START a_bow,Note,0,A,0.672458,0.300912,0.793243,0.099979,-1.543425,-2.354885,1.346765,-2.182010,-0.135754,0.377907,-0.919805,-1.573502,-2.589454,-0.023809,-0.091188,0.146817,-0.067454,-0.013248,-0.014040
3905.226000,3.272000,START a_bow,Note,0,A,0.664458,0.301045,0.793074,0.100107,-1.543533,-2.354788,1.346707,-2.182253,-0.136579,0.379311,-0.920410,-1.573607,-2.589543,-0.029382,-0.111808,0.190083,-0.086603,-0.015469,-0.015676
3905.234000,3.280000,START a_bow,Note,0,A,0.656458,0.301179,0.792871,0.100221,-1.543566,-2.354695,1.346703,-2.182516,-0.137548,0.381058,-0.921173,-1.573737,-2.589686,-0.033150,-0.132749,0.230745,-0.106395,-0.018606,-0.018394
3905.242000,3.288000,START a_bow,Note,0,A,0.648458,0.301318,0.792636,0.100348,-1.543619,-2.354519,1.346793,-2.182807,-0.138702,0.383154,-0.922030,-1.573862,-2.589814,-0.036491,-0.152355,0.274699,-0.125303,-0.022356,-0.023367
3905.250000,3.296000,START a_bow,Note,0,A,0.640458,0.301447,0.792379,0.100499,-1.543629,-2.354537,1.346706,-2.183100,-0.140005,0.385508,-0.923138,-1.574066,-2.590005,-0.041609,-0.173060,0.316327,-0.147699,-0.027059,-0.026736
3905.258000,3.304000,START a_bow,Note,0,A,0.632458,0.301572,0.792088,0.100651,-1.543612,-2.354558,1.346675,-2.183411,-0.141484,0.388230,-0.924402,-1.574304,-2.590217,-0.043701,-0.190218,0.358353,-0.165460,-0.031474,-0.030711
3905.266000,3.312000,START a_bow,Note,0,A,0.624458,0.301744,0.791744,0.100768,-1.543578,-2.354445,1.346716,-2.183801,-0.143077,0.391287,-0.925810,-1.574517,-2.590476,-0.047034,-0.211493,0.407028,-0.183391,-0.034962,-0.034749
3905.274000,3.320000,START a_bow,Note,0,A,0.616458,0.301870,0.791382,0.100905,-1.543466,-2.354411,1.346839,-2.184157,-0.144865,0.394697,-0.927338,-1.574785,-2.590752,-0.048744,-0.230001,0.447266,-0.201060,-0.041085,-0.037797
3905.282000,3.328000,START a_bow,Note,0,A,0.608458,0.302020,0.790976,0.101052,-1.543365,-2.354460,1.346842,-2.184564,-0.146821,0.398440,-0.929120,-1.575116,-2.591074,-0.053374,-0.251475,0.483369,-0.217578,-0.045297,-0.042539
3905.290000,3.336000,START a_bow,Note,0,A,0.600458,0.302192,0.790525,0.101222,-1.543199,-2.354377,1.347136,-2.185024,-0.148957,0.402489,-0.930821,-1.575479,-2.591418,-0.059344,-0.270323,0.521193,-0.229536,-0.048235,-0.047023
3905.298000,3.344000,START a_bow,Note,0,A,0.592458,0.302367,0.790045,0.101409,-1.543090,-2.354400,1.347217,-2.185506,-0.151254,0.406840,-0.932819,-1.575875,-2.591777,-0.066157,-0.286118,0.556116,-0.249728,-0.053683,-0.051306
3905.306000,3.352000,START a_bow,Note,0,A,0.584458,0.302595,0.789505,0.101600,-1.542926,-2.354347,1.347411,-2.186077,-0.153696,0.411488,-0.934878,-1.576310,-2.592209,-0.071702,-0.308521,0.588176,-0.261752,-0.055832,-0.056363
3905.314000,3.360000,START a_bow,Note,0,A,0.576458,0.302825,0.788935,0.101782,-1.542753,-2.354260,1.347648,-2.186671,-0.156248,0.416390,-0.937047,-1.576750,-2.592652,-0.077592,-0.327044,0.618089,-0.274404,-0.061041,-0.059786
3905.322000,3.368000,START a_bow,Note,0,A,0.568458,0.303072,0.788343,0.102029,-1.542628,-2.354295,1.347727,-2.187295,-0.158943,0.421423,-0.939332,-1.577261,-2.593112,-0.084702,-0.343740,0.648525,-0.285037,-0.063878,-0.060834
3905.330000,3.376000,START a_bow,Note,0,A,0.560458,0.303392,0.787677,0.102258,-1.542441,-2.354166,1.348012,-2.188040,-0.161761,0.426765,-0.941635,-1.577800,-2.593650,-0.089961,-0.361673,0.681090,-0.297416,-0.069085,-0.067087
3905.338000,3.384000,START a_bow,Note,0,A,0.552458,0.303696,0.786999,0.102539,-1.542313,-2.354172,1.348072,-2.188778,-0.164733,0.432298,-0.944147,-1.578367,-2.594185,-0.097586,-0.380907,0.708146,-0.311592,-0.075323,-0.068811
3905.346000,3.392000,START a_bow,Note,0,A,0.544458,0.304047,0.786259,0.102776,-1.542180,-2.354058,1.348264,-2.189605,-0.167800,0.438145,-0.946774,-1.578954,-2.594755,-0.101111,-0.396323,0.737402,-0.317477,-0.075507,-0.074033
3905.362000,3.408000,START a_bow,Note,0,A,0.528458,0.304732,0.784676,0.103307,-1.541722,-2.353767,1.349159,-2.191312,-0.174349,0.450539,-0.951976,-1.580288,-2.595959,-0.111310,-0.426146,0.793165,-0.344234,-0.086021,-0.081981
3905.370000,3.416000,START a_bow,Note,0,A,0.520458,0.305111,0.783835,0.103633,-1.541482,-2.353678,1.349404,-2.192231,-0.177793,0.456952,-0.954752,-1.580969,-2.596649,-0.117914,-0.438840,0.816806,-0.352948,-0.087461,-0.084828
3905.378000,3.424000,START a_bow,Note,0,A,0.512458,0.305505,0.782960,0.104007,-1.541272,-2.353607,1.349598,-2.193189,-0.181397,0.463576,-0.957617,-1.581679,-2.597352,-0.121701,-0.448341,0.838940,-0.361900,-0.092391,-0.087446
3905.386000,3.432000,START a_bow,Note,0,A,0.504458,0.305913,0.782055,0.104439,-1.541089,-2.353558,1.349697,-2.194183,-0.185149,0.470365,-0.960565,-1.582403,-2.598078,-0.128711,-0.465537,0.862414,-0.366447,-0.094687,-0.091865
3905.394000,3.440000,START a_bow,Note,0,A,0.496458,0.306360,0.781090,0.104857,-1.540872,-2.353428,1.349972,-2.195256,-0.189002,0.477396,-0.963528,-1.583186,-2.598841,-0.133914,-0.481811,0.880896,-0.374028,-0.098956,-0.096111
3905.402000,3.448000,START a_bow,Note,0,A,0.488458,0.306808,0.780102,0.105289,-1.540616,-2.353433,1.350067,-2.196342,-0.192903,0.484501,-0.966648,-1.584009,-2.599675,-0.138200,-0.491212,0.898393,-0.384793,-0.101364,-0.102545
3905.410000,3.456000,START a_bow,Note,0,A,0.480458,0.307268,0.779084,0.105751,-1.540346,-2.353332,1.350359,-2.197465,-0.196903,0.491728,-0.969650,-1.584851,-2.600502,-0.146839,-0.508373,0.920718,-0.386971,-0.107156,-0.104777
3905.418000,3.464000,START a_bow,Note,0,A,0.472458,0.307784,0.778009,0.106207,-1.540216,-2.353290,1.350490,-2.198685,-0.200987,0.499142,-0.972888,-1.585781,-2.601324,-0.148592,-0.516804,0.938233,-0.402338,-0.111521,-0.107532
3905.426000,3.472000,START a_bow,Note,0,A,0.464458,0.308270,0.776893,0.106619,-1.539936,-2.353031,1.350962,-2.199907,-0.205168,0.506878,-0.976077,-1.586642,-2.602183,-0.154748,-0.526940,0.955465,-0.403366,-0.115775,-0.110717
3905.434000,3.480000,START a_bow,Note,0,A,0.456458,0.308773,0.775746,0.107067,-1.539573,-2.352932,1.351366,-2.201161,-0.209397,0.514622,-0.979294,-1.587615,-2.603132,-0.159879,-0.536756,0.973898,-0.407526,-0.121090,-0.113409
3905.442000,3.488000,START a_bow,Note,0,A,0.448458,0.309349,0.774560,0.107591,-1.539409,-2.352723,1.351604,-2.202522,-0.213746,0.522420,-0.982544,-1.588555,-2.604044,-0.167446,-0.541020,0.986905,-0.413390,-0.123980,-0.117849
3905.450000,3.496000,START a_bow,Note,0,A,0.440458,0.309909,0.773345,0.108152,-1.539165,-2.352679,1.351751,-2.203883,-0.218207,0.530360,-0.985906,-1.589578,-2.605030,-0.172647,-0.553578,1.003163,-0.421637,-0.124801,-0.120916
3905.458000,3.504000,START a_bow,Note,0,A,0.432458,0.310476,0.772087,0.108667,-1.538935,-2.352603,1.351986,-2.205287,-0.222698,0.538476,-0.989360,-1.590645,-2.606012,-0.175615,-0.565037,1.017088,-0.422338,-0.129312,-0.124380
3905.466000,3.512000,START a_bow,Note,0,A,0.424458,0.311015,0.770807,0.109159,-1.538505,-2.352405,1.352504,-2.206674,-0.227190,0.546663,-0.992660,-1.591676,-2.607066,-0.177210,-0.566364,1.022426,-0.421191,-0.133629,-0.128544
3905.474000,3.520000,START a_bow,Note,0,A,0.416458,0.311581,0.769535,0.109667,-1.538215,-2.352238,1.352883,-2.208090,-0.231595,0.554616,-0.995925,-1.592728,-2.608068,-0.172006,-0.548979,0.999105,-0.408514,-0.136477,-0.127560
3905.482000,3.528000,START a_bow,Note,0,A,0.408458,0.312172,0.768232,0.110151,-1.537892,-2.352101,1.353377,-2.209554,-0.235957,0.562533,-0.999136,-1.593883,-2.609099,-0.182437,-0.547977,0.984103,-0.398899,-0.134224,-0.127886
3905.490000,3.536000,START a_bow,Note,0,A,0.400458,0.312766,0.766934,0.110695,-1.537621,-2.351928,1.353626,-2.211020,-0.240352,0.570380,-1.002380,-1.594920,-2.610144,-0.181840,-0.544738,0.971193,-0.396837,-0.132177,-0.128442
3905.498000,3.544000,START a_bow,Note,0,A,0.392458,0.313312,0.765660,0.111216,-1.537275,-2.351668,1.354226,-2.212426,-0.244642,0.578041,-1.005312,-1.595971,-2.611132,-0.168356,-0.511329,0.930140,-0.376411,-0.127855,-0.126362
3905.506000,3.552000,START a_bow,Note,0,A,0.384458,0.313909,0.764426,0.111748,-1.537151,-2.351634,1.354190,-2.213858,-0.248704,0.585214,-1.008439,-1.597009,-2.612114,-0.172095,-0.496563,0.888548,-0.367434,-0.127329,-0.121656
3905.514000,3.560000,START a_bow,Note,0,A,0.376458,0.314450,0.763239,0.112271,-1.536919,-2.351522,1.354423,-2.215205,-0.252619,0.592090,-1.011226,-1.598008,-2.613061,-0.170816,-0.482547,0.850487,-0.343006,-0.125066,-0.118703
3905.522000,3.568000,START a_bow,Note,0,A,0.368458,0.314972,0.762075,0.112761,-1.536684,-2.351388,1.354704,-2.216519,-0.256397,0.598763,-1.013914,-1.598984,-2.613980,-0.163409,-0.461665,0.811132,-0.333013,-0.121253,-0.117357
3905.530000,3.576000,START a_bow,Note,0,A,0.360458,0.315454,0.760958,0.113215,-1.536308,-2.351299,1.355073,-2.217758,-0.259967,0.605098,-1.016408,-1.599946,-2.614930,-0.157686,-0.447410,0.777275,-0.307169,-0.118510,-0.110611
3905.538000,3.584000,START a_bow,Note,0,A,0.352458,0.315935,0.759876,0.113619,-1.536056,-2.351190,1.355416,-2.218978,-0.263336,0.611130,-1.018832,-1.600893,-2.615789,-0.152055,-0.421863,0.744793,-0.293962,-0.114885,-0.106791
3905.546000,3.592000,START a_bow,Note,0,A,0.344458,0.316413,0.758824,0.114008,-1.535803,-2.351010,1.355852,-2.220179,-0.266562,0.616895,-1.021062,-1.601808,-2.616615,-0.146808,-0.399256,0.712571,-0.282256,-0.108242,-0.103579
3905.554000,3.600000,START a_bow,Note,0,A,0.336458,0.316858,0.757817,0.114390,-1.535586,-2.350841,1.356133,-2.221318,-0.269672,0.622444,-1.023286,-1.602624,-2.617410,-0.142215,-0.383422,0.681212,-0.267768,-0.105167,-0.099114
3905.562000,3.608000,START a_bow,Note,0,A,0.328458,0.317302,0.756842,0.114839,-1.535383,-2.350780,1.356266,-2.222431,-0.272741,0.627729,-1.025401,-1.603452,-2.618212,-0.138175,-0.368377,0.648485,-0.256444,-0.105233,-0.095581
3905.570000,3.616000,START a_bow,Note,0,A,0.320458,0.317705,0.755893,0.115199,-1.535113,-2.350636,1.356693,-2.223490,-0.275632,0.632864,-1.027346,-1.604279,-2.618963,-0.132746,-0.351326,0.617269,-0.241594,-0.097165,-0.092121
3905.578000,3.624000,START a_bow,Note,0,A,0.312458,0.318147,0.754980,0.115569,-1.535042,-2.350452,1.356847,-2.224568,-0.278375,0.637667,-1.029282,-1.605015,-2.619647,-0.130465,-0.332207,0.585908,-0.231036,-0.096177,-0.090209
3905.586000,3.632000,START a_bow,Note,0,A,0.304458,0.318574,0.754104,0.115926,-1.534834,-2.350280,1.357132,-2.225601,-0.280962,0.642175,-1.030986,-1.605754,-2.620370,-0.123631,-0.316200,0.557823,-0.216712,-0.090266,-0.088796
3905.594000,3.640000,START a_bow,Note,0,A,0.296458,0.318938,0.753294,0.116288,-1.534694,-2.350197,1.357295,-2.226528,-0.283440,0.646434,-1.032652,-1.606446,-2.621006,-0.121985,-0.303316,0.527568,-0.204062,-0.086781,-0.082213
3905.602000,3.648000,START a_bow,Note,0,A,0.288458,0.319310,0.752499,0.116629,-1.534483,-2.350159,1.357441,-2.227450,-0.285794,0.650497,-1.034256,-1.607148,-2.621691,-0.113915,-0.289850,0.500426,-0.194972,-0.084109,-0.080965
3905.610000,3.656000,START a_bow,Note,0,A,0.280458,0.319691,0.751733,0.116923,-1.534425,-2.349932,1.357727,-2.228372,-0.288002,0.654361,-1.035702,-1.607788,-2.622240,-0.107922,-0.273413,0.474832,-0.182680,-0.078641,-0.072727
3905.618000,3.664000,START a_bow,Note,0,A,0.272458,0.320047,0.750998,0.117222,-1.534314,-2.349841,1.357863,-2.229241,-0.290132,0.658052,-1.037166,-1.608424,-2.622826,-0.101753,-0.259469,0.445263,-0.172378,-0.073670,-0.070204
3905.626000,3.672000,START a_bow,Note,0,A,0.264458,0.320344,0.750326,0.117526,-1.534132,-2.349801,1.357956,-2.230006,-0.292146,0.661498,-1.038524,-1.608987,-2.623404,-0.096306,-0.249259,0.419084,-0.163165,-0.067331,-0.067724
3905.634000,3.680000,START a_bow,Note,0,A,0.256458,0.320645,0.749677,0.117782,-1.534011,-2.349635,1.358234,-2.230764,-0.294016,0.664753,-1.039706,-1.609534,-2.623896,-0.091712,-0.231964,0.392967,-0.151505,-0.068324,-0.061595
3905.642000,3.688000,START a_bow,Note,0,A,0.248458,0.320901,0.749079,0.118006,-1.533826,-2.349541,1.358481,-2.231439,-0.295740,0.667789,-1.040842,-1.610049,-2.624388,-0.085613,-0.213805,0.366461,-0.142264,-0.063259,-0.059191
3905.650000,3.696000,START a_bow,Note,0,A,0.240458,0.321156,0.748519,0.118212,-1.533711,-2.349464,1.358610,-2.232087,-0.297324,0.670580,-1.041954,-1.610522,-2.624840,-0.077495,-0.193887,0.342721,-0.131951,-0.060087,-0.055296
3905.658000,3.704000,START a_bow,Note,0,A,0.232458,0.321386,0.747996,0.118435,-1.533521,-2.349415,1.358780,-2.232682,-0.298839,0.673184,-1.042918,-1.610977,-2.625302,-0.073926,-0.179944,0.316455,-0.122637,-0.055569,-0.051020
3905.666000,3.712000,START a_bow,Note,0,A,0.224458,0.321623,0.747510,0.118646,-1.533500,-2.349365,1.358827,-2.233264,-0.300234,0.675560,-1.043870,-1.611405,-2.625666,-0.067064,-0.167470,0.290065,-0.112199,-0.051761,-0.047406
3905.674000,3.720000,START a_bow,Note,0,A,0.216458,0.321825,0.747068,0.118816,-1.533405,-2.349240,1.359009,-2.233779,-0.301486,0.677745,-1.044665,-1.611761,-2.626010,-0.061977,-0.155015,0.264053,-0.102852,-0.047920,-0.044747
3905.682000,3.728000,START a_bow,Note,0,A,0.208458,0.321993,0.746670,0.119016,-1.533308,-2.349272,1.359049,-2.234227,-0.302686,0.679738,-1.045441,-1.612133,-2.626345,-0.056713,-0.139637,0.242247,-0.092474,-0.044366,-0.039679
3905.690000,3.736000,START a_bow,Note,0,A,0.200458,0.322170,0.746298,0.119199,-1.533263,-2.349299,1.359049,-2.234666,-0.303773,0.681540,-1.046167,-1.612488,-2.626648,-0.054414,-0.129799,0.217683,-0.083303,-0.039026,-0.035946
3905.698000,3.744000,START a_bow,Note,0,A,0.192458,0.322320,0.745967,0.119347,-1.533187,-2.349287,1.359074,-2.235050,-0.304729,0.683162,-1.046813,-1.612771,-2.626932,-0.048433,-0.111010,0.194032,-0.074066,-0.035220,-0.032133
3905.706000,3.752000,START a_bow,Note,0,A,0.184458,0.322480,0.745663,0.119490,-1.533175,-2.349235,1.359097,-2.235425,-0.305589,0.684591,-1.047364,-1.613028,-2.627168,-0.043398,-0.098865,0.170200,-0.065674,-0.030289,-0.027430
3905.714000,3.760000,START a_bow,Note,0,A,0.176458,0.322605,0.745401,0.119615,-1.533139,-2.349222,1.359177,-2.235737,-0.306346,0.685846,-1.047817,-1.613287,-2.627369,-0.036440,-0.086873,0.144932,-0.056393,-0.024806,-0.024127
3905.722000,3.768000,START a_bow,Note,0,A,0.168458,0.322694,0.745190,0.119731,-1.533093,-2.349192,1.359173,-2.235974,-0.306993,0.686904,-1.048220,-1.613436,-2.627548,-0.031175,-0.073174,0.123556,-0.048265,-0.020997,-0.020575
3905.730000,3.776000,START a_bow,Note,0,A,0.160458,0.322777,0.745009,0.119826,-1.533088,-2.349203,1.359145,-2.236186,-0.307536,0.687795,-1.048592,-1.613596,-2.627688,-0.024805,-0.061344,0.099424,-0.038684,-0.017552,-0.016919
3905.738000,3.784000,START a_bow,Note,0,A,0.152458,0.322872,0.744847,0.119863,-1.533071,-2.349147,1.359245,-2.236397,-0.307921,0.688503,-1.048847,-1.613755,-2.627808,-0.020339,-0.046359,0.078703,-0.028523,-0.013801,-0.013648
3905.746000,3.792000,START a_bow,Note,0,A,0.144458,0.322913,0.744743,0.119911,-1.532998,-2.349134,1.359286,-2.236510,-0.308221,0.689011,-1.049019,-1.613835,-2.627919,-0.013407,-0.031869,0.056488,-0.020881,-0.010150,-0.008664
3905.754000,3.800000,START a_bow,Note,0,A,0.136458,0.322939,0.744680,0.119907,-1.533063,-2.349023,1.359327,-2.236585,-0.308382,0.689360,-1.049167,-1.613833,-2.627912,-0.007102,-0.016833,0.033342,-0.013084,-0.002595,-0.001905
3905.762000,3.808000,START a_bow,Note,0,A,0.128458,0.322916,0.744662,0.119899,-1.532994,-2.349019,1.359424,-2.236574,-0.308450,0.689524,-1.049195,-1.613848,-2.627932,0.003461,-0.003963,0.010768,-0.000187,-0.000272,-0.000149
3905.770000,3.816000,END a_bow,Note,0,A,0.120458,0.322909,0.744669,0.119857,-1.532990,-2.348980,1.359552,-2.236565,-0.308383,0.689488,-1.049144,-1.613863,-2.627900,-0.000945,0.002463,-0.005069,0.004596,0.002502,0.002589
3905.778000,3.824000,END a_bow,Note,0,A,0.112458,0.322908,0.744672,0.119843,-1.532972,-2.348900,1.359577,-2.236561,-0.308359,0.689481,-1.049121,-1.613801,-2.627904,0.005135,0.004068,-0.000000,0.001131,0.000338,0.000791
3905.786000,3.832000,END a_bow,Note,0,A,0.104458,0.322869,0.744683,0.119827,-1.532921,-2.348983,1.359602,-2.236513,-0.308351,0.689504,-1.049152,-1.613833,-2.627904,0.004577,0.001204,-0.000000,0.000560,0.000193,0.000464
3905.794000,3.840000,START a_bow,Note,1,A,0.096458,0.322858,0.744691,0.119812,-1.532913,-2.348992,1.359654,-2.236498,-0.308323,0.689481,-1.049128,-1.613848,-2.627889,0.001592,0.000744,-0.000000,0.000367,0.000135,0.000272
3905.802000,3.848000,START a_bow,Note,1,A,0.088458,0.322850,0.744658,0.119800,-1.532876,-2.348974,1.359705,-2.236513,-0.308414,0.689706,-1.049224,-1.613860,-2.627912,-0.006603,-0.017177,0.028156,-0.014176,-0.007433,-0.005190
3905.810000,3.856000,START a_bow,Note,1,A,0.080458,0.322868,0.744607,0.119844,-1.532819,-2.349050,1.359652,-2.236564,-0.308582,0.689947,-1.049339,-1.613927,-2.627995,-0.007447,-0.024051,0.042522,-0.021475,-0.011206,-0.009810
3905.818000,3.864000,START a_bow,Note,1,A,0.072458,0.322898,0.744527,0.119884,-1.532763,-2.349081,1.359645,-2.236648,-0.308817,0.690341,-1.049503,-1.614003,-2.628087,-0.014715,-0.033219,0.053850,-0.021030,-0.015531,-0.013583
3905.826000,3.872000,START a_bow,Note,1,A,0.064458,0.322967,0.744395,0.119904,-1.532671,-2.349078,1.359748,-2.236808,-0.309112,0.690911,-1.049709,-1.614151,-2.628226,-0.018278,-0.040809,0.070353,-0.026571,-0.016803,-0.016530
3905.834000,3.880000,START a_bow,Note,1,A,0.056458,0.323018,0.744263,0.119921,-1.532582,-2.349027,1.359941,-2.236953,-0.309433,0.691538,-1.049883,-1.614287,-2.628334,-0.023102,-0.047917,0.084547,-0.028238,-0.015928,-0.015433
3905.842000,3.888000,START a_bow,Note,1,A,0.048458,0.323141,0.744077,0.119995,-1.532642,-2.348900,1.360008,-2.237212,-0.309912,0.692342,-1.050153,-1.614425,-2.628438,-0.027058,-0.058724,0.099198,-0.038378,-0.017498,-0.015747
3905.850000,3.896000,START a_bow,Note,1,A,0.040458,0.323239,0.743897,0.120103,-1.532666,-2.348893,1.359951,-2.237439,-0.310450,0.693186,-1.050499,-1.614578,-2.628575,-0.030252,-0.068613,0.114849,-0.040907,-0.020330,-0.017597
3905.858000,3.904000,START a_bow,Note,1,A,0.032458,0.323335,0.743701,0.120209,-1.532668,-2.348840,1.359941,-2.237676,-0.311030,0.694128,-1.050859,-1.614715,-2.628722,-0.025323,-0.062986,0.114289,-0.044517,-0.019243,-0.017531
3905.866000,3.912000,START a_bow,Note,1,A,0.024458,0.323414,0.743533,0.120286,-1.532674,-2.348835,1.359958,-2.237876,-0.311510,0.694930,-1.051177,-1.614874,-2.628838,-0.018510,-0.053455,0.094024,-0.037433,-0.015391,-0.014037
3905.874000,3.920000,START a_bow,Note,1,A,0.016458,0.323502,0.743378,0.120352,-1.532672,-2.348795,1.359960,-2.238075,-0.311926,0.695630,-1.051454,-1.614997,-2.628962,-0.025652,-0.050360,0.077446,-0.029436,-0.013998,-0.012098
3905.882000,3.928000,START a_bow,Note,1,A,0.008458,0.323551,0.743264,0.120399,-1.532668,-2.348699,1.360031,-2.238206,-0.312259,0.696205,-1.051633,-1.615051,-2.629030,-0.016488,-0.039351,0.065764,-0.023496,-0.010481,-0.010417
3905.890000,3.936000,START a_bow,Note,1,A,0.000458,0.323583,0.743182,0.120465,-1.532636,-2.348772,1.360004,-2.238295,-0.312531,0.696602,-1.051790,-1.615162,-2.629114,-0.012309,-0.029810,0.048428,-0.017626,-0.008378,-0.006077
3905.898000,3.944000,START a_bow,Note,1,A,0.000000,0.323613,0.743112,0.120495,-1.532681,-2.348695,1.360026,-2.238379,-0.312747,0.696973,-1.051922,-1.615182,-2.629129,-0.007858,-0.019816,0.033688,-0.013864,-0.002396,-0.001757
3905.906000,3.952000,START a_bow,Note,1,A,0.000000,0.323611,0.743088,0.120514,-1.532704,-2.348693,1.360017,-2.238396,-0.312851,0.697141,-1.051994,-1.615194,-2.629126,-0.001954,-0.011356,0.017775,-0.005740,-0.000965,-0.000864
3905.914000,3.960000,START a_bow,Note,1,A,0.000000,0.323599,0.743085,0.120509,-1.532679,-2.348656,1.360070,-2.238387,-0.312872,0.697198,-1.051987,-1.615175,-2.629126,0.004030,-0.000386,0.003432,-0.000007,-0.000201,-0.000267
3905.922000,3.968000,END a_bow,Note,1,A,0.000000,0.323589,0.743100,0.120482,-1.532686,-2.348652,1.360076,-2.238367,-0.312808,0.697137,-1.051985,-1.615159,-2.629107,0.001231,0.002513,-0.003451,0.003402,-0.000000,-0.000000
3905.930000,3.976000,END a_bow,Note,1,A,0.000000,0.323551,0.743109,0.120481,-1.532588,-2.348704,1.360181,-2.238320,-0.312819,0.697157,-1.051934,-1.615191,-2.629122,0.004935,0.001274,-0.000963,0.000966,-0.000000,-0.000000
3905.938000,3.984000,END a_bow,Note,1,A,0.000000,0.323538,0.743113,0.120430,-1.532555,-2.348717,1.360219,-2.238303,-0.312752,0.697153,-1.051973,-1.615198,-2.629126,0.002265,0.003158,-0.000281,0.000311,-0.000000,-0.000000
3905.946000,3.992000,START a_bow,Note,0,A,0.256958,0.323538,0.743109,0.120408,-1.532530,-2.348656,1.360324,-2.238307,-0.312728,0.697162,-1.051927,-1.615191,-2.629122,0.001527,0.003029,-0.000175,0.000301,-0.000000,-0.000000
3905.954000,4.000000,START a_bow,Note,0,A,0.248958,0.323499,0.743162,0.120367,-1.532451,-2.348696,1.360382,-2.238227,-0.312561,0.696920,-1.051815,-1.615170,-2.629114,0.019358,0.030738,-0.035422,0.021083,0.007209,0.005401
3905.962000,4.008000,START a_bow,Note,0,A,0.240958,0.323399,0.743274,0.120337,-1.532417,-2.348844,1.360248,-2.238045,-0.312333,0.696529,-1.051756,-1.615084,-2.629054,0.016237,0.033615,-0.057650,0.018275,0.010277,0.010143
3905.970000,4.016000,START a_bow,Note,0,A,0.232958,0.323356,0.743379,0.120292,-1.532438,-2.348917,1.360173,-2.237925,-0.312026,0.696002,-1.051599,-1.615023,-2.628982,0.020232,0.044281,-0.073796,0.026013,0.013690,0.014313
3905.978000,4.024000,START a_bow,Note,0,A,0.224958,0.323271,0.743529,0.120235,-1.532442,-2.349020,1.360130,-2.237733,-0.311631,0.695317,-1.051357,-1.614939,-2.628871,0.022196,0.056371,-0.095247,0.032388,0.015206,0.014880
3905.986000,4.032000,START a_bow,Note,0,A,0.216958,0.323204,0.743702,0.120150,-1.532495,-2.349117,1.359987,-2.237541,-0.311108,0.694447,-1.051120,-1.614819,-2.628748,0.027617,0.069099,-0.115715,0.042059,0.018699,0.017472
3905.994000,4.040000,START a_bow,Note,0,A,0.208958,0.323094,0.743917,0.120062,-1.532415,-2.349235,1.359918,-2.237270,-0.310501,0.693413,-1.050742,-1.614660,-2.628650,0.033334,0.078326,-0.137740,0.050426,0.024132,0.020666
3906.002000,4.048000,START a_bow,Note,0,A,0.200958,0.322991,0.744169,0.119992,-1.532534,-2.349334,1.359735,-2.236990,-0.309833,0.692189,-1.050328,-1.614467,-2.628436,0.039191,0.091612,-0.157923,0.060908,0.027698,0.026214
3906.010000,4.056000,START a_bow,Note,0,A,0.192958,0.322851,0.744462,0.119872,-1.532560,-2.349444,1.359592,-2.236638,-0.309014,0.690791,-1.049853,-1.614228,-2.628232,0.043215,0.103441,-0.180356,0.068500,0.032918,0.030260
3906.018000,4.064000,START a_bow,Note,0,A,0.184958,0.322710,0.744786,0.119750,-1.532642,-2.349475,1.359436,-2.236267,-0.308114,0.689226,-1.049286,-1.613914,-2.627981,0.047252,0.117571,-0.201099,0.076843,0.037312,0.034210
