srs827/Robot-Cello-ResidualRL/Data-Files/Big-Logs/rach_2-log-detailed.csv
timestamp_robot,time_elapsed_sec,event_flag,event_label,current_event_type,current_note_number,current_note_name,current_string,remaining_duration_sec,TCP_pose_x,TCP_pose_y,TCP_pose_z,TCP_pose_rx,TCP_pose_ry,TCP_pose_rz,q_base,q_shoulder,q_elbow,q_wrist1,q_wrist2,q_wrist3,TCP_force_x,TCP_force_y,TCP_force_z,TCP_force_rx,TCP_force_ry,TCP_force_rz
9536.510000,0.000000,4,END d_bow,None,,,,0.000000,0.359741,0.705506,0.165157,-1.663396,-2.084314,1.037847,-2.304247,-0.459025,0.922972,-1.267772,-1.347627,-2.615784,0.274980,-0.685662,-0.636821,0.018795,0.020183,0.006484
9536.518000,0.008000,4,END d_bow,None,,,,0.000000,0.359756,0.705507,0.165156,-1.663447,-2.084251,1.037821,-2.304262,-0.459013,0.922952,-1.267775,-1.347592,-2.615752,-0.015805,-0.900484,-0.337718,0.020265,0.012995,-0.002440
9536.526000,0.016000,4,END d_bow,None,,,,0.000000,0.359744,0.705502,0.165152,-1.663421,-2.084302,1.037868,-2.304256,-0.459029,0.922989,-1.267775,-1.347639,-2.615768,0.280995,-1.268438,-0.383518,0.023312,0.015042,-0.006595
9536.534000,0.024000,4,END d_bow,None,,,,0.000000,0.359754,0.705503,0.165172,-1.663424,-2.084285,1.037800,-2.304262,-0.459041,0.922964,-1.267775,-1.347605,-2.615775,0.071907,-1.253333,-0.161250,0.025744,0.003538,-0.007307
9536.542000,0.032000,4,END d_bow,None,,,,0.000000,0.359754,0.705501,0.165167,-1.663435,-2.084271,1.037845,-2.304266,-0.459041,0.922973,-1.267756,-1.347616,-2.615764,-0.100285,-1.187129,-0.037905,0.020525,-0.001045,-0.005143
9536.550000,0.040000,4,END d_bow,None,,,,0.000000,0.359756,0.705506,0.165168,-1.663441,-2.084315,1.037764,-2.304262,-0.459025,0.922945,-1.267806,-1.347620,-2.615768,0.125524,-1.039454,-0.331471,0.023620,0.013567,-0.002304
9536.558000,0.048000,4,END d_bow,None,,,,0.000000,0.359753,0.705507,0.165179,-1.663431,-2.084290,1.037800,-2.304259,-0.459041,0.922945,-1.267760,-1.347608,-2.615768,0.237395,-1.039898,-0.204239,0.025415,0.012927,-0.003390
9536.566000,0.056000,4,END d_bow,None,,,,0.000000,0.359740,0.705505,0.165165,-1.663395,-2.084311,1.037854,-2.304247,-0.459041,0.922980,-1.267760,-1.347627,-2.615784,0.172992,-0.872277,-0.336654,0.018940,0.009997,0.000610
9536.574000,0.064000,4,END d_bow,None,,,,0.000000,0.359759,0.705502,0.165175,-1.663469,-2.084305,1.037804,-2.304271,-0.459044,0.922957,-1.267779,-1.347643,-2.615749,0.181754,-0.665651,-0.608596,0.017976,0.017285,0.004983
9536.582000,0.072000,4,END d_bow,None,,,,0.000000,0.359727,0.705517,0.165160,-1.663395,-2.084319,1.037857,-2.304225,-0.459025,0.922961,-1.267760,-1.347620,-2.615768,0.393360,-0.682986,-0.650866,0.021729,0.023877,0.006127
9536.590000,0.080000,4,END d_bow,None,,,,0.000000,0.359770,0.705500,0.165182,-1.663456,-2.084299,1.037779,-2.304281,-0.459041,0.922933,-1.267767,-1.347631,-2.615768,0.192328,-0.881867,-0.505926,0.023188,0.018478,-0.000444
9536.638000,0.128000,4,END d_bow,None,,,,0.000000,0.359752,0.705505,0.165178,-1.663420,-2.084332,1.037800,-2.304259,-0.459041,0.922945,-1.267768,-1.347639,-2.615780,0.504330,-1.005234,-0.642880,0.025669,0.025518,0.000960
9536.646000,0.136000,4,END d_bow,None,,,,0.000000,0.359738,0.705507,0.165161,-1.663412,-2.084278,1.037817,-2.304244,-0.459037,0.922989,-1.267791,-1.347588,-2.615768,0.243763,-1.077001,-0.427781,0.024026,0.014173,-0.005191
9536.654000,0.144000,4,END d_bow,None,,,,0.000000,0.359723,0.705513,0.165160,-1.663395,-2.084323,1.037859,-2.304225,-0.459041,0.922992,-1.267775,-1.347624,-2.615768,0.090838,-1.062867,-0.561787,0.026463,0.015997,-0.002615
9536.742000,0.232000,4,END d_bow,None,,,,0.000000,0.359755,0.705501,0.165173,-1.663440,-2.084305,1.037789,-2.304266,-0.459044,0.922968,-1.267791,-1.347624,-2.615768,0.076020,-0.812294,-0.512119,0.022292,0.016280,-0.004674
9536.750000,0.240000,4,END d_bow,None,,,,0.000000,0.359761,0.705495,0.165175,-1.663403,-2.084314,1.037794,-2.304274,-0.459044,0.922964,-1.267775,-1.347627,-2.615803,0.190980,-1.391169,-0.182520,0.026363,0.006702,-0.009415
9536.758000,0.248000,4,END d_bow,None,,,,0.000000,0.359724,0.705516,0.165153,-1.663406,-2.084310,1.037885,-2.304225,-0.459025,0.922977,-1.267760,-1.347627,-2.615756,0.227612,-1.030458,-0.258888,0.021626,0.008593,-0.006259
9536.838000,0.328000,4,END d_bow,None,,,,0.000000,0.359747,0.705499,0.165159,-1.663409,-2.084267,1.037864,-2.304259,-0.459041,0.922996,-1.267760,-1.347608,-2.615776,-0.272681,-0.774589,0.483512,0.011472,-0.014153,-0.013931
9536.846000,0.336000,4,END d_bow,None,,,,0.000000,0.359739,0.705507,0.165159,-1.663390,-2.084333,1.037850,-2.304244,-0.459025,0.922964,-1.267767,-1.347639,-2.615787,-0.297143,-0.427206,0.655797,0.007922,-0.018600,-0.009524
9536.854000,0.344000,4,END d_bow,None,,,,0.000000,0.359746,0.705510,0.165171,-1.663387,-2.084336,1.037809,-2.304247,-0.459025,0.922933,-1.267760,-1.347627,-2.615795,-0.323049,-0.786151,0.703654,0.010909,-0.023395,-0.014245
9536.862000,0.352000,4,END d_bow,None,,,,0.000000,0.359751,0.705505,0.165163,-1.663425,-2.084341,1.037826,-2.304259,-0.459025,0.922949,-1.267775,-1.347658,-2.615775,0.048984,-0.624998,0.585098,0.008309,-0.012528,-0.014736
9536.870000,0.360000,4,END d_bow,None,,,,0.000000,0.359751,0.705515,0.165181,-1.663431,-2.084314,1.037794,-2.304251,-0.459029,0.922913,-1.267751,-1.347620,-2.615764,-0.344126,-0.276673,0.514771,0.003532,-0.016267,-0.008188
9536.878000,0.368000,4,END d_bow,None,,,,0.000000,0.359753,0.705516,0.165177,-1.663425,-2.084316,1.037805,-2.304251,-0.459017,0.922897,-1.267739,-1.347624,-2.615768,-0.209681,-0.265509,0.315936,0.003411,-0.010614,-0.003591
9536.886000,0.376000,4,END d_bow,None,,,,0.000000,0.359764,0.705514,0.165196,-1.663470,-2.084339,1.037793,-2.304266,-0.459036,0.922877,-1.267724,-1.347663,-2.615749,-0.195742,-0.001068,0.285493,0.004435,-0.008647,0.001883
9536.894000,0.384000,4,END d_bow,None,,,,0.000000,0.359737,0.705535,0.165188,-1.663409,-2.084410,1.037796,-2.304220,-0.459001,0.922830,-1.267719,-1.347670,-2.615768,-0.051175,-0.030854,0.084528,0.004809,-0.002107,-0.002485
9536.902000,0.392000,4,END d_bow,None,,,,0.000000,0.359757,0.705526,0.165191,-1.663419,-2.084347,1.037873,-2.304247,-0.459005,0.922824,-1.267644,-1.347672,-2.615768,-0.029659,-0.136867,0.072290,0.005528,-0.002762,0.002794
9536.942000,0.432000,4,END d_bow,None,,,,0.000000,0.359767,0.705618,0.165195,-1.663407,-2.084685,1.037980,-2.304184,-0.458762,0.922265,-1.267359,-1.347942,-2.615756,-0.234297,-0.029250,0.433210,0.005057,-0.011131,-0.005951
9536.950000,0.440000,4,END d_bow,None,,,,0.000000,0.359783,0.705643,0.165160,-1.663396,-2.084694,1.038091,-2.304179,-0.458635,0.922090,-1.267244,-1.347987,-2.615752,-0.156407,0.183037,0.396074,0.009273,-0.005650,0.005403
9536.958000,0.448000,4,END d_bow,None,,,,0.000000,0.359770,0.705674,0.165140,-1.663333,-2.084773,1.038237,-2.304139,-0.458542,0.921937,-1.267105,-1.348062,-2.615767,-0.078308,0.347334,0.083465,-0.001076,-0.000052,-0.001463
9537.022000,0.512000,4,END d_bow,None,,,,0.000000,0.359575,0.706223,0.164839,-1.662923,-2.086042,1.039639,-2.303505,-0.457049,0.919462,-1.265599,-1.349086,-2.615619,0.016203,-0.284948,0.276693,0.041709,0.019135,0.026089
9537.046000,0.536000,4,END d_bow,None,,,,0.000000,0.359450,0.706586,0.164634,-1.662649,-2.086890,1.040567,-2.303090,-0.456044,0.917805,-1.264601,-1.349772,-2.615528,-0.342209,-0.349728,0.630336,0.066727,0.021365,0.051742
9537.054000,0.544000,4,END d_bow,None,,,,0.000000,0.359428,0.706718,0.164549,-1.662557,-2.087190,1.040963,-2.302963,-0.455633,0.917130,-1.264171,-1.350057,-2.615501,0.147502,-0.409968,0.374684,0.069812,0.040805,0.053945
9537.070000,0.560000,4,END d_bow,None,,,,0.000000,0.359361,0.707024,0.164373,-1.662356,-2.087858,1.041832,-2.302651,-0.454734,0.915623,-1.263207,-1.350668,-2.615417,0.164812,0.011404,0.055564,0.082208,0.061012,0.077194
9537.078000,0.568000,4,END d_bow,None,,,,0.000000,0.359310,0.707210,0.164273,-1.662199,-2.088249,1.042321,-2.302449,-0.454204,0.914730,-1.262642,-1.350992,-2.615384,0.127314,-0.648478,0.493205,0.099567,0.054678,0.087211
9537.086000,0.576000,4,END d_bow,None,,,,0.000000,0.359271,0.707395,0.164156,-1.662079,-2.088707,1.042890,-2.302264,-0.453640,0.913798,-1.262046,-1.351426,-2.615337,0.301969,0.188927,0.043176,0.091960,0.069703,0.102237
9537.150000,0.640000,4,END d_bow,None,,,,0.000000,0.358629,0.709598,0.163040,-1.660395,-2.093727,1.048927,-2.299864,-0.447489,0.903222,-1.255216,-1.355727,-2.614821,0.291187,-0.275918,0.040015,0.174078,0.138201,0.183103
9537.158000,0.648000,4,END d_bow,None,,,,0.000000,0.358534,0.709955,0.162836,-1.660158,-2.094540,1.050009,-2.299488,-0.446448,0.901461,-1.254052,-1.356486,-2.614710,0.518521,-1.303816,0.605622,0.180927,0.116003,0.162047
9537.166000,0.656000,4,END d_bow,None,,,,0.000000,0.358429,0.710337,0.162647,-1.659890,-2.095477,1.051038,-2.299080,-0.445369,0.899582,-1.252869,-1.357292,-2.614614,0.471416,-0.247760,0.023085,0.170625,0.138610,0.175915
9537.254000,0.744000,4,END d_bow,None,,,,0.000000,0.356618,0.715995,0.159193,-1.655195,-2.108533,1.067516,-2.292804,-0.428609,0.871912,-1.235166,-1.368682,-2.613301,0.243481,-0.940484,0.658075,0.142388,0.098967,0.150161
9537.262000,0.752000,4,END d_bow,None,,,,0.000000,0.356439,0.716596,0.158818,-1.654660,-2.110030,1.069224,-2.292152,-0.426756,0.868838,-1.233266,-1.369965,-2.613204,0.471474,0.830167,-0.555922,0.133043,0.141319,0.175063
9537.270000,0.760000,4,END d_bow,None,,,,0.000000,0.356226,0.717220,0.158442,-1.654172,-2.111534,1.071069,-2.291454,-0.424900,0.865737,-1.231284,-1.371291,-2.613025,0.309905,-0.183660,0.094190,0.139247,0.111142,0.150760
9537.350000,0.840000,4,END d_bow,None,,,,0.000000,0.353694,0.724385,0.154375,-1.648063,-2.128939,1.091773,-2.283376,-0.403514,0.829320,-1.207978,-1.386255,-2.611240,0.283001,0.471779,-0.210918,0.140689,0.147401,0.170834
9537.358000,0.848000,4,END d_bow,None,,,,0.000000,0.353358,0.725199,0.153857,-1.647291,-2.130926,1.094226,-2.282416,-0.401018,0.825188,-1.205331,-1.387951,-2.611040,0.302584,1.506993,-0.839069,0.137930,0.164652,0.172013
9537.366000,0.856000,4,END d_bow,None,,,,0.000000,0.353047,0.726014,0.153321,-1.646540,-2.132962,1.096712,-2.281481,-0.398448,0.820938,-1.202637,-1.389725,-2.610840,0.580975,1.121919,-0.977638,0.145974,0.172150,0.166456
9537.374000,0.864000,4,END d_bow,None,,,,0.000000,0.352739,0.726846,0.152817,-1.645814,-2.135018,1.099059,-2.280537,-0.395860,0.816572,-1.199939,-1.391462,-2.610628,0.488601,0.989420,-0.088092,0.150942,0.136091,0.164843
9537.382000,0.872000,4,END d_bow,None,,,,0.000000,0.352413,0.727693,0.152306,-1.645078,-2.137091,1.101564,-2.279567,-0.393236,0.812133,-1.197116,-1.393255,-2.610386,0.523301,0.664929,-0.833638,0.145955,0.167147,0.168430
9537.390000,0.880000,4,END d_bow,None,,,,0.000000,0.352087,0.728536,0.151770,-1.644275,-2.139231,1.104140,-2.278600,-0.390561,0.807647,-1.194256,-1.395114,-2.610190,0.279406,0.478465,-0.069781,0.144636,0.152096,0.167499
9537.398000,0.888000,4,END d_bow,None,,,,0.000000,0.351700,0.729417,0.151232,-1.643409,-2.141486,1.106828,-2.277543,-0.387849,0.803068,-1.191299,-1.397029,-2.609971,-0.091560,-0.406331,0.928963,0.142537,0.115352,0.158498
9537.406000,0.896000,4,END d_bow,None,,,,0.000000,0.351336,0.730298,0.150688,-1.642551,-2.143691,1.109486,-2.276511,-0.385082,0.798399,-1.188310,-1.398913,-2.609758,0.419481,1.049248,-0.443226,0.132949,0.158727,0.175514
9537.414000,0.904000,4,END d_bow,None,,,,0.000000,0.350912,0.731204,0.150138,-1.641646,-2.146030,1.112317,-2.275405,-0.382300,0.793686,-1.185224,-1.400908,-2.609515,-0.394206,-0.422165,0.059009,0.135936,0.130908,0.156873
9537.422000,0.912000,4,END d_bow,None,,,,0.000000,0.350504,0.732126,0.149592,-1.640777,-2.148393,1.115090,-2.274303,-0.379447,0.788815,-1.182098,-1.402916,-2.609253,0.206416,0.656957,-0.480774,0.123736,0.143999,0.165315
9537.430000,0.920000,4,END d_bow,None,,,,0.000000,0.350052,0.733078,0.149036,-1.639828,-2.151004,1.117682,-2.273134,-0.376521,0.783828,-1.179091,-1.404982,-2.609036,0.561916,0.375825,-0.334178,0.132133,0.141324,0.150375
9537.454000,0.944000,4,END d_bow,None,,,,0.000000,0.348665,0.735959,0.147214,-1.636846,-2.158484,1.126546,-2.269591,-0.367417,0.768505,-1.169269,-1.411268,-2.608285,0.292555,-0.019355,0.334052,0.147021,0.157442,0.177616
9537.462000,0.952000,4,END d_bow,None,,,,0.000000,0.348188,0.736941,0.146562,-1.635835,-2.161017,1.129643,-2.268384,-0.364242,0.763207,-1.165870,-1.413431,-2.608006,0.056607,0.761699,-0.155696,0.150356,0.163206,0.186721
9537.470000,0.960000,4,END d_bow,None,,,,0.000000,0.347739,0.737909,0.145902,-1.634823,-2.163605,1.132865,-2.267217,-0.361023,0.757812,-1.162357,-1.415718,-2.607739,0.104696,0.258416,-0.768887,0.161642,0.188860,0.192045
9537.558000,1.048000,4,END d_bow,None,,,,0.000000,0.341621,0.749393,0.138214,-1.621944,-2.195487,1.169606,-2.252700,-0.322405,0.692539,-1.120894,-1.442551,-2.604580,-0.090669,-1.500171,0.737021,0.180558,0.154381,0.158874
9537.566000,1.056000,4,END d_bow,None,,,,0.000000,0.341036,0.750467,0.137460,-1.620674,-2.198557,1.173158,-2.251340,-0.318570,0.686031,-1.116778,-1.445165,-2.604280,-0.034166,-1.380454,1.209224,0.187785,0.152365,0.165954
9537.574000,1.064000,4,END d_bow,None,,,,0.000000,0.340331,0.751583,0.136647,-1.619255,-2.201820,1.176964,-2.249836,-0.314654,0.679485,-1.112586,-1.447895,-2.603960,0.091407,-1.714196,1.014788,0.180853,0.154930,0.168234
9537.662000,1.152000,4,END d_bow,None,,,,0.000000,0.332082,0.763540,0.127621,-1.602912,-2.238456,1.218968,-2.233150,-0.270620,0.605477,-1.065417,-1.478375,-2.600330,-0.306756,-0.175072,-0.354981,0.143297,0.202410,0.182768
9537.670000,1.160000,4,END d_bow,None,,,,0.000000,0.331328,0.764506,0.126787,-1.601365,-2.241471,1.222882,-2.231725,-0.266791,0.599155,-1.061207,-1.480984,-2.600027,-0.318327,-2.591677,0.574679,0.160332,0.166546,0.164117
9537.678000,1.168000,4,END d_bow,None,,,,0.000000,0.330605,0.765454,0.126023,-1.599932,-2.244625,1.226327,-2.230344,-0.263045,0.592847,-1.057256,-1.483581,-2.599739,0.647318,-0.492909,-0.625426,0.139880,0.205681,0.178021
9537.766000,1.256000,4,END d_bow,None,,,,0.000000,0.322820,0.774606,0.118523,-1.585038,-2.276333,1.261206,-2.216301,-0.225751,0.529622,-1.017133,-1.509610,-2.596640,0.887847,-0.882169,-0.278585,0.137100,0.182636,0.154683
9537.774000,1.264000,4,END d_bow,None,,,,0.000000,0.322125,0.775326,0.117867,-1.583715,-2.278928,1.264264,-2.215121,-0.222650,0.524437,-1.013751,-1.511778,-2.596373,0.609369,-0.888267,-0.274819,0.127419,0.179997,0.160064
9537.782000,1.272000,4,END d_bow,None,,,,0.000000,0.321455,0.776030,0.117236,-1.582424,-2.281507,1.267070,-2.213974,-0.219591,0.519299,-1.010521,-1.513865,-2.596140,1.004475,-0.908959,-0.483772,0.119648,0.194539,0.155274
9537.862000,1.352000,4,END d_bow,None,,,,0.000000,0.315052,0.782180,0.111599,-1.570370,-2.305055,1.292886,-2.203450,-0.192137,0.473023,-0.981014,-1.532934,-2.593908,0.572462,-0.511051,-0.883502,0.103430,0.189987,0.161136
9537.870000,1.360000,4,END d_bow,None,,,,0.000000,0.314482,0.782705,0.111102,-1.569348,-2.307196,1.295075,-2.202532,-0.189684,0.468870,-0.978446,-1.534653,-2.593685,1.071340,-0.146592,-1.059910,0.094240,0.196076,0.152124
9537.878000,1.368000,4,END d_bow,None,,,,0.000000,0.313940,0.783212,0.110635,-1.568308,-2.309152,1.297265,-2.201652,-0.187291,0.464783,-0.975830,-1.536246,-2.593494,0.779315,-1.337906,0.366278,0.116326,0.171954,0.143373
9537.886000,1.376000,4,END d_bow,None,,,,0.000000,0.313356,0.783715,0.110165,-1.567249,-2.311292,1.299414,-2.200735,-0.184963,0.460829,-0.973352,-1.537941,-2.593298,1.124687,-0.309663,-0.530542,0.091340,0.190155,0.149850
9537.894000,1.384000,4,END d_bow,None,,,,0.000000,0.312841,0.784187,0.109725,-1.566282,-2.313277,1.301449,-2.199907,-0.182690,0.456924,-0.970907,-1.539553,-2.593109,0.730507,-1.255083,0.079015,0.110365,0.174208,0.143828
9537.902000,1.392000,4,END d_bow,None,,,,0.000000,0.312291,0.784658,0.109244,-1.565248,-2.315153,1.303649,-2.199046,-0.180417,0.453130,-0.968439,-1.541099,-2.592914,1.056562,-0.339062,-0.660359,0.094565,0.196842,0.153602
9537.910000,1.400000,4,END d_bow,None,,,,0.000000,0.311786,0.785096,0.108769,-1.564269,-2.317015,1.305673,-2.198251,-0.178204,0.449457,-0.966137,-1.542627,-2.592750,0.926618,-0.342174,-0.502173,0.113496,0.187257,0.141735
9537.918000,1.408000,4,END d_bow,None,,,,0.000000,0.311262,0.785538,0.108306,-1.563288,-2.318702,1.307807,-2.197436,-0.176043,0.445868,-0.963762,-1.544040,-2.592551,0.462130,-1.512151,0.035269,0.122766,0.177493,0.135488
9537.926000,1.416000,4,END d_bow,None,,,,0.000000,0.310728,0.785967,0.107857,-1.562296,-2.320572,1.309773,-2.196618,-0.173947,0.442379,-0.961561,-1.545531,-2.592387,0.948940,-0.323772,-1.307891,0.103702,0.205453,0.144520
9537.958000,1.448000,4,END d_bow,None,,,,0.000000,0.308861,0.787520,0.106273,-1.558765,-2.327212,1.317008,-2.193727,-0.166152,0.429196,-0.953156,-1.550941,-2.591752,0.691125,-0.557818,-0.652853,0.090260,0.179408,0.147967
9537.966000,1.456000,4,END d_bow,None,,,,0.000000,0.308426,0.787871,0.105898,-1.557959,-2.328724,1.318763,-2.193063,-0.164352,0.426164,-0.951177,-1.552213,-2.591581,0.471435,-0.314507,-0.370437,0.091907,0.171674,0.138185
9537.974000,1.464000,4,END d_bow,None,,,,0.000000,0.307980,0.788229,0.105609,-1.557107,-2.330258,1.320270,-2.192377,-0.162659,0.423165,-0.949260,-1.553376,-2.591471,0.762863,-1.463086,0.243304,0.096512,0.162560,0.141968
9537.982000,1.472000,4,END d_bow,None,,,,0.000000,0.307561,0.788560,0.105267,-1.556357,-2.331786,1.321783,-2.191743,-0.160972,0.420306,-0.947491,-1.554598,-2.591321,1.120563,-0.934765,0.257438,0.095000,0.171127,0.140054
9537.990000,1.480000,4,END d_bow,None,,,,0.000000,0.307163,0.788880,0.104972,-1.555597,-2.333278,1.323199,-2.191132,-0.159358,0.417488,-0.945734,-1.555768,-2.591208,1.169887,-0.366217,-0.151995,0.085907,0.187301,0.151826
9537.998000,1.488000,4,END d_bow,None,,,,0.000000,0.306762,0.789189,0.104632,-1.554816,-2.334640,1.324747,-2.190528,-0.157737,0.414777,-0.943978,-1.556884,-2.591088,1.018975,-0.749105,0.376693,0.095156,0.162976,0.146455
9538.006000,1.496000,4,END d_bow,None,,,,0.000000,0.306368,0.789492,0.104322,-1.554089,-2.335985,1.326203,-2.189934,-0.156185,0.412134,-0.942280,-1.557968,-2.590953,1.267354,-1.443757,0.647498,0.113131,0.167008,0.133790
9538.038000,1.528000,4,END d_bow,None,,,,0.000000,0.304923,0.790579,0.103061,-1.551335,-2.340868,1.331587,-2.187775,-0.150337,0.402453,-0.936165,-1.561921,-2.590508,1.491097,-0.818967,0.607014,0.130056,0.171523,0.108356
9538.070000,1.560000,4,END d_bow,None,,,,0.000000,0.303722,0.791463,0.102024,-1.549077,-2.344909,1.336179,-2.185997,-0.145487,0.394382,-0.930980,-1.565261,-2.590090,1.852502,-0.912789,0.909160,0.132760,0.147909,0.082046
9538.078000,1.568000,4,END d_bow,None,,,,0.000000,0.303471,0.791652,0.101818,-1.548593,-2.345831,1.337106,-2.185621,-0.144437,0.392588,-0.929863,-1.566005,-2.590014,2.117079,0.230632,0.143026,0.118539,0.173756,0.087719
9538.086000,1.576000,4,END d_bow,None,,,,0.000000,0.303222,0.791836,0.101654,-1.548093,-2.346763,1.337955,-2.185250,-0.143475,0.390879,-0.928785,-1.566725,-2.589965,2.225461,-0.582294,1.117474,0.129882,0.151001,0.088292
9538.094000,1.584000,4,END d_bow,None,,,,0.000000,0.302944,0.792033,0.101477,-1.547684,-2.347594,1.338872,-2.184847,-0.142525,0.389220,-0.927697,-1.567384,-2.589819,2.090030,-0.478126,1.307947,0.132136,0.148459,0.086518
9538.102000,1.592000,4,END d_bow,None,,,,0.000000,0.302729,0.792198,0.101309,-1.547257,-2.348379,1.339646,-2.184522,-0.141615,0.387644,-0.926718,-1.568004,-2.589763,2.304260,0.267007,0.628078,0.124265,0.165785,0.092574
9538.174000,1.664000,4,END d_bow,None,,,,0.000000,0.301146,0.793288,0.100130,-1.544293,-2.353593,1.345067,-2.182223,-0.135755,0.377707,-0.920384,-1.572099,-2.589320,2.573386,-0.237732,1.009154,0.126068,0.147739,0.074984
9538.182000,1.672000,4,END d_bow,None,,,,0.000000,0.301040,0.793363,0.100082,-1.544122,-2.353988,1.345336,-2.182067,-0.135395,0.377032,-0.919988,-1.572378,-2.589288,2.724414,-0.085814,0.481089,0.118195,0.159209,0.075795
9538.190000,1.680000,4,END d_bow,None,,,,0.000000,0.300951,0.793426,0.100019,-1.543934,-2.354267,1.345621,-2.181936,-0.135059,0.376457,-0.919625,-1.572583,-2.589279,2.159158,0.386236,1.028376,0.141141,0.146826,0.067207
9538.278000,1.768000,1,START a_bow,Note,67.000000,G4,A,0.329500,0.301084,0.793130,0.100039,-1.543764,-2.354582,1.346664,-2.182264,-0.136168,0.378619,-0.920140,-1.573479,-2.589399,2.035233,1.314566,0.237121,0.121969,0.102494,-0.005217
9538.286000,1.776000,1,START a_bow,Note,67.000000,G4,A,0.321500,0.301130,0.792986,0.100097,-1.543699,-2.354547,1.346763,-2.182401,-0.136911,0.380032,-0.920735,-1.573579,-2.589511,1.629860,1.164967,0.747380,0.126782,0.059683,-0.037548
9538.294000,1.784000,1,START a_bow,Note,67.000000,G4,A,0.313500,0.301233,0.792800,0.100168,-1.543706,-2.354511,1.346795,-2.182624,-0.137777,0.381668,-0.921480,-1.573734,-2.589638,1.405027,2.047579,0.438751,0.121859,0.031159,-0.072585
9538.382000,1.872000,1,START a_bow,Note,67.000000,G4,A,0.225500,0.302699,0.789205,0.101694,-1.542748,-2.354464,1.347538,-2.186368,-0.155034,0.414058,-0.936040,-1.576642,-2.592488,1.046900,1.157542,0.573114,0.103856,-0.029621,-0.130820
9538.390000,1.880000,1,START a_bow,Note,67.000000,G4,A,0.217500,0.302928,0.788712,0.101866,-1.542660,-2.354368,1.347727,-2.186914,-0.157194,0.418156,-0.937836,-1.577038,-2.592852,1.021373,1.269582,0.160230,0.110265,-0.019363,-0.128058
9538.398000,1.888000,1,START a_bow,Note,67.000000,G4,A,0.209500,0.303092,0.788276,0.101996,-1.542485,-2.354366,1.347845,-2.187353,-0.159123,0.421890,-0.939546,-1.577382,-2.593223,0.931793,0.570727,0.891009,0.119143,-0.016443,-0.120842
9538.406000,1.896000,1,START a_bow,Note,67.000000,G4,A,0.201500,0.303284,0.787848,0.102175,-1.542336,-2.354337,1.347995,-2.187817,-0.161003,0.425388,-0.941050,-1.577741,-2.593586,0.778095,0.710988,1.206329,0.116630,-0.025298,-0.113690
9538.414000,1.904000,1,START a_bow,Note,66.000000,F#4,A,0.493500,0.303467,0.787447,0.102354,-1.542241,-2.354301,1.348051,-2.188256,-0.162783,0.428674,-0.942503,-1.578049,-2.593915,0.493192,0.016198,1.384174,0.116854,-0.025003,-0.107951
9538.470000,1.960000,1,START a_bow,Note,66.000000,F#4,A,0.437500,0.304493,0.785293,0.103203,-1.541755,-2.353984,1.348547,-2.190660,-0.171871,0.445631,-0.949948,-1.579727,-2.595651,0.811475,0.952974,0.775880,0.136744,-0.012633,-0.126599
9538.478000,1.968000,1,START a_bow,Note,66.000000,F#4,A,0.429500,0.304565,0.785100,0.103293,-1.541685,-2.353906,1.348663,-2.190857,-0.172730,0.447208,-0.950570,-1.579845,-2.595800,0.921426,0.755077,0.700288,0.132789,0.001600,-0.128162
9538.486000,1.976000,1,START a_bow,Note,66.000000,F#4,A,0.421500,0.304645,0.784929,0.103375,-1.541635,-2.353961,1.348622,-2.191045,-0.173452,0.448520,-0.951190,-1.580008,-2.595959,0.560520,1.140192,0.607673,0.133974,-0.006979,-0.122114
9538.494000,1.984000,1,START a_bow,Note,66.000000,F#4,A,0.413500,0.304717,0.784779,0.103419,-1.541636,-2.353942,1.348689,-2.191216,-0.174053,0.449666,-0.951694,-1.580151,-2.596052,0.527957,1.100087,0.603792,0.139055,0.003191,-0.126398
9538.502000,1.992000,1,START a_bow,Note,66.000000,F#4,A,0.405500,0.304799,0.784655,0.103494,-1.541627,-2.353914,1.348601,-2.191375,-0.174562,0.450554,-0.952115,-1.580212,-2.596175,1.046688,0.759226,1.120921,0.137257,-0.006808,-0.118272
9538.510000,2.000000,1,START a_bow,Note,66.000000,F#4,A,0.397500,0.304867,0.784552,0.103541,-1.541720,-2.353849,1.348626,-2.191515,-0.174982,0.451308,-0.952435,-1.580296,-2.596193,0.580925,1.109940,0.751407,0.135074,-0.004231,-0.117193
9538.518000,2.008000,1,START a_bow,Note,66.000000,F#4,A,0.389500,0.304913,0.784480,0.103596,-1.541712,-2.353817,1.348629,-2.191606,-0.175294,0.451824,-0.952628,-1.580339,-2.596255,0.838812,1.053527,0.757836,0.131445,-0.000209,-0.116738
9538.526000,2.016000,1,START a_bow,Note,66.000000,F#4,A,0.381500,0.304875,0.784464,0.103602,-1.541682,-2.353811,1.348668,-2.191581,-0.175459,0.452153,-0.952764,-1.580323,-2.596252,0.458369,1.185868,0.782522,0.137620,-0.007121,-0.117298
9538.534000,2.024000,1,START a_bow,Note,66.000000,F#4,A,0.373500,0.304848,0.784461,0.103604,-1.541603,-2.353844,1.348716,-2.191553,-0.175511,0.452262,-0.952789,-1.580332,-2.596279,0.963174,1.562883,0.456682,0.131349,0.002011,-0.123959
9538.542000,2.032000,2,END a_bow,Note,66.000000,F#4,A,0.365500,0.304862,0.784462,0.103590,-1.541668,-2.353827,1.348696,-2.191569,-0.175472,0.452211,-0.952795,-1.580335,-2.596248,0.915230,1.296242,0.924684,0.136184,0.003263,-0.120017
9538.550000,2.040000,2,END a_bow,Note,66.000000,F#4,A,0.357500,0.304838,0.784459,0.103549,-1.541584,-2.353750,1.348928,-2.191548,-0.175460,0.452285,-0.952716,-1.580332,-2.596248,0.278941,0.060005,1.407536,0.136341,-0.011040,-0.111070
9538.558000,2.048000,2,END a_bow,Note,66.000000,F#4,A,0.349500,0.304804,0.784475,0.103546,-1.541575,-2.353802,1.348912,-2.191503,-0.175448,0.452266,-0.952729,-1.580332,-2.596229,1.203245,0.893693,1.028313,0.133731,-0.000452,-0.117116
9538.566000,2.056000,1,START a_bow,Note,66.000000,F#4,A,0.341500,0.304783,0.784480,0.103526,-1.541480,-2.353830,1.348985,-2.191476,-0.175411,0.452243,-0.952693,-1.580344,-2.596264,0.912470,0.471926,1.200409,0.129039,-0.006906,-0.108972
9538.574000,2.064000,1,START a_bow,Note,66.000000,F#4,A,0.333500,0.304768,0.784517,0.103514,-1.541471,-2.353891,1.348904,-2.191435,-0.175250,0.451942,-0.952613,-1.580328,-2.596260,0.956086,0.530640,1.415415,0.120267,-0.010205,-0.102746
9538.582000,2.072000,1,START a_bow,Note,66.000000,F#4,A,0.325500,0.304691,0.784579,0.103419,-1.541350,-2.353918,1.349116,-2.191317,-0.174957,0.451562,-0.952393,-1.580320,-2.596228,1.153926,0.209520,1.032175,0.122940,0.011673,-0.101261
9538.590000,2.080000,1,START a_bow,Note,66.000000,F#4,A,0.317500,0.304632,0.784666,0.103372,-1.541350,-2.354026,1.349055,-2.191202,-0.174605,0.450941,-0.952185,-1.580296,-2.596168,1.361495,0.213707,0.936526,0.132522,0.026115,-0.077272
9538.598000,2.088000,1,START a_bow,Note,66.000000,F#4,A,0.309500,0.304590,0.784765,0.103335,-1.541356,-2.354078,1.349019,-2.191095,-0.174177,0.450136,-0.951842,-1.580243,-2.596103,1.600806,-0.506283,1.621270,0.151539,0.046427,-0.057965
9538.606000,2.096000,1,START a_bow,Note,66.000000,F#4,A,0.301500,0.304534,0.784896,0.103275,-1.541403,-2.354148,1.348933,-2.190954,-0.173614,0.449104,-0.951446,-1.580168,-2.596000,1.886492,-0.754611,1.602550,0.154891,0.074271,-0.028404
9538.614000,2.104000,1,START a_bow,Note,66.000000,F#4,A,0.293500,0.304477,0.785046,0.103250,-1.541425,-2.354256,1.348789,-2.190798,-0.173005,0.447888,-0.950950,-1.580084,-2.595916,1.903580,-0.693172,1.583156,0.151016,0.096948,0.010795
9538.622000,2.112000,1,START a_bow,Note,66.000000,F#4,A,0.285500,0.304406,0.785227,0.103191,-1.541506,-2.354281,1.348677,-2.190610,-0.172253,0.446460,-0.950355,-1.579933,-2.595765,2.259177,-1.631219,2.079339,0.164109,0.122111,0.035489
9538.630000,2.120000,1,START a_bow,Note,66.000000,F#4,A,0.277500,0.304326,0.785439,0.103150,-1.541564,-2.354399,1.348448,-2.190391,-0.171393,0.444761,-0.949684,-1.579781,-2.595634,2.362710,-1.186741,2.056457,0.183203,0.163275,0.074843
9538.638000,2.128000,1,START a_bow,Note,66.000000,F#4,A,0.269500,0.304201,0.785681,0.103042,-1.541575,-2.354475,1.348387,-2.190109,-0.170370,0.442888,-0.948887,-1.579605,-2.595462,2.681858,-0.062674,0.534984,0.171040,0.230547,0.105120
9538.646000,2.136000,1,START a_bow,Note,66.000000,F#4,A,0.261500,0.304121,0.785923,0.102902,-1.541679,-2.354398,1.348377,-2.189876,-0.169238,0.440866,-0.947999,-1.579382,-2.595247,2.479444,-0.916290,1.258744,0.180431,0.202742,0.091194
9538.654000,2.144000,1,START a_bow,Note,66.000000,F#4,A,0.253500,0.303990,0.786216,0.102769,-1.541741,-2.354354,1.348412,-2.189558,-0.167967,0.438530,-0.946912,-1.579130,-2.595000,2.349849,-0.880747,1.232590,0.179675,0.196548,0.087417
9538.662000,2.152000,1,START a_bow,Note,66.000000,F#4,A,0.245500,0.303888,0.786515,0.102669,-1.541805,-2.354386,1.348290,-2.189262,-0.166639,0.435993,-0.945788,-1.578894,-2.594795,2.331136,-0.910068,1.351038,0.178478,0.195280,0.083668
9538.670000,2.160000,1,START a_bow,Note,66.000000,F#4,A,0.237500,0.303753,0.786851,0.102545,-1.541947,-2.354414,1.348250,-2.188914,-0.165179,0.433229,-0.944535,-1.578666,-2.594488,2.375177,-1.383572,1.546563,0.168492,0.190351,0.098907
9538.678000,2.168000,1,START a_bow,Note,66.000000,F#4,A,0.229500,0.303589,0.787220,0.102431,-1.541989,-2.354430,1.348194,-2.188512,-0.163616,0.430232,-0.943140,-1.578358,-2.594220,2.538956,-1.827553,1.750380,0.172699,0.182220,0.083993
9538.686000,2.176000,1,START a_bow,Note,66.000000,F#4,A,0.221500,0.303457,0.787609,0.102310,-1.542189,-2.354428,1.347993,-2.188133,-0.161914,0.426958,-0.941713,-1.578028,-2.593885,2.406341,-0.717036,1.249693,0.167164,0.185789,0.086543
9538.694000,2.184000,1,START a_bow,Note,66.000000,F#4,A,0.213500,0.303267,0.788030,0.102157,-1.542279,-2.354490,1.347885,-2.187674,-0.160080,0.423491,-0.940168,-1.577704,-2.593558,2.639784,-1.243339,1.159584,0.161092,0.190688,0.090548
9538.702000,2.192000,1,START a_bow,Note,66.000000,F#4,A,0.205500,0.303060,0.788478,0.101942,-1.542317,-2.354505,1.347851,-2.187179,-0.158040,0.419758,-0.938501,-1.577333,-2.593230,2.863782,-1.227648,1.705210,0.168483,0.175951,0.079193
9538.710000,2.200000,1,START a_bow,Note,66.000000,F#4,A,0.197500,0.302830,0.788953,0.101707,-1.542399,-2.354485,1.347911,-2.186648,-0.155884,0.415815,-0.936686,-1.576952,-2.592831,2.224431,-1.156214,1.537413,0.173384,0.170197,0.069537
9538.718000,2.208000,1,START a_bow,Note,67.000000,G4,A,1.989500,0.302656,0.789422,0.101489,-1.542596,-2.354564,1.347583,-2.186175,-0.153662,0.411712,-0.935040,-1.576566,-2.592464,2.460516,0.337575,1.178624,0.163129,0.188352,0.073156
9538.726000,2.216000,1,START a_bow,Note,67.000000,G4,A,1.981500,0.302490,0.789856,0.101291,-1.542710,-2.354393,1.347770,-2.185736,-0.151596,0.407857,-0.933119,-1.576190,-2.592077,1.304023,-1.602320,1.987966,0.173522,0.162808,0.079566
9538.734000,2.224000,1,START a_bow,Note,67.000000,G4,A,1.973500,0.302225,0.790307,0.101043,-1.542735,-2.354581,1.347589,-2.185182,-0.149545,0.404189,-0.931652,-1.575853,-2.591748,2.435369,-0.141918,1.315472,0.173300,0.188850,0.076989
9538.742000,2.232000,1,START a_bow,Note,67.000000,G4,A,1.965500,0.302045,0.790697,0.100825,-1.542780,-2.354529,1.347600,-2.184755,-0.147656,0.400781,-0.930120,-1.575498,-2.591449,2.200395,1.061780,-0.063150,0.146768,0.211780,0.085110
9538.750000,2.240000,1,START a_bow,Note,67.000000,G4,A,1.957500,0.301883,0.791054,0.100583,-1.542825,-2.354500,1.347674,-2.184367,-0.145833,0.397564,-0.928682,-1.575218,-2.591161,2.279164,0.916574,0.519769,0.152932,0.197049,0.087365
9538.758000,2.248000,1,START a_bow,Note,67.000000,G4,A,1.949500,0.301688,0.791403,0.100380,-1.542824,-2.354435,1.347832,-2.183952,-0.144175,0.394591,-0.927259,-1.574911,-2.590874,2.472848,1.282303,0.024688,0.146792,0.205747,0.087923
9538.766000,2.256000,1,START a_bow,Note,67.000000,G4,A,1.941500,0.301540,0.791719,0.100200,-1.542886,-2.354363,1.347919,-2.183605,-0.142615,0.391768,-0.925937,-1.574636,-2.590598,1.824308,0.351795,0.269646,0.141375,0.193604,0.087682
9538.774000,2.264000,1,START a_bow,Note,67.000000,G4,A,1.933500,0.301409,0.792006,0.100066,-1.542975,-2.354443,1.347771,-2.183294,-0.141225,0.389191,-0.924868,-1.574423,-2.590371,2.536756,-0.222801,1.425875,0.159752,0.161850,0.072502
9538.782000,2.272000,1,START a_bow,Note,67.000000,G4,A,1.925500,0.301289,0.792271,0.099953,-1.543011,-2.354424,1.347815,-2.183007,-0.139944,0.386781,-0.923713,-1.574214,-2.590159,2.295929,-0.281869,1.051364,0.136347,0.176973,0.086035
9538.790000,2.280000,1,START a_bow,Note,67.000000,G4,A,1.917500,0.301198,0.792515,0.099910,-1.543156,-2.354485,1.347544,-2.182762,-0.138838,0.384569,-0.922799,-1.574000,-2.589958,2.339174,-0.284876,1.571812,0.144384,0.152983,0.074948
9538.798000,2.288000,1,START a_bow,Note,67.000000,G4,A,1.909500,0.301085,0.792746,0.099901,-1.543229,-2.354583,1.347397,-2.182503,-0.137871,0.382554,-0.921870,-1.573839,-2.589775,2.111276,-0.456412,1.408604,0.130452,0.156503,0.084649
9538.806000,2.296000,1,START a_bow,Note,67.000000,G4,A,1.901500,0.301022,0.792940,0.099888,-1.543378,-2.354644,1.347154,-2.182319,-0.137001,0.380760,-0.921123,-1.573684,-2.589604,2.530993,0.201890,0.936576,0.127365,0.173357,0.091090
9538.814000,2.304000,1,START a_bow,Note,67.000000,G4,A,1.893500,0.300942,0.793115,0.099872,-1.543428,-2.354690,1.346999,-2.182127,-0.136239,0.379202,-0.920434,-1.573524,-2.589479,2.683913,-0.038275,1.555125,0.147532,0.161170,0.077908
9538.822000,2.312000,1,START a_bow,Note,67.000000,G4,A,1.885500,0.300859,0.793262,0.099841,-1.543479,-2.354756,1.346909,-2.181952,-0.135603,0.377942,-0.919885,-1.573420,-2.589352,2.057334,-0.285567,1.704355,0.157564,0.148617,0.073999
9538.830000,2.320000,1,START a_bow,Note,67.000000,G4,A,1.877500,0.300793,0.793377,0.099780,-1.543458,-2.354779,1.346930,-2.181813,-0.135040,0.376914,-0.919410,-1.573336,-2.589276,2.438582,0.052279,0.911340,0.134468,0.176847,0.090005
9538.838000,2.328000,1,START a_bow,Note,67.000000,G4,A,1.869500,0.300735,0.793466,0.099751,-1.543414,-2.354894,1.346878,-2.181696,-0.134621,0.376109,-0.919075,-1.573311,-2.589243,2.350456,-0.331948,1.640534,0.153926,0.156090,0.074019
9538.846000,2.336000,1,START a_bow,Note,67.000000,G4,A,1.861500,0.300743,0.793514,0.099768,-1.543432,-2.354947,1.346756,-2.181670,-0.134361,0.375522,-0.918834,-1.573292,-2.589238,2.406351,-0.218509,1.134040,0.141973,0.162389,0.080505
9538.854000,2.344000,1,START a_bow,Note,67.000000,G4,A,1.853500,0.300762,0.793534,0.099760,-1.543499,-2.354949,1.346720,-2.181678,-0.134208,0.375218,-0.918714,-1.573299,-2.589204,2.270040,1.048678,0.302529,0.130877,0.174609,0.082498
9538.862000,2.352000,2,END a_bow,Note,67.000000,G4,A,1.845500,0.300732,0.793552,0.099765,-1.543469,-2.355000,1.346672,-2.181636,-0.134185,0.375160,-0.918714,-1.573283,-2.589207,1.962336,-0.350393,1.263367,0.147577,0.146927,0.074924
9538.870000,2.360000,2,END a_bow,Note,67.000000,G4,A,1.837500,0.300734,0.793550,0.099776,-1.543485,-2.354961,1.346726,-2.181640,-0.134212,0.375184,-0.918674,-1.573280,-2.589188,2.151755,-0.872365,1.636869,0.145323,0.154658,0.080633
9538.878000,2.368000,2,END a_bow,Note,67.000000,G4,A,1.829500,0.300790,0.793530,0.099781,-1.543560,-2.354899,1.346689,-2.181710,-0.134217,0.375181,-0.918683,-1.573283,-2.589188,1.990008,0.325594,1.124839,0.144609,0.156123,0.068920
9538.886000,2.376000,2,END a_bow,Note,67.000000,G4,A,1.821500,0.300811,0.793526,0.099816,-1.543611,-2.354915,1.346583,-2.181734,-0.134256,0.375175,-0.918711,-1.573283,-2.589188,1.692809,0.455563,1.327577,0.147774,0.140894,0.070446
9538.894000,2.384000,1,START a_bow,Note,67.000000,G4,A,1.813500,0.300808,0.793521,0.099857,-1.543606,-2.354980,1.346456,-2.181732,-0.134351,0.375277,-0.918805,-1.573283,-2.589214,1.878870,0.231990,1.052379,0.146751,0.155664,0.064320
9538.902000,2.392000,1,START a_bow,Note,67.000000,G4,A,1.805500,0.300898,0.793442,0.099936,-1.543670,-2.354837,1.346504,-2.181874,-0.134709,0.375823,-0.918941,-1.573307,-2.589250,1.298856,-0.761093,1.444586,0.158270,0.131267,0.049801
9538.910000,2.400000,1,START a_bow,Note,67.000000,G4,A,1.797500,0.300944,0.793349,0.099977,-1.543663,-2.354839,1.346495,-2.181979,-0.135164,0.376675,-0.919343,-1.573383,-2.589322,1.543108,1.318182,0.824820,0.145786,0.122849,0.044255
9538.918000,2.408000,1,START a_bow,Note,67.000000,G4,A,1.789500,0.301042,0.793218,0.100088,-1.543716,-2.354792,1.346397,-2.182160,-0.135833,0.377801,-0.919853,-1.573455,-2.589418,1.314658,1.375273,0.450989,0.134568,0.104641,0.007780
9538.926000,2.416000,1,START a_bow,Note,67.000000,G4,A,1.781500,0.301115,0.793057,0.100139,-1.543711,-2.354683,1.346507,-2.182336,-0.136620,0.379324,-0.920499,-1.573542,-2.589511,1.387315,2.299594,-0.245664,0.120727,0.085348,-0.022016
9538.934000,2.424000,1,START a_bow,Note,67.000000,G4,A,1.773500,0.301162,0.792879,0.100220,-1.543659,-2.354638,1.346534,-2.182497,-0.137600,0.381183,-0.921343,-1.573627,-2.589641,0.847324,2.663067,-0.377757,0.117535,0.051101,-0.062030
9538.942000,2.432000,1,START a_bow,Note,67.000000,G4,A,1.765500,0.301294,0.792620,0.100263,-1.543574,-2.354449,1.346877,-2.182795,-0.138717,0.383413,-0.922202,-1.573818,-2.589821,0.785776,1.896605,0.288004,0.106858,0.000146,-0.098535
9538.950000,2.440000,1,START a_bow,Note,67.000000,G4,A,1.757500,0.301404,0.792356,0.100365,-1.543576,-2.354392,1.346941,-2.183075,-0.140033,0.385915,-0.923338,-1.574010,-2.589981,0.783493,1.991512,-0.214455,0.091096,-0.040277,-0.141468
9538.958000,2.448000,1,START a_bow,Note,67.000000,G4,A,1.749500,0.301546,0.792047,0.100491,-1.543548,-2.354345,1.346977,-2.183414,-0.141529,0.388738,-0.924629,-1.574238,-2.590205,0.603487,1.382878,0.171468,0.095915,-0.051302,-0.145413
9538.966000,2.456000,1,START a_bow,Note,67.000000,G4,A,1.741500,0.301711,0.791698,0.100661,-1.543507,-2.354338,1.346966,-2.183801,-0.143232,0.391885,-0.926073,-1.574513,-2.590476,0.403336,1.793804,0.494101,0.103558,-0.048120,-0.135966
9538.974000,2.464000,1,START a_bow,Note,67.000000,G4,A,1.733500,0.301853,0.791329,0.100868,-1.543490,-2.354395,1.346852,-2.184178,-0.145143,0.395376,-0.927731,-1.574797,-2.590744,0.644499,2.032993,-0.016261,0.090030,-0.031925,-0.136541
9538.982000,2.472000,1,START a_bow,Note,67.000000,G4,A,1.725500,0.302062,0.790906,0.101116,-1.543481,-2.354495,1.346669,-2.184655,-0.147217,0.399109,-0.929519,-1.575168,-2.591083,0.459376,1.166104,1.289453,0.117545,-0.045194,-0.125302
9538.990000,2.480000,1,START a_bow,Note,67.000000,G4,A,1.717500,0.302259,0.790439,0.101324,-1.543282,-2.354411,1.346907,-2.185146,-0.149424,0.403215,-0.931232,-1.575527,-2.591481,0.510681,1.085457,0.645007,0.099351,-0.037124,-0.124218
9538.998000,2.488000,1,START a_bow,Note,67.000000,G4,A,1.709500,0.302449,0.789943,0.101532,-1.543180,-2.354467,1.346979,-2.185653,-0.151790,0.407656,-0.933266,-1.575966,-2.591853,0.845619,1.455502,0.413599,0.117109,-0.024630,-0.134165
9539.006000,2.496000,1,START a_bow,Note,67.000000,G4,A,1.701500,0.302653,0.789404,0.101706,-1.542999,-2.354397,1.347236,-2.186200,-0.154252,0.412386,-0.935344,-1.576391,-2.592269,0.531775,1.958823,0.137633,0.113172,-0.025332,-0.129961
9539.014000,2.504000,1,START a_bow,Note,64.000000,E4,A,1.993500,0.302897,0.788824,0.101909,-1.542833,-2.354339,1.347491,-2.186814,-0.156839,0.417302,-0.937490,-1.576878,-2.592717,0.493237,0.923170,0.629043,0.129670,-0.027190,-0.122781
9539.022000,2.512000,1,START a_bow,Note,64.000000,E4,A,1.985500,0.303164,0.788198,0.102103,-1.542600,-2.354277,1.347764,-2.187480,-0.159543,0.422496,-0.939776,-1.577397,-2.593239,0.839641,0.984358,0.795072,0.128595,-0.012337,-0.118617
9539.030000,2.520000,1,START a_bow,Note,64.000000,E4,A,1.977500,0.303452,0.787541,0.102371,-1.542432,-2.354272,1.347975,-2.188187,-0.162436,0.427885,-0.942128,-1.577984,-2.593754,0.506808,1.149236,0.621314,0.117790,-0.008041,-0.106746
9539.038000,2.528000,1,START a_bow,Note,64.000000,E4,A,1.969500,0.303773,0.786841,0.102607,-1.542286,-2.354188,1.348107,-2.188956,-0.165405,0.433533,-0.944692,-1.578524,-2.594309,0.916142,1.292784,0.901214,0.121824,-0.006517,-0.110728
9539.046000,2.536000,1,START a_bow,Note,64.000000,E4,A,1.961500,0.304094,0.786101,0.102869,-1.542097,-2.354157,1.348303,-2.189751,-0.168541,0.439461,-0.947339,-1.579146,-2.594896,0.646319,1.577722,0.815891,0.120556,-0.008293,-0.110140
9539.054000,2.544000,1,START a_bow,Note,64.000000,E4,A,1.953500,0.304435,0.785310,0.103146,-1.541834,-2.353985,1.348817,-2.190603,-0.171840,0.445677,-0.949885,-1.579809,-2.595507,0.389264,0.949694,0.974060,0.127965,-0.012676,-0.119067
9539.062000,2.552000,1,START a_bow,Note,64.000000,E4,A,1.945500,0.304835,0.784483,0.103440,-1.541659,-2.353840,1.349104,-2.191535,-0.175181,0.451952,-0.952597,-1.580484,-2.596153,0.560595,0.746628,0.470644,0.133050,-0.003575,-0.117219
9539.070000,2.560000,1,START a_bow,Note,64.000000,E4,A,1.937500,0.305215,0.783629,0.103775,-1.541440,-2.353735,1.349339,-2.192466,-0.178697,0.458491,-0.955433,-1.581160,-2.596837,0.884164,1.317224,0.892866,0.123349,-0.006537,-0.120401
9539.078000,2.568000,1,START a_bow,Note,64.000000,E4,A,1.929500,0.305612,0.782742,0.104179,-1.541238,-2.353687,1.349569,-2.193436,-0.182378,0.465192,-0.958285,-1.581916,-2.597535,0.569459,1.128487,0.759850,0.116086,-0.013892,-0.114976
9539.086000,2.576000,1,START a_bow,Note,64.000000,E4,A,1.921500,0.306068,0.781799,0.104587,-1.541098,-2.353575,1.349681,-2.194504,-0.186158,0.472102,-0.961310,-1.582659,-2.598274,0.343552,1.760650,0.958252,0.117309,-0.013140,-0.119791
9539.094000,2.584000,1,START a_bow,Note,64.000000,E4,A,1.913500,0.306505,0.780824,0.105028,-1.540805,-2.353493,1.349928,-2.195570,-0.190079,0.479222,-0.964310,-1.583450,-2.599091,-0.236392,1.181130,1.318200,0.124642,-0.016448,-0.121112
9539.102000,2.592000,1,START a_bow,Note,64.000000,E4,A,1.905500,0.306966,0.779826,0.105445,-1.540586,-2.353450,1.350085,-2.196680,-0.193972,0.486345,-0.967415,-1.584284,-2.599902,0.575330,1.148603,1.383183,0.125280,-0.008747,-0.124876
9539.110000,2.600000,1,START a_bow,Note,64.000000,E4,A,1.897500,0.307456,0.778788,0.105903,-1.540406,-2.353302,1.350351,-2.197849,-0.197997,0.493629,-0.970468,-1.585131,-2.600701,0.119904,0.945755,1.363242,0.117670,-0.013698,-0.109764
9539.118000,2.608000,1,START a_bow,Note,64.000000,E4,A,1.889500,0.307915,0.777712,0.106360,-1.540120,-2.353260,1.350702,-2.199012,-0.202152,0.501184,-0.973625,-1.586074,-2.601552,0.542557,0.996503,1.368538,0.125362,-0.021184,-0.111249
9539.126000,2.616000,1,START a_bow,Note,64.000000,E4,A,1.881500,0.308415,0.776572,0.106746,-1.539814,-2.353033,1.351190,-2.200262,-0.206337,0.508997,-0.976883,-1.586985,-2.602442,1.035683,1.887168,0.468005,0.117562,-0.009000,-0.119707
9539.134000,2.624000,1,START a_bow,Note,64.000000,E4,A,1.873500,0.308949,0.775408,0.107221,-1.539506,-2.352916,1.351458,-2.201558,-0.210611,0.516774,-0.980170,-1.587932,-2.603408,0.026499,1.405122,1.013560,0.130957,-0.014294,-0.109575
9539.142000,2.632000,1,START a_bow,Note,64.000000,E4,A,1.865500,0.309528,0.774200,0.107757,-1.539294,-2.352781,1.351733,-2.202936,-0.215022,0.524666,-0.983443,-1.588951,-2.604354,0.216679,1.577847,0.749532,0.114908,-0.012766,-0.106155
9539.150000,2.640000,1,START a_bow,Note,64.000000,E4,A,1.857500,0.310102,0.772967,0.108301,-1.539106,-2.352698,1.351918,-2.204328,-0.219499,0.532677,-0.986839,-1.589993,-2.605313,-0.019262,1.905935,1.166472,0.114883,-0.015329,-0.110946
9539.158000,2.648000,1,START a_bow,Note,64.000000,E4,A,1.849500,0.310670,0.771690,0.108828,-1.538857,-2.352549,1.352186,-2.205745,-0.224062,0.540922,-0.990309,-1.591020,-2.606311,0.594449,2.985807,0.211369,0.090495,-0.018010,-0.113814
9539.166000,2.656000,1,START a_bow,Note,64.000000,E4,A,1.841500,0.311232,0.770398,0.109335,-1.538484,-2.352428,1.352667,-2.207167,-0.228564,0.549075,-0.993618,-1.592139,-2.607353,0.139999,2.132567,0.842317,0.099245,-0.024337,-0.120987
9539.174000,2.664000,1,START a_bow,Note,64.000000,E4,A,1.833500,0.311794,0.769116,0.109812,-1.538156,-2.352379,1.352961,-2.208584,-0.232936,0.557049,-0.997008,-1.593245,-2.608399,0.739643,1.649941,1.103659,0.091773,-0.037783,-0.121416
9539.182000,2.672000,1,START a_bow,Note,64.000000,E4,A,1.825500,0.312387,0.767809,0.110317,-1.537851,-2.352059,1.353608,-2.210057,-0.237339,0.564990,-1.000072,-1.594324,-2.609391,0.455678,0.485688,1.421666,0.091598,-0.036068,-0.111086
9539.190000,2.680000,1,START a_bow,Note,64.000000,E4,A,1.817500,0.312981,0.766507,0.110865,-1.537632,-2.351796,1.353955,-2.211530,-0.241753,0.572855,-1.003245,-1.595345,-2.610385,0.003933,1.341032,1.584493,0.091422,-0.047054,-0.112256
9539.198000,2.688000,1,START a_bow,Note,64.000000,E4,A,1.809500,0.313590,0.765199,0.111453,-1.537329,-2.351698,1.354246,-2.213019,-0.246125,0.580528,-1.006332,-1.596474,-2.611459,-0.129989,1.382949,1.058415,0.078405,-0.048117,-0.114182
9539.206000,2.696000,1,START a_bow,Note,64.000000,E4,A,1.801500,0.314204,0.763892,0.112002,-1.537132,-2.351584,1.354421,-2.214519,-0.250405,0.588107,-1.009498,-1.597573,-2.612489,0.544937,1.552028,1.158898,0.084247,-0.049199,-0.116641
9539.214000,2.704000,1,START a_bow,Note,64.000000,E4,A,1.793500,0.314801,0.762595,0.112578,-1.536903,-2.351429,1.354638,-2.215998,-0.254667,0.595578,-1.012532,-1.598633,-2.613519,0.715599,1.419873,1.009481,0.090793,-0.046402,-0.122129
9539.222000,2.712000,1,START a_bow,Note,64.000000,E4,A,1.785500,0.315354,0.761300,0.113080,-1.536552,-2.351305,1.355020,-2.217431,-0.258817,0.603007,-1.015533,-1.599727,-2.614570,0.570130,1.877782,1.170715,0.092874,-0.044809,-0.127238
9539.230000,2.720000,1,START a_bow,Note,64.000000,E4,A,1.777500,0.315946,0.759995,0.113557,-1.536247,-2.351176,1.355425,-2.218915,-0.262855,0.610256,-1.018462,-1.600877,-2.615616,0.345260,1.740234,0.756306,0.094328,-0.037451,-0.128134
9539.238000,2.728000,1,START a_bow,Note,64.000000,E4,A,1.769500,0.316470,0.758715,0.114035,-1.535819,-2.351014,1.355990,-2.220314,-0.266864,0.617444,-1.021239,-1.601976,-2.616658,-0.160974,1.292384,0.622353,0.107339,-0.045433,-0.133600
9539.246000,2.736000,1,START a_bow,Note,64.000000,E4,A,1.761500,0.317080,0.757400,0.114548,-1.535532,-2.350853,1.356360,-2.221828,-0.270875,0.624539,-1.024058,-1.603115,-2.617716,0.212368,1.176960,0.281453,0.110606,-0.037009,-0.129535
9539.254000,2.744000,1,START a_bow,Note,64.000000,E4,A,1.753500,0.317640,0.756095,0.115085,-1.535278,-2.350759,1.356688,-2.223291,-0.274935,0.631668,-1.026907,-1.604257,-2.618727,0.956121,1.517507,0.413997,0.110281,-0.040399,-0.142171
9539.262000,2.752000,1,START a_bow,Note,64.000000,E4,A,1.745500,0.318225,0.754792,0.115646,-1.534999,-2.350546,1.357082,-2.224779,-0.278939,0.638619,-1.029564,-1.605346,-2.619757,0.564646,0.772200,0.690716,0.107460,-0.043408,-0.133881
9539.270000,2.760000,1,START a_bow,Note,64.000000,E4,A,1.737500,0.318843,0.753488,0.116207,-1.534745,-2.350432,1.357287,-2.226300,-0.282847,0.645375,-1.032259,-1.606468,-2.620831,0.943484,1.120867,0.590465,0.115882,-0.033321,-0.134960
9539.278000,2.768000,1,START a_bow,Note,64.000000,E4,A,1.729500,0.319472,0.752166,0.116736,-1.534497,-2.350175,1.357702,-2.227851,-0.286723,0.652137,-1.034838,-1.607586,-2.621873,0.481967,1.336249,0.607754,0.109311,-0.031495,-0.133682
9539.286000,2.776000,1,START a_bow,Note,64.000000,E4,A,1.721500,0.320038,0.750875,0.117283,-1.534249,-2.350105,1.358007,-2.229321,-0.290580,0.658804,-1.037455,-1.608749,-2.622888,0.676154,0.844762,0.809528,0.120069,-0.021108,-0.134743
9539.294000,2.784000,1,START a_bow,Note,64.000000,E4,A,1.713500,0.320607,0.749569,0.117809,-1.533895,-2.349925,1.358481,-2.230804,-0.294405,0.665461,-1.039952,-1.609883,-2.623947,0.739352,0.449619,0.776988,0.133413,-0.018767,-0.142217
9539.302000,2.792000,1,START a_bow,Note,64.000000,E4,A,1.705500,0.321218,0.748252,0.118323,-1.533513,-2.349687,1.358970,-2.232337,-0.298139,0.671965,-1.042360,-1.611010,-2.625052,0.049809,0.243007,0.704384,0.137830,-0.018232,-0.130029
9539.310000,2.800000,1,START a_bow,Note,64.000000,E4,A,1.697500,0.321819,0.746948,0.118844,-1.533250,-2.349432,1.359370,-2.233858,-0.301848,0.678395,-1.044783,-1.612101,-2.626087,0.598188,0.317518,0.399449,0.134787,-0.013468,-0.131223
9539.318000,2.808000,1,START a_bow,Note,64.000000,E4,A,1.689500,0.322427,0.745642,0.119408,-1.533008,-2.349373,1.359513,-2.235388,-0.305574,0.684749,-1.047316,-1.613255,-2.627168,0.675927,0.346481,0.651349,0.139440,-0.008298,-0.133694
9539.326000,2.816000,1,START a_bow,Note,64.000000,E4,A,1.681500,0.323023,0.744339,0.120006,-1.532803,-2.349285,1.359765,-2.236910,-0.309332,0.691058,-1.049712,-1.614434,-2.628195,0.763436,0.347870,1.129830,0.148951,-0.009985,-0.132587
9539.334000,2.824000,1,START a_bow,Note,64.000000,E4,A,1.673500,0.323638,0.743019,0.120563,-1.532528,-2.349109,1.360088,-2.238463,-0.313013,0.697326,-1.052069,-1.615581,-2.629274,1.254327,0.658056,0.574357,0.138743,-0.000541,-0.134989
9539.342000,2.832000,1,START a_bow,Note,64.000000,E4,A,1.665500,0.324235,0.741708,0.121071,-1.532229,-2.348901,1.360478,-2.239995,-0.316600,0.703523,-1.054399,-1.616711,-2.630340,0.500054,0.777656,0.679730,0.134601,-0.011757,-0.132933
9539.350000,2.840000,1,START a_bow,Note,64.000000,E4,A,1.657500,0.324823,0.740409,0.121599,-1.531926,-2.348761,1.360852,-2.241512,-0.320153,0.709592,-1.056662,-1.617877,-2.631403,0.762326,0.345582,0.642341,0.127103,-0.015501,-0.133547
9539.358000,2.848000,1,START a_bow,Note,64.000000,E4,A,1.649500,0.325434,0.739108,0.122142,-1.531682,-2.348608,1.361086,-2.243056,-0.323686,0.715584,-1.058955,-1.619007,-2.632473,0.338896,0.926902,0.909295,0.135201,-0.020738,-0.128065
9539.366000,2.856000,1,START a_bow,Note,64.000000,E4,A,1.641500,0.326005,0.737812,0.122660,-1.531415,-2.348435,1.361437,-2.244562,-0.327200,0.721593,-1.061209,-1.620137,-2.633508,0.410606,1.398317,0.803405,0.126704,-0.012966,-0.134452
9539.374000,2.864000,1,START a_bow,Note,64.000000,E4,A,1.633500,0.326586,0.736491,0.123178,-1.531008,-2.348313,1.361934,-2.246093,-0.330710,0.727591,-1.063368,-1.621363,-2.634620,0.077114,1.037567,0.715540,0.123761,-0.017918,-0.127093
9539.382000,2.872000,1,START a_bow,Note,64.000000,E4,A,1.625500,0.327190,0.735184,0.123699,-1.530732,-2.348124,1.362255,-2.247643,-0.334152,0.733441,-1.065549,-1.622502,-2.635695,0.128980,1.475385,0.505677,0.116927,-0.014858,-0.125986
9539.390000,2.880000,1,START a_bow,Note,64.000000,E4,A,1.617500,0.327787,0.733886,0.124298,-1.530487,-2.348081,1.362418,-2.249181,-0.337661,0.739218,-1.067726,-1.623689,-2.636777,0.198078,1.285816,0.777423,0.124358,-0.026835,-0.128763
9539.398000,2.888000,1,START a_bow,Note,64.000000,E4,A,1.609500,0.328395,0.732588,0.124890,-1.530339,-2.347984,1.362543,-2.250737,-0.341136,0.744935,-1.069899,-1.624848,-2.637811,0.056004,2.246436,0.345947,0.113129,-0.022310,-0.123811
9539.406000,2.896000,1,START a_bow,Note,64.000000,E4,A,1.601500,0.328955,0.731311,0.125444,-1.530052,-2.347961,1.362774,-2.252228,-0.344522,0.750569,-1.072017,-1.626035,-2.638877,0.002352,2.378248,0.857249,0.108863,-0.041799,-0.127550
9539.414000,2.904000,1,START a_bow,Note,64.000000,E4,A,1.593500,0.329508,0.730006,0.125942,-1.529675,-2.347734,1.363294,-2.253738,-0.347892,0.756315,-1.074031,-1.627180,-2.639947,0.152929,2.299472,0.534011,0.105344,-0.032439,-0.133636
9539.422000,2.912000,1,START a_bow,Note,64.000000,E4,A,1.585500,0.330075,0.728695,0.126428,-1.529358,-2.347452,1.363890,-2.255272,-0.351225,0.762007,-1.075982,-1.628345,-2.640974,0.135294,2.183937,0.099326,0.098304,-0.027078,-0.135027
9539.430000,2.920000,1,START a_bow,Note,64.000000,E4,A,1.577500,0.330645,0.727409,0.126930,-1.529039,-2.347310,1.364302,-2.256790,-0.354480,0.767496,-1.077951,-1.629531,-2.642034,-0.556004,1.532277,1.112115,0.102519,-0.053029,-0.133223
9539.438000,2.928000,1,START a_bow,Note,64.000000,E4,A,1.569500,0.331244,0.726109,0.127468,-1.528711,-2.347154,1.364697,-2.258348,-0.357755,0.772929,-1.079850,-1.630730,-2.643129,-0.601542,1.453722,0.989844,0.091488,-0.054172,-0.134403
9539.446000,2.936000,1,START a_bow,Note,64.000000,E4,A,1.561500,0.331862,0.724805,0.128028,-1.528502,-2.347053,1.364929,-2.259934,-0.361037,0.778310,-1.081818,-1.631947,-2.644196,-0.076126,2.034352,0.275605,0.092718,-0.033915,-0.133834
9539.454000,2.944000,1,START a_bow,Note,64.000000,E4,A,1.553500,0.332476,0.723485,0.128572,-1.528270,-2.346897,1.365228,-2.261530,-0.364320,0.783738,-1.083776,-1.633154,-2.645270,-0.146528,1.905151,0.525084,0.099493,-0.053832,-0.140483
9539.462000,2.952000,1,START a_bow,Note,64.000000,E4,A,1.545500,0.333096,0.722157,0.129133,-1.527964,-2.346664,1.365598,-2.263140,-0.367615,0.789148,-1.085632,-1.634325,-2.646385,0.224470,1.632330,0.328871,0.107441,-0.041475,-0.139260
9539.470000,2.960000,1,START a_bow,Note,64.000000,E4,A,1.537500,0.333719,0.720841,0.129718,-1.527807,-2.346540,1.365837,-2.264751,-0.370897,0.794448,-1.087522,-1.635559,-2.647430,0.744054,1.755747,0.009245,0.106491,-0.043288,-0.142887
9539.478000,2.968000,1,START a_bow,Note,64.000000,E4,A,1.529500,0.334335,0.719532,0.130269,-1.527566,-2.346385,1.366067,-2.266349,-0.374096,0.799681,-1.089409,-1.636738,-2.648525,0.796564,1.239453,0.075658,0.108855,-0.032999,-0.147214
9539.486000,2.976000,1,START a_bow,Note,64.000000,E4,A,1.521500,0.334900,0.718243,0.130790,-1.527211,-2.346230,1.366420,-2.267881,-0.377243,0.804887,-1.091231,-1.637896,-2.649628,0.358364,1.302214,0.412766,0.113897,-0.037348,-0.148258
9539.494000,2.984000,1,START a_bow,Note,64.000000,E4,A,1.513500,0.335524,0.716930,0.131316,-1.526994,-2.345995,1.366775,-2.269498,-0.380375,0.810030,-1.093012,-1.639087,-2.650688,0.494426,0.827314,0.115155,0.107341,-0.027179,-0.154575
9539.502000,2.992000,1,START a_bow,Note,64.000000,E4,A,1.505500,0.336119,0.715617,0.131853,-1.526652,-2.345857,1.367195,-2.271085,-0.383518,0.815166,-1.094745,-1.640336,-2.651800,-0.076308,0.613854,0.816923,0.121544,-0.045197,-0.152915
9539.510000,3.000000,1,START a_bow,Note,64.000000,E4,A,1.497500,0.336717,0.714311,0.132376,-1.526462,-2.345665,1.367508,-2.272679,-0.386633,0.820278,-1.096553,-1.641530,-2.652837,0.914788,0.500325,0.364657,0.129132,-0.025929,-0.161632
9539.518000,3.008000,1,START a_bow,Note,64.000000,E4,A,1.489500,0.337311,0.712995,0.132901,-1.526120,-2.345464,1.367922,-2.274273,-0.389736,0.825364,-1.098262,-1.642733,-2.653952,0.706634,1.062137,0.000994,0.134070,-0.017242,-0.156292
9539.526000,3.016000,1,START a_bow,Note,64.000000,E4,A,1.481500,0.337890,0.711703,0.133432,-1.525863,-2.345348,1.368189,-2.275839,-0.392802,0.830353,-1.100031,-1.643936,-2.655028,0.884086,0.914846,-0.051877,0.136302,-0.017696,-0.158338
9539.534000,3.024000,1,START a_bow,Note,64.000000,E4,A,1.473500,0.338474,0.710400,0.133956,-1.525470,-2.345276,1.368534,-2.277414,-0.395837,0.835300,-1.101739,-1.645189,-2.656183,0.483136,0.485228,0.245546,0.141272,-0.019025,-0.153777
9539.542000,3.032000,1,START a_bow,Note,64.000000,E4,A,1.465500,0.339071,0.709100,0.134492,-1.525243,-2.345093,1.368872,-2.279012,-0.398873,0.840198,-1.103399,-1.646400,-2.657240,0.634764,-0.059052,0.606033,0.151307,-0.011053,-0.153267
9539.550000,3.040000,1,START a_bow,Note,64.000000,E4,A,1.457500,0.339654,0.707798,0.135052,-1.524954,-2.344988,1.369174,-2.280597,-0.401939,0.845098,-1.105062,-1.647637,-2.658339,0.212021,0.206458,0.745417,0.149542,-0.014002,-0.144196
9539.558000,3.048000,1,START a_bow,Note,64.000000,E4,A,1.449500,0.340223,0.706506,0.135609,-1.524693,-2.344917,1.369431,-2.282162,-0.404983,0.849954,-1.106745,-1.648872,-2.659419,0.647325,0.721873,0.528009,0.144833,-0.008371,-0.146861
9539.566000,3.056000,1,START a_bow,Note,64.000000,E4,A,1.441500,0.340771,0.705219,0.136148,-1.524293,-2.344744,1.369896,-2.283705,-0.407988,0.854780,-1.108267,-1.650073,-2.660527,0.305051,0.347008,0.791966,0.138980,-0.007993,-0.148497
9539.574000,3.064000,1,START a_bow,Note,64.000000,E4,A,1.433500,0.341326,0.703927,0.136664,-1.523890,-2.344600,1.370337,-2.285259,-0.410945,0.859569,-1.109823,-1.651296,-2.661650,-0.230364,-0.084901,1.093542,0.144546,-0.025514,-0.150109
9539.582000,3.072000,1,START a_bow,Note,64.000000,E4,A,1.425500,0.341898,0.702636,0.137188,-1.523564,-2.344488,1.370774,-2.286836,-0.413880,0.864271,-1.111345,-1.652578,-2.662735,-0.138944,-0.188724,1.082353,0.149240,-0.019396,-0.154024
9539.590000,3.080000,1,START a_bow,Note,64.000000,E4,A,1.417500,0.342497,0.701344,0.137761,-1.523340,-2.344404,1.370908,-2.288442,-0.416846,0.868917,-1.112970,-1.653788,-2.663842,0.222177,1.445383,0.358697,0.133568,-0.027487,-0.148513
9539.598000,3.088000,1,START a_bow,Note,64.000000,E4,A,1.409500,0.343099,0.700046,0.138313,-1.523160,-2.344298,1.371081,-2.290062,-0.419786,0.873559,-1.114601,-1.655019,-2.664919,0.203884,1.540165,0.527674,0.143954,-0.017625,-0.142045
9539.606000,3.096000,1,START a_bow,Note,64.000000,E4,A,1.401500,0.343720,0.698712,0.138855,-1.522878,-2.344198,1.371398,-2.291728,-0.422736,0.878243,-1.116171,-1.656335,-2.666057,0.457199,2.605007,-0.140092,0.123665,-0.005462,-0.136830
9539.614000,3.104000,1,START a_bow,Note,64.000000,E4,A,1.393500,0.344307,0.697399,0.139385,-1.522595,-2.343984,1.371818,-2.293352,-0.425659,0.882901,-1.117652,-1.657574,-2.667142,-0.095207,1.302748,0.720877,0.135408,-0.027238,-0.142191
9539.622000,3.112000,1,START a_bow,Note,64.000000,E4,A,1.385500,0.344938,0.696068,0.139895,-1.522343,-2.343645,1.372225,-2.295037,-0.428530,0.887515,-1.119117,-1.658761,-2.668246,0.226568,1.252828,0.999150,0.137294,-0.024730,-0.148661
9539.630000,3.120000,1,START a_bow,Note,64.000000,E4,A,1.377500,0.345568,0.694753,0.140419,-1.522085,-2.343403,1.372601,-2.296709,-0.431366,0.892003,-1.120538,-1.660002,-2.669353,-0.443345,0.931427,0.921146,0.131632,-0.035318,-0.144802
9539.638000,3.128000,1,START a_bow,Note,64.000000,E4,A,1.369500,0.346150,0.693454,0.140974,-1.521818,-2.343281,1.373038,-2.298326,-0.434251,0.896491,-1.121912,-1.661322,-2.670418,-0.834752,0.843784,1.188287,0.123081,-0.048411,-0.145657
9539.646000,3.136000,1,START a_bow,Note,64.000000,E4,A,1.361500,0.346739,0.692160,0.141517,-1.521560,-2.343179,1.373289,-2.299944,-0.437087,0.900925,-1.123389,-1.662578,-2.671525,-0.062972,1.534803,0.612241,0.113671,-0.041993,-0.157135
9539.654000,3.144000,1,START a_bow,Note,64.000000,E4,A,1.353500,0.347341,0.690857,0.142079,-1.521367,-2.343048,1.373515,-2.301589,-0.439947,0.905349,-1.124853,-1.663832,-2.672609,-0.234813,2.493892,0.611992,0.106724,-0.051718,-0.148413
9539.662000,3.152000,1,START a_bow,Note,64.000000,E4,A,1.345500,0.347925,0.689553,0.142619,-1.521093,-2.342876,1.373822,-2.303217,-0.442782,0.909786,-1.126282,-1.665063,-2.673718,-0.038603,2.275906,0.529683,0.103292,-0.051564,-0.156776
9539.670000,3.160000,1,START a_bow,Note,64.000000,E4,A,1.337500,0.348501,0.688245,0.143164,-1.520764,-2.342721,1.374239,-2.304842,-0.445621,0.914208,-1.127631,-1.666344,-2.674833,-0.064779,1.569672,0.644103,0.103196,-0.049726,-0.157688
9539.678000,3.168000,1,START a_bow,Note,64.000000,E4,A,1.329500,0.349087,0.686932,0.143639,-1.520416,-2.342503,1.374730,-2.306487,-0.448349,0.918593,-1.128992,-1.667622,-2.675952,-0.158286,1.558295,0.871960,0.112138,-0.052390,-0.156647
9539.686000,3.176000,1,START a_bow,Note,64.000000,E4,A,1.321500,0.349675,0.685631,0.144169,-1.520051,-2.342354,1.375180,-2.308121,-0.451104,0.922877,-1.130267,-1.668927,-2.677088,-0.522889,1.368458,0.685906,0.109219,-0.047952,-0.143818
9539.694000,3.184000,1,START a_bow,Note,64.000000,E4,A,1.313500,0.350295,0.684322,0.144692,-1.519844,-2.342132,1.375507,-2.309805,-0.453835,0.927126,-1.131607,-1.670185,-2.678176,-0.159405,0.891371,0.517433,0.120509,-0.043690,-0.153884
9539.702000,3.192000,1,START a_bow,Note,64.000000,E4,A,1.305500,0.350883,0.683020,0.145219,-1.519567,-2.342009,1.375772,-2.311448,-0.456575,0.931387,-1.133000,-1.671451,-2.679304,-0.023354,1.460698,0.274495,0.115433,-0.041764,-0.156620
9539.710000,3.200000,1,START a_bow,Note,64.000000,E4,A,1.297500,0.351473,0.681730,0.145779,-1.519296,-2.341883,1.375982,-2.313085,-0.459318,0.935566,-1.134338,-1.672686,-2.680439,0.131168,1.240997,0.379206,0.115454,-0.043735,-0.157850
9539.718000,3.208000,1,START a_bow,Note,64.000000,E4,A,1.289500,0.352069,0.680434,0.146347,-1.519056,-2.341783,1.376268,-2.314739,-0.462065,0.939710,-1.135614,-1.673995,-2.681543,0.784607,0.978005,0.256980,0.122221,-0.036365,-0.167989
9539.726000,3.216000,1,START a_bow,Note,64.000000,E4,A,1.281500,0.352632,0.679130,0.146886,-1.518744,-2.341551,1.376652,-2.316372,-0.464824,0.943970,-1.136884,-1.675214,-2.682654,0.517977,0.493873,0.482859,0.134504,-0.040350,-0.181157
9539.734000,3.224000,1,START a_bow,Note,64.000000,E4,A,1.273500,0.353152,0.677851,0.147394,-1.518339,-2.341486,1.377099,-2.317937,-0.467513,0.948160,-1.138156,-1.676527,-2.683774,0.710079,1.048510,-0.292673,0.129397,-0.031688,-0.180733
9539.742000,3.232000,1,START a_bow,Note,64.000000,E4,A,1.265500,0.353753,0.676542,0.147945,-1.518095,-2.341325,1.377419,-2.319617,-0.470224,0.952274,-1.139404,-1.677825,-2.684886,0.000719,1.121408,-0.042247,0.126644,-0.041600,-0.179942
9539.750000,3.240000,1,START a_bow,Note,64.000000,E4,A,1.257500,0.354327,0.675246,0.148482,-1.517762,-2.341176,1.377804,-2.321259,-0.472903,0.956359,-1.140607,-1.679117,-2.686017,-0.105949,0.359221,0.302962,0.141317,-0.032415,-0.175632
9539.766000,3.256000,1,START a_bow,Note,64.000000,E4,A,1.241500,0.355565,0.672638,0.149598,-1.517309,-2.340902,1.378233,-2.324654,-0.478222,0.964330,-1.143092,-1.681691,-2.688293,0.237231,0.136798,0.612453,0.152482,-0.022279,-0.165683
9539.774000,3.264000,1,START a_bow,Note,64.000000,E4,A,1.233500,0.356174,0.671330,0.150127,-1.517052,-2.340844,1.378514,-2.326347,-0.480839,0.968294,-1.144344,-1.683063,-2.689432,0.665237,0.556816,0.831891,0.157879,-0.022744,-0.160490
9539.790000,3.280000,1,START a_bow,Note,64.000000,E4,A,1.217500,0.357378,0.668681,0.151148,-1.516401,-2.340339,1.379446,-2.329765,-0.486078,0.976345,-1.146618,-1.685672,-2.691716,0.399034,0.200624,0.377999,0.165306,-0.007995,-0.171550
9539.798000,3.288000,1,START a_bow,Note,64.000000,E4,A,1.209500,0.357966,0.667364,0.151638,-1.516068,-2.340125,1.379927,-2.331458,-0.488655,0.980330,-1.147762,-1.687001,-2.692848,0.256046,0.653599,0.318001,0.158147,-0.014786,-0.177556
9539.806000,3.296000,1,START a_bow,Note,64.000000,E4,A,1.201500,0.358550,0.666068,0.152140,-1.515795,-2.339985,1.380276,-2.333131,-0.491200,0.984217,-1.148944,-1.688323,-2.693964,-0.183370,0.647289,0.643171,0.154491,-0.028675,-0.170267
9539.830000,3.320000,1,START a_bow,Note,64.000000,E4,A,1.177500,0.360338,0.662179,0.153871,-1.515053,-2.339760,1.380949,-2.338199,-0.499036,0.995637,-1.152341,-1.692327,-2.697394,0.423021,1.256096,0.403207,0.143196,-0.024897,-0.164900
9539.846000,3.336000,1,START a_bow,Note,64.000000,E4,A,1.161500,0.361492,0.659584,0.154993,-1.514443,-2.339414,1.381632,-2.341558,-0.504216,1.003241,-1.154433,-1.694916,-2.699677,-0.759461,1.439506,0.911737,0.138135,-0.039867,-0.159515
9539.854000,3.344000,1,START a_bow,Note,64.000000,E4,A,1.153500,0.362051,0.658277,0.155464,-1.514031,-2.339221,1.382211,-2.343231,-0.506702,1.007070,-1.155460,-1.696283,-2.700821,-0.115935,1.109596,0.765683,0.139858,-0.042302,-0.177190
9539.862000,3.352000,1,START a_bow,Note,64.000000,E4,A,1.145500,0.362638,0.656972,0.155986,-1.513772,-2.339059,1.382606,-2.344938,-0.509218,1.010814,-1.156512,-1.697643,-2.701932,-0.470017,1.581304,0.670754,0.126812,-0.051762,-0.169280
9539.870000,3.360000,1,START a_bow,Note,64.000000,E4,A,1.137500,0.363242,0.655656,0.156506,-1.513489,-2.338767,1.383112,-2.346675,-0.511726,1.014543,-1.157453,-1.698972,-2.703045,-0.290207,0.963882,1.015694,0.127865,-0.048108,-0.179031
9539.878000,3.368000,1,START a_bow,Note,64.000000,E4,A,1.129500,0.363842,0.654370,0.157070,-1.513238,-2.338745,1.383214,-2.348376,-0.514223,1.018135,-1.158579,-1.700303,-2.704230,-0.027575,1.501961,0.634058,0.122704,-0.058980,-0.186397
9539.886000,3.376000,1,START a_bow,Note,64.000000,E4,A,1.121500,0.364429,0.653080,0.157591,-1.513030,-2.338608,1.383463,-2.350076,-0.516687,1.021773,-1.159673,-1.701619,-2.705343,-0.552596,2.195183,0.327069,0.112769,-0.066272,-0.172343
9539.894000,3.384000,1,START a_bow,Note,64.000000,E4,A,1.113500,0.365019,0.651773,0.158130,-1.512642,-2.338370,1.383928,-2.351792,-0.519176,1.025412,-1.160567,-1.702940,-2.706524,-0.373850,1.964111,0.115510,0.105170,-0.058910,-0.171210
9539.902000,3.392000,1,START a_bow,Note,64.000000,E4,A,1.105500,0.365613,0.650481,0.158688,-1.512468,-2.338281,1.384121,-2.353509,-0.521669,1.028993,-1.161634,-1.704287,-2.707640,0.056492,2.363790,-0.295906,0.103781,-0.045460,-0.186211
9539.910000,3.400000,1,START a_bow,Note,64.000000,E4,A,1.097500,0.366197,0.649179,0.159239,-1.512121,-2.338169,1.384461,-2.355219,-0.524152,1.032579,-1.162598,-1.705651,-2.708827,0.070434,1.950472,0.026487,0.112393,-0.057304,-0.184781
9539.918000,3.408000,1,START a_bow,Note,64.000000,E4,A,1.089500,0.366766,0.647859,0.159740,-1.511747,-2.337890,1.384944,-2.356939,-0.526621,1.036279,-1.163554,-1.706955,-2.709993,-0.018653,2.205746,-0.450706,0.110241,-0.043484,-0.187963
9539.926000,3.416000,1,START a_bow,Note,64.000000,E4,A,1.081500,0.367347,0.646559,0.160310,-1.511457,-2.337784,1.385242,-2.358654,-0.529120,1.039833,-1.164510,-1.708319,-2.711156,-0.210018,1.148753,0.130694,0.127842,-0.056361,-0.192345
9539.934000,3.424000,1,START a_bow,Note,64.000000,E4,A,1.073500,0.367941,0.645243,0.160831,-1.511165,-2.337665,1.385594,-2.360399,-0.531558,1.043396,-1.165505,-1.709723,-2.712322,0.119127,1.210064,-0.034884,0.127688,-0.045806,-0.195217
9539.942000,3.432000,1,START a_bow,Note,64.000000,E4,A,1.065500,0.368546,0.643942,0.161383,-1.510902,-2.337548,1.385874,-2.362142,-0.533989,1.046854,-1.166449,-1.711098,-2.713488,-0.104084,1.130125,0.081216,0.136044,-0.045779,-0.185572
9539.950000,3.440000,1,START a_bow,Note,64.000000,E4,A,1.057500,0.369173,0.642629,0.161974,-1.510749,-2.337372,1.386127,-2.363929,-0.536469,1.050293,-1.167342,-1.712467,-2.714613,0.081418,0.516473,0.341908,0.143586,-0.046434,-0.190126
9539.958000,3.448000,1,START a_bow,Note,64.000000,E4,A,1.049500,0.369789,0.641318,0.162514,-1.510522,-2.337229,1.386375,-2.365699,-0.538875,1.053732,-1.168310,-1.713835,-2.715779,0.346159,0.804538,0.149671,0.139379,-0.034779,-0.195149
9539.966000,3.456000,1,START a_bow,Note,64.000000,E4,A,1.041500,0.370397,0.640010,0.163067,-1.510283,-2.337147,1.386643,-2.367463,-0.541289,1.057141,-1.169250,-1.715254,-2.716946,0.514840,0.520045,0.437315,0.151539,-0.040402,-0.199164
9539.974000,3.464000,1,START a_bow,Note,64.000000,E4,A,1.033500,0.371004,0.638689,0.163559,-1.509966,-2.336881,1.387132,-2.369241,-0.543636,1.060589,-1.170103,-1.716631,-2.718105,0.555658,0.657501,0.276118,0.154192,-0.031461,-0.192991
9539.982000,3.472000,1,START a_bow,Note,64.000000,E4,A,1.025500,0.371596,0.637377,0.164068,-1.509610,-2.336717,1.387514,-2.370996,-0.545995,1.064013,-1.171005,-1.718015,-2.719307,0.448915,0.368764,0.167261,0.158732,-0.024885,-0.193456
9539.990000,3.480000,1,START a_bow,Note,64.000000,E4,A,1.017500,0.372173,0.636073,0.164592,-1.509312,-2.336575,1.387907,-2.372735,-0.548374,1.067422,-1.171885,-1.719417,-2.720460,0.213774,0.409748,0.561449,0.169709,-0.030650,-0.193028
9539.998000,3.488000,1,START a_bow,Note,64.000000,E4,A,1.009500,0.372735,0.634777,0.165090,-1.508956,-2.336345,1.388318,-2.374454,-0.550713,1.070836,-1.172757,-1.720735,-2.721630,0.045228,0.681686,0.408440,0.167325,-0.020781,-0.195693
9540.006000,3.496000,1,START a_bow,Note,64.000000,E4,A,1.001500,0.373302,0.633482,0.165613,-1.508597,-2.336214,1.388724,-2.376177,-0.553063,1.074192,-1.173599,-1.722132,-2.722808,-0.058448,0.481014,0.377972,0.166234,-0.021114,-0.186573
9540.014000,3.504000,1,START a_bow,Note,64.000000,E4,A,0.993500,0.373860,0.632200,0.166163,-1.508246,-2.336104,1.389045,-2.377881,-0.555429,1.077502,-1.174431,-1.723491,-2.723995,-0.035499,0.184741,0.849970,0.176294,-0.028366,-0.188721
9540.022000,3.512000,1,START a_bow,Note,64.000000,E4,A,0.985500,0.374449,0.630909,0.166717,-1.507954,-2.336045,1.389309,-2.379626,-0.557772,1.080746,-1.175287,-1.724906,-2.725185,-0.314574,1.556228,-0.155245,0.154655,-0.018046,-0.178238
9540.030000,3.520000,1,START a_bow,Note,64.000000,E4,A,0.977500,0.375045,0.629622,0.167329,-1.507793,-2.336000,1.389459,-2.381382,-0.560182,1.083950,-1.176127,-1.726306,-2.726329,-0.148377,1.631032,-0.007483,0.156160,-0.006170,-0.177198
9540.038000,3.528000,1,START a_bow,Note,64.000000,E4,A,0.969500,0.375642,0.628326,0.167889,-1.507519,-2.335854,1.389702,-2.383148,-0.562522,1.087170,-1.176948,-1.727663,-2.727522,-0.228868,1.457846,0.454689,0.153839,-0.021080,-0.173943
9540.046000,3.536000,1,START a_bow,Note,64.000000,E4,A,0.961500,0.376260,0.627006,0.168457,-1.507304,-2.335714,1.389989,-2.384961,-0.564885,1.090400,-1.177753,-1.729094,-2.728694,0.007386,1.214494,0.765367,0.155675,-0.028834,-0.190930
9540.054000,3.544000,1,START a_bow,Note,64.000000,E4,A,0.953500,0.376843,0.625711,0.168996,-1.507025,-2.335514,1.390355,-2.386722,-0.567200,1.093616,-1.178514,-1.730463,-2.729849,-0.411005,1.307516,0.365311,0.152126,-0.031194,-0.189385
9540.062000,3.552000,1,START a_bow,Note,64.000000,E4,A,0.945500,0.377430,0.624407,0.169540,-1.506732,-2.335403,1.390651,-2.388492,-0.569517,1.096825,-1.179334,-1.731874,-2.731044,-0.352707,2.143192,0.024259,0.143008,-0.021339,-0.182591
9540.070000,3.560000,1,START a_bow,Note,64.000000,E4,A,0.937500,0.378050,0.623067,0.170046,-1.506466,-2.335091,1.391111,-2.390339,-0.571809,1.100081,-1.180083,-1.733274,-2.732211,-0.711000,1.614989,0.715829,0.144217,-0.033804,-0.181081
9540.078000,3.568000,1,START a_bow,Note,64.000000,E4,A,0.929500,0.378645,0.621760,0.170534,-1.506176,-2.334874,1.391523,-2.392130,-0.574035,1.103256,-1.180864,-1.734677,-2.733377,0.030376,1.777304,0.672351,0.139220,-0.038954,-0.185990
9540.086000,3.576000,1,START a_bow,Note,64.000000,E4,A,0.921500,0.379255,0.620437,0.171020,-1.505872,-2.334529,1.392016,-2.393957,-0.576263,1.106438,-1.181568,-1.736046,-2.734545,-0.937530,1.687094,0.820688,0.136571,-0.053405,-0.178611
9540.094000,3.584000,1,START a_bow,Note,64.000000,E4,A,0.913500,0.379872,0.619112,0.171542,-1.505598,-2.334350,1.392401,-2.395791,-0.578521,1.109572,-1.182317,-1.737504,-2.735735,-0.453602,1.175562,1.034516,0.146483,-0.061454,-0.192019
9540.102000,3.592000,1,START a_bow,Note,64.000000,E4,A,0.905500,0.380461,0.617828,0.172054,-1.505305,-2.334210,1.392682,-2.397558,-0.580720,1.112621,-1.183097,-1.738885,-2.736929,-0.429230,2.025818,0.055004,0.129805,-0.037508,-0.189404
9540.110000,3.600000,1,START a_bow,Note,64.000000,E4,A,0.897500,0.381061,0.616533,0.172620,-1.505084,-2.334093,1.392941,-2.399353,-0.582995,1.115654,-1.183827,-1.740309,-2.738100,-0.292355,2.357747,-0.457206,0.112952,-0.043030,-0.191668
9540.118000,3.608000,1,START a_bow,Note,64.000000,E4,A,0.889500,0.381669,0.615227,0.173163,-1.504846,-2.333978,1.393184,-2.401167,-0.585237,1.118690,-1.184599,-1.741739,-2.739298,0.025493,2.579600,-0.390677,0.121968,-0.035753,-0.195208
9540.126000,3.616000,1,START a_bow,Note,64.000000,E4,A,0.881500,0.382240,0.613927,0.173704,-1.504526,-2.333862,1.393594,-2.402942,-0.587500,1.121762,-1.185284,-1.743205,-2.740478,-0.088384,1.507933,0.348559,0.129564,-0.055352,-0.200849
9540.134000,3.624000,1,START a_bow,Note,64.000000,E4,A,0.873500,0.382801,0.612638,0.174285,-1.504241,-2.333725,1.393876,-2.404701,-0.589807,1.124816,-1.185970,-1.744586,-2.741661,-0.039317,1.406764,0.299690,0.139281,-0.056630,-0.205080
9540.142000,3.632000,1,START a_bow,Note,64.000000,E4,A,0.865500,0.383399,0.611338,0.174876,-1.503974,-2.333682,1.394039,-2.406503,-0.592091,1.127791,-1.186706,-1.746020,-2.742898,-0.452385,1.655409,0.163816,0.138238,-0.057154,-0.195119
9540.150000,3.640000,1,START a_bow,Note,64.000000,E4,A,0.857500,0.383946,0.610046,0.175419,-1.503658,-2.333588,1.394451,-2.408259,-0.594354,1.130845,-1.187383,-1.747492,-2.744062,0.091674,1.509021,0.105955,0.139950,-0.055020,-0.211143
9540.158000,3.648000,1,START a_bow,Note,64.000000,E4,A,0.849500,0.384514,0.608755,0.175960,-1.503355,-2.333449,1.394801,-2.410034,-0.596577,1.133831,-1.188053,-1.748915,-2.745245,0.031509,1.175719,0.273402,0.147947,-0.048454,-0.207195
9540.166000,3.656000,1,START a_bow,Note,64.000000,E4,A,0.841500,0.385081,0.607458,0.176486,-1.502979,-2.333281,1.395301,-2.411816,-0.598780,1.136813,-1.188639,-1.750386,-2.746435,0.043747,0.814421,0.144028,0.149440,-0.046721,-0.213587
9540.174000,3.664000,1,START a_bow,Note,64.000000,E4,A,0.833500,0.385701,0.606130,0.176989,-1.502746,-2.333086,1.395586,-2.413685,-0.600943,1.139786,-1.189394,-1.751821,-2.747646,0.086962,0.963829,0.125975,0.159751,-0.042321,-0.207074
9540.182000,3.672000,1,START a_bow,Note,64.000000,E4,A,0.825500,0.386297,0.604837,0.177553,-1.502474,-2.332976,1.395884,-2.415496,-0.603146,1.142653,-1.190017,-1.753278,-2.748848,-0.010398,0.512557,0.150452,0.158873,-0.035512,-0.201791
9540.190000,3.680000,1,START a_bow,Note,64.000000,E4,A,0.817500,0.386889,0.603550,0.178050,-1.502185,-2.332817,1.396162,-2.417299,-0.605247,1.145517,-1.190728,-1.754678,-2.750059,0.284696,1.096647,0.593636,0.176928,-0.037096,-0.208857
9540.198000,3.688000,1,START a_bow,Note,64.000000,E4,A,0.809500,0.387512,0.602229,0.178573,-1.501899,-2.332560,1.396599,-2.419172,-0.607394,1.148385,-1.191288,-1.756137,-2.751258,0.146133,0.403968,0.150536,0.167099,-0.032117,-0.208478
9540.206000,3.696000,1,START a_bow,Note,64.000000,E4,A,0.801500,0.388127,0.600913,0.179082,-1.501634,-2.332380,1.396942,-2.421034,-0.609517,1.151247,-1.191947,-1.757605,-2.752469,0.081398,0.785754,-0.046311,0.177880,-0.027258,-0.213429
9540.214000,3.704000,1,START a_bow,Note,64.000000,E4,A,0.793500,0.388726,0.599597,0.179597,-1.501354,-2.332176,1.397351,-2.422885,-0.611665,1.154132,-1.192559,-1.759077,-2.753660,0.381212,0.224800,0.517513,0.187095,-0.023108,-0.215248
9540.222000,3.712000,1,START a_bow,Note,64.000000,E4,A,0.785500,0.389321,0.598293,0.180152,-1.501058,-2.332048,1.397620,-2.424719,-0.613837,1.156957,-1.193186,-1.760521,-2.754899,-0.058488,1.008252,0.414199,0.178268,-0.025439,-0.205670
9540.230000,3.720000,1,START a_bow,Note,64.000000,E4,A,0.777500,0.389916,0.596972,0.180669,-1.500783,-2.331877,1.398012,-2.426576,-0.615986,1.159832,-1.193813,-1.762016,-2.756097,-0.436654,1.166663,0.151508,0.172253,-0.023545,-0.201195
9540.238000,3.728000,1,START a_bow,Note,64.000000,E4,A,0.769500,0.390514,0.595651,0.181230,-1.500555,-2.331684,1.398314,-2.428441,-0.618188,1.162687,-1.194416,-1.763463,-2.757296,-0.069809,0.943276,0.124234,0.178197,-0.023355,-0.216952
9540.246000,3.736000,1,START a_bow,Note,64.000000,E4,A,0.761500,0.391090,0.594355,0.181805,-1.500239,-2.331571,1.398601,-2.430255,-0.620376,1.165476,-1.194985,-1.764911,-2.758531,-0.049779,0.556910,0.507576,0.178317,-0.029204,-0.216615
9540.254000,3.744000,1,START a_bow,Note,64.000000,E4,A,0.753500,0.391687,0.593045,0.182364,-1.500009,-2.331444,1.398884,-2.432111,-0.622540,1.168251,-1.195584,-1.766393,-2.759734,-0.238651,0.651047,0.734572,0.176460,-0.030889,-0.199232
9540.262000,3.752000,1,START a_bow,Note,64.000000,E4,A,0.745500,0.392258,0.591758,0.182929,-1.499720,-2.331354,1.399130,-2.433918,-0.624696,1.170999,-1.196180,-1.767838,-2.760960,-0.311970,1.498848,0.480921,0.165042,-0.032871,-0.200442
9540.270000,3.760000,1,START a_bow,Note,64.000000,E4,A,0.737500,0.392852,0.590464,0.183453,-1.499493,-2.331210,1.399486,-2.435762,-0.626776,1.173695,-1.196744,-1.769336,-2.762132,-0.308111,1.367839,0.484639,0.166597,-0.035183,-0.207183
9540.278000,3.768000,1,START a_bow,Note,64.000000,E4,A,0.729500,0.393451,0.589168,0.184023,-1.499134,-2.331106,1.399704,-2.437603,-0.628895,1.176360,-1.197296,-1.770772,-2.763432,-0.516816,1.811058,0.058958,0.146631,-0.038722,-0.200323
9540.286000,3.776000,1,START a_bow,Note,64.000000,E4,A,0.721500,0.394031,0.587871,0.184529,-1.498796,-2.330930,1.400156,-2.439439,-0.630952,1.179063,-1.197807,-1.772271,-2.764639,-0.717100,1.615316,0.664744,0.150339,-0.054706,-0.205690
9540.294000,3.784000,1,START a_bow,Note,64.000000,E4,A,0.713500,0.394627,0.586581,0.185075,-1.498559,-2.330812,1.400447,-2.441287,-0.633031,1.181691,-1.198351,-1.773758,-2.765841,-0.695695,1.593516,0.793213,0.157554,-0.063986,-0.217116
9540.302000,3.792000,1,START a_bow,Note,64.000000,E4,A,0.705500,0.395181,0.585296,0.185574,-1.498226,-2.330630,1.400897,-2.443093,-0.635083,1.184398,-1.198871,-1.775230,-2.767025,-0.895402,1.981599,0.145421,0.141997,-0.053573,-0.210594
9540.310000,3.800000,1,START a_bow,Note,64.000000,E4,A,0.697500,0.395776,0.583989,0.186049,-1.497888,-2.330386,1.401304,-2.444962,-0.637081,1.187076,-1.199422,-1.776681,-2.768261,-0.543390,1.937552,0.279681,0.139856,-0.051430,-0.211428
9540.318000,3.808000,1,START a_bow,Note,64.000000,E4,A,0.689500,0.396355,0.582689,0.186585,-1.497608,-2.330281,1.401661,-2.446812,-0.639163,1.189730,-1.199954,-1.778208,-2.769470,-0.692314,1.815918,0.312323,0.143398,-0.072311,-0.214651
9540.326000,3.816000,1,START a_bow,Note,64.000000,E4,A,0.681500,0.396948,0.581375,0.187093,-1.497312,-2.330032,1.402073,-2.448692,-0.641208,1.192393,-1.200453,-1.779676,-2.770683,-0.406011,1.669436,0.220042,0.141983,-0.067106,-0.220841
9540.334000,3.824000,1,START a_bow,Note,64.000000,E4,A,0.673500,0.397543,0.580059,0.187648,-1.497023,-2.329899,1.402401,-2.450577,-0.643307,1.195024,-1.200956,-1.781195,-2.771928,-0.134344,1.705564,-0.067349,0.140927,-0.065569,-0.224662
9540.342000,3.832000,1,START a_bow,Note,64.000000,E4,A,0.665500,0.398128,0.578745,0.188174,-1.496670,-2.329655,1.402820,-2.452454,-0.645368,1.197669,-1.201408,-1.782659,-2.773174,-0.387954,1.588652,0.088187,0.146365,-0.061023,-0.223177
9540.350000,3.840000,1,START a_bow,Note,64.000000,E4,A,0.657500,0.398722,0.577429,0.188690,-1.496347,-2.329476,1.403188,-2.454343,-0.647403,1.200286,-1.201919,-1.784162,-2.774427,-0.341895,1.863685,-0.497898,0.147904,-0.047997,-0.225292
9540.358000,3.848000,1,START a_bow,Note,64.000000,E4,A,0.649500,0.399324,0.576113,0.189224,-1.496077,-2.329251,1.403614,-2.456247,-0.649448,1.202854,-1.202340,-1.785681,-2.775634,-0.496685,1.243462,0.073635,0.159745,-0.057206,-0.228312
9540.366000,3.856000,1,START a_bow,Note,64.000000,E4,A,0.641500,0.399934,0.574821,0.189817,-1.495927,-2.329193,1.403721,-2.458132,-0.651521,1.205313,-1.202871,-1.787167,-2.776863,-0.008794,0.907004,0.231168,0.166067,-0.056258,-0.228371
9540.374000,3.864000,1,START a_bow,Note,64.000000,E4,A,0.633500,0.400535,0.573508,0.190387,-1.495688,-2.329048,1.403984,-2.460033,-0.653600,1.207846,-1.203346,-1.788667,-2.778105,-0.258198,0.821712,0.272734,0.164743,-0.053534,-0.229235
9540.382000,3.872000,1,START a_bow,Note,64.000000,E4,A,0.625500,0.401132,0.572216,0.190942,-1.495395,-2.328965,1.404230,-2.461906,-0.655616,1.210297,-1.203822,-1.790175,-2.779374,-0.149641,1.096007,-0.002384,0.168326,-0.040254,-0.224608
9540.390000,3.880000,1,START a_bow,Note,64.000000,E4,A,0.617500,0.401730,0.570916,0.191505,-1.495231,-2.328801,1.404499,-2.463802,-0.657663,1.212773,-1.204278,-1.791670,-2.780561,-0.052738,0.857250,-0.045205,0.171442,-0.037351,-0.234911
9540.398000,3.888000,1,START a_bow,Note,64.000000,E4,A,0.609500,0.402337,0.569610,0.192061,-1.494914,-2.328639,1.404827,-2.465706,-0.659676,1.215213,-1.204675,-1.793182,-2.781833,-0.479672,0.534710,0.738099,0.188777,-0.047159,-0.227341
9540.406000,3.896000,1,START a_bow,Note,64.000000,E4,A,0.601500,0.402899,0.568319,0.192594,-1.494517,-2.328555,1.405205,-2.467552,-0.661680,1.217697,-1.205110,-1.794721,-2.783111,-0.285686,0.439487,0.036696,0.177665,-0.030684,-0.230967
9540.414000,3.904000,1,START a_bow,Note,64.000000,E4,A,0.593500,0.403501,0.567010,0.193130,-1.494280,-2.328410,1.405472,-2.469463,-0.663674,1.220146,-1.205593,-1.796232,-2.784357,0.028040,0.729030,0.325258,0.188015,-0.030077,-0.229230
9540.422000,3.912000,1,START a_bow,Note,64.000000,E4,A,0.585500,0.404045,0.565755,0.193621,-1.493904,-2.328218,1.405912,-2.471267,-0.665582,1.222556,-1.205977,-1.797691,-2.785565,-0.598898,0.488079,0.106527,0.186326,-0.020119,-0.215427
9540.430000,3.920000,1,START a_bow,Note,64.000000,E4,A,0.577500,0.404596,0.564514,0.194104,-1.493633,-2.328108,1.406181,-2.473063,-0.667448,1.224905,-1.206480,-1.799135,-2.786763,0.474873,0.523851,0.638543,0.191131,-0.025473,-0.230250
9540.438000,3.928000,1,START a_bow,Note,64.000000,E4,A,0.569500,0.405131,0.563319,0.194579,-1.493278,-2.327889,1.406588,-2.474799,-0.669240,1.227125,-1.206792,-1.800506,-2.787925,-0.377831,0.518126,0.744443,0.189531,-0.029132,-0.221668
9540.446000,3.936000,1,START a_bow,Note,64.000000,E4,A,0.561500,0.405646,0.562153,0.195038,-1.492977,-2.327740,1.406994,-2.476491,-0.670992,1.229300,-1.207136,-1.801905,-2.789031,-0.048193,0.345593,0.701067,0.196467,-0.028719,-0.227715
9540.454000,3.944000,1,START a_bow,Note,64.000000,E4,A,0.553500,0.406169,0.561021,0.195483,-1.492789,-2.327527,1.407283,-2.478160,-0.672668,1.231364,-1.207496,-1.803192,-2.790081,0.032827,0.469173,0.730928,0.192410,-0.034544,-0.228227
9540.462000,3.952000,1,START a_bow,Note,64.000000,E4,A,0.545500,0.406664,0.559933,0.195943,-1.492506,-2.327387,1.407563,-2.479752,-0.674315,1.233331,-1.207792,-1.804457,-2.791154,-0.296192,0.402165,0.729393,0.187308,-0.037268,-0.223170
9540.470000,3.960000,1,START a_bow,Note,64.000000,E4,A,0.537500,0.407145,0.558889,0.196380,-1.492320,-2.327331,1.407781,-2.481290,-0.675883,1.235193,-1.208144,-1.805723,-2.792156,-0.584190,1.735467,-0.090482,0.173737,-0.027424,-0.213968
9540.478000,3.968000,1,START a_bow,Note,64.000000,E4,A,0.529500,0.407603,0.557890,0.196829,-1.492091,-2.327244,1.407974,-2.482757,-0.677418,1.236963,-1.208416,-1.806891,-2.793148,-0.343533,1.449774,0.195248,0.175492,-0.024505,-0.222637
9540.486000,3.976000,1,START a_bow,Note,64.000000,E4,A,0.521500,0.408058,0.556914,0.197215,-1.491960,-2.327108,1.408230,-2.484207,-0.678847,1.238689,-1.208720,-1.808056,-2.794042,-0.612770,1.117708,0.967688,0.179311,-0.051581,-0.221974
9540.494000,3.984000,1,START a_bow,Note,64.000000,E4,A,0.513500,0.408496,0.555979,0.197634,-1.491775,-2.327062,1.408383,-2.485591,-0.680266,1.240307,-1.208992,-1.809175,-2.794971,-0.239943,1.926898,0.134707,0.164780,-0.028543,-0.217717
9540.502000,3.992000,1,START a_bow,Note,64.000000,E4,A,0.505500,0.408897,0.555086,0.198006,-1.491544,-2.326946,1.408660,-2.486900,-0.681602,1.241892,-1.209204,-1.810239,-2.795836,-0.815834,1.442681,0.756569,0.168103,-0.064045,-0.227109
9540.510000,4.000000,1,START a_bow,Note,64.000000,E4,A,0.497500,0.409307,0.554214,0.198382,-1.491469,-2.326816,1.408808,-2.488204,-0.682909,1.243405,-1.209463,-1.811244,-2.796639,-0.222738,1.923999,-0.433480,0.152003,-0.023045,-0.221079
9540.518000,4.008000,1,START a_bow,Note,64.000000,E4,A,0.489500,0.409690,0.553391,0.198743,-1.491293,-2.326764,1.409001,-2.489425,-0.684142,1.244811,-1.209668,-1.812251,-2.797446,-0.388335,1.441207,0.682780,0.158573,-0.056930,-0.224245
9540.526000,4.016000,1,START a_bow,Note,64.000000,E4,A,0.481500,0.410050,0.552612,0.199082,-1.491213,-2.326697,1.409083,-2.490581,-0.685317,1.246168,-1.209939,-1.813151,-2.798187,-0.516035,1.338879,0.723233,0.159554,-0.056108,-0.224943
9540.534000,4.024000,1,START a_bow,Note,64.000000,E4,A,0.473500,0.410398,0.551862,0.199397,-1.491141,-2.326597,1.409254,-2.491702,-0.686429,1.247463,-1.210151,-1.814046,-2.798869,-0.311883,2.381684,0.091733,0.144864,-0.047093,-0.217041
9540.542000,4.032000,1,START a_bow,Note,64.000000,E4,A,0.465500,0.410724,0.551149,0.199653,-1.490993,-2.326408,1.409523,-2.492763,-0.687430,1.248712,-1.210319,-1.814867,-2.799522,-0.553572,1.755656,0.602885,0.156052,-0.062738,-0.214310
9540.550000,4.040000,1,START a_bow,Note,64.000000,E4,A,0.457500,0.411009,0.550484,0.199915,-1.490718,-2.326325,1.409762,-2.493725,-0.688401,1.249898,-1.210471,-1.815655,-2.800214,-0.736145,1.436699,0.743702,0.158220,-0.069864,-0.232846
9540.558000,4.048000,1,START a_bow,Note,64.000000,E4,A,0.449500,0.411308,0.549841,0.200164,-1.490653,-2.326179,1.409951,-2.494690,-0.689325,1.251006,-1.210635,-1.816402,-2.800784,-0.742533,1.802640,0.400524,0.152799,-0.060640,-0.227547
9540.566000,4.056000,1,START a_bow,Note,64.000000,E4,A,0.441500,0.411571,0.549249,0.200390,-1.490492,-2.326115,1.410101,-2.495560,-0.690173,1.252044,-1.210826,-1.817101,-2.801376,-0.496424,2.332581,-0.354491,0.141702,-0.046832,-0.226215
9540.574000,4.064000,1,START a_bow,Note,64.000000,E4,A,0.433500,0.411806,0.548706,0.200604,-1.490323,-2.326019,1.410280,-2.496354,-0.690969,1.253010,-1.210954,-1.817730,-2.801913,-0.379663,1.986884,-0.288438,0.146154,-0.051498,-0.222855
9540.582000,4.072000,1,START a_bow,Note,64.000000,E4,A,0.425500,0.412052,0.548177,0.200785,-1.490205,-2.325876,1.410504,-2.497147,-0.691685,1.253911,-1.211067,-1.818353,-2.802399,-0.013166,1.280747,0.290919,0.158669,-0.055700,-0.236402
9540.590000,4.080000,1,START a_bow,Note,64.000000,E4,A,0.417500,0.412246,0.547717,0.200968,-1.490046,-2.325815,1.410639,-2.497813,-0.692365,1.254736,-1.211191,-1.818886,-2.802867,-0.315472,1.369102,0.290990,0.161419,-0.065775,-0.245371
9540.598000,4.088000,1,START a_bow,Note,64.000000,E4,A,0.409500,0.412450,0.547272,0.201133,-1.489944,-2.325751,1.410752,-2.498475,-0.692985,1.255496,-1.211329,-1.819409,-2.803304,-0.542598,1.505711,0.499470,0.164951,-0.066526,-0.235376
9540.606000,4.096000,1,START a_bow,Note,64.000000,E4,A,0.401500,0.412598,0.546880,0.201292,-1.489848,-2.325671,1.410916,-2.499034,-0.693597,1.256244,-1.211419,-1.819866,-2.803653,-0.493386,1.421163,0.379884,0.166200,-0.060486,-0.235722
9540.614000,4.104000,1,START a_bow,Note,64.000000,E4,A,0.393500,0.412792,0.546507,0.201436,-1.489787,-2.325589,1.411024,-2.499611,-0.694093,1.256814,-1.211482,-1.820311,-2.804010,-0.350185,1.302657,0.584038,0.170581,-0.061425,-0.242828
9540.622000,4.112000,1,START a_bow,Note,64.000000,E4,A,0.385500,0.412912,0.546192,0.201574,-1.489611,-2.325622,1.411157,-2.500052,-0.694582,1.257386,-1.211547,-1.820731,-2.804357,-0.180681,1.170333,0.359937,0.171382,-0.056744,-0.243957
9540.630000,4.120000,1,START a_bow,Note,64.000000,E4,A,0.377500,0.413056,0.545912,0.201722,-1.489659,-2.325630,1.411110,-2.500486,-0.695017,1.257816,-1.211646,-1.821064,-2.804614,-0.303084,1.275086,0.413783,0.165200,-0.061378,-0.235431
9540.638000,4.128000,1,START a_bow,Note,64.000000,E4,A,0.369500,0.413165,0.545659,0.201817,-1.489563,-2.325583,1.411236,-2.500857,-0.695377,1.258255,-1.211682,-1.821377,-2.804862,0.040285,1.058356,0.236034,0.163995,-0.053274,-0.245038
9540.646000,4.136000,1,START a_bow,Note,64.000000,E4,A,0.361500,0.413261,0.545453,0.201907,-1.489483,-2.325518,1.411311,-2.501164,-0.695677,1.258594,-1.211688,-1.821601,-2.805075,-0.483674,1.786657,0.055495,0.168625,-0.049722,-0.234162
9540.654000,4.144000,1,START a_bow,Note,64.000000,E4,A,0.353500,0.413314,0.545293,0.201949,-1.489362,-2.325523,1.411448,-2.501381,-0.695897,1.258909,-1.211727,-1.821832,-2.805243,-0.423920,1.589124,0.153656,0.174523,-0.050727,-0.236366
9540.662000,4.152000,1,START a_bow,Note,64.000000,E4,A,0.345500,0.413389,0.545155,0.202010,-1.489402,-2.325403,1.411466,-2.501604,-0.696093,1.259122,-1.211727,-1.821934,-2.805340,-0.717170,1.623362,0.164430,0.172678,-0.058343,-0.227834
9540.670000,4.160000,1,START a_bow,Note,64.000000,E4,A,0.337500,0.413413,0.545066,0.202024,-1.489296,-2.325381,1.411557,-2.501719,-0.696209,1.259317,-1.211747,-1.822042,-2.805448,-0.379078,1.345369,0.697334,0.186949,-0.056616,-0.241986
9540.678000,4.168000,1,START a_bow,Note,64.000000,E4,A,0.329500,0.413450,0.545019,0.202044,-1.489375,-2.325348,1.411536,-2.501807,-0.696266,1.259366,-1.211766,-1.822087,-2.805457,-0.183141,1.037276,0.624235,0.193853,-0.049710,-0.248480
9540.686000,4.176000,1,START a_bow,Note,64.000000,E4,A,0.321500,0.413440,0.545026,0.202043,-1.489331,-2.325356,1.411550,-2.501788,-0.696262,1.259366,-1.211754,-1.822079,-2.805469,-0.198756,1.011100,0.097086,0.185778,-0.045376,-0.253004
9540.694000,4.184000,2,END a_bow,Note,64.000000,E4,A,0.313500,0.413439,0.545051,0.202053,-1.489348,-2.325467,1.411476,-2.501756,-0.696235,1.259279,-1.211778,-1.822102,-2.805472,0.218398,1.492998,-0.518482,0.171671,-0.032476,-0.242893
9540.702000,4.192000,2,END a_bow,Note,64.000000,E4,A,0.305500,0.413407,0.545064,0.202049,-1.489273,-2.325440,1.411543,-2.501712,-0.696250,1.259322,-1.211739,-1.822070,-2.805469,-0.354985,1.919073,-0.633744,0.164120,-0.024851,-0.234409
9540.710000,4.200000,2,END a_bow,Note,64.000000,E4,A,0.297500,0.413386,0.545087,0.202055,-1.489293,-2.325550,1.411481,-2.501666,-0.696250,1.259302,-1.211794,-1.822087,-2.805457,-0.252684,2.152005,-0.261279,0.172551,-0.034032,-0.238576
9540.718000,4.208000,1,START a_bow,Note,64.000000,E4,A,0.289500,0.413401,0.545083,0.202044,-1.489297,-2.325516,1.411500,-2.501685,-0.696222,1.259279,-1.211778,-1.822087,-2.805457,-0.302588,1.647481,-0.015145,0.166136,-0.039266,-0.229701
9540.726000,4.216000,1,START a_bow,Note,64.000000,E4,A,0.281500,0.413368,0.545135,0.202015,-1.489186,-2.325619,1.411503,-2.501589,-0.696135,1.259198,-1.211790,-1.822074,-2.805476,-0.089105,0.774453,-0.030913,0.161607,-0.041909,-0.222795
9540.734000,4.224000,1,START a_bow,Note,64.000000,E4,A,0.273500,0.413319,0.545221,0.201996,-1.489191,-2.325698,1.411455,-2.501450,-0.696042,1.259070,-1.211790,-1.821998,-2.805409,0.055929,0.750438,0.473692,0.176151,-0.033862,-0.218015
9540.742000,4.232000,1,START a_bow,Note,64.000000,E4,A,0.265500,0.413280,0.545332,0.201978,-1.489280,-2.325805,1.411355,-2.501295,-0.695906,1.258840,-1.211787,-1.821914,-2.805297,0.083448,1.165232,0.777979,0.188782,-0.005603,-0.189986
9540.750000,4.240000,1,START a_bow,Note,64.000000,E4,A,0.257500,0.413245,0.545434,0.201900,-1.489264,-2.325798,1.411366,-2.501151,-0.695691,1.258647,-1.211775,-1.821799,-2.805213,0.454391,1.425117,-0.709054,0.177024,0.054612,-0.151035
9540.758000,4.248000,1,START a_bow,Note,64.000000,E4,A,0.249500,0.413213,0.545543,0.201850,-1.489269,-2.325823,1.411362,-2.501003,-0.695499,1.258410,-1.211720,-1.821698,-2.805120,0.668353,0.657530,-0.311573,0.204808,0.087751,-0.125944
9540.766000,4.256000,1,START a_bow,Note,64.000000,E4,A,0.241500,0.413149,0.545704,0.201795,-1.489331,-2.325911,1.411232,-2.500769,-0.695267,1.258111,-1.211730,-1.821519,-2.804984,0.592652,-0.443386,1.500219,0.242054,0.081996,-0.108093
9540.774000,4.264000,1,START a_bow,Note,64.000000,E4,A,0.233500,0.413062,0.545885,0.201734,-1.489388,-2.326019,1.411150,-2.500494,-0.695028,1.257807,-1.211721,-1.821346,-2.804813,1.098507,1.148275,-0.578440,0.231483,0.170094,-0.066524
9540.782000,4.272000,1,START a_bow,Note,64.000000,E4,A,0.225500,0.412976,0.546094,0.201685,-1.489405,-2.326092,1.411042,-2.500186,-0.694755,1.257410,-1.211636,-1.821102,-2.804652,1.216577,1.380367,-0.294794,0.245585,0.199346,-0.029682
9540.790000,4.280000,1,START a_bow,Note,64.000000,E4,A,0.217500,0.412864,0.546330,0.201562,-1.489436,-2.326071,1.411007,-2.499832,-0.694385,1.257037,-1.211592,-1.820791,-2.804420,1.019111,1.318418,-0.364391,0.243895,0.192999,-0.029926
9540.798000,4.288000,1,START a_bow,Note,64.000000,E4,A,0.209500,0.412748,0.546573,0.201437,-1.489448,-2.326069,1.411017,-2.499466,-0.694004,1.256645,-1.211519,-1.820505,-2.804179,1.308082,1.240648,-0.507373,0.242822,0.193812,-0.039915
9540.806000,4.296000,1,START a_bow,Note,64.000000,E4,A,0.201500,0.412629,0.546861,0.201309,-1.489568,-2.326026,1.410962,-2.499054,-0.693565,1.256141,-1.211424,-1.820134,-2.803860,0.819692,1.473386,-0.591064,0.235783,0.179534,-0.041164
9540.822000,4.312000,1,START a_bow,Note,66.000000,F#4,A,0.485500,0.412353,0.547508,0.201066,-1.489770,-2.326156,1.410674,-2.498109,-0.692633,1.254993,-1.211299,-1.819357,-2.803246,1.044228,1.727209,-0.377505,0.224856,0.184283,-0.032000
9540.830000,4.320000,1,START a_bow,Note,66.000000,F#4,A,0.477500,0.412200,0.547859,0.200917,-1.489900,-2.326122,1.410572,-2.497598,-0.692114,1.254392,-1.211199,-1.818890,-2.802875,0.767165,1.882745,-0.232408,0.226726,0.179676,-0.019065
9540.846000,4.336000,1,START a_bow,Note,66.000000,F#4,A,0.461500,0.411806,0.548680,0.200609,-1.490060,-2.326259,1.410355,-2.496360,-0.690981,1.253031,-1.210977,-1.817918,-2.802081,0.751364,1.650157,-0.119533,0.233178,0.182247,-0.018638
9540.854000,4.344000,1,START a_bow,Note,66.000000,F#4,A,0.453500,0.411594,0.549151,0.200442,-1.490183,-2.326350,1.410152,-2.495663,-0.690326,1.252216,-1.210872,-1.817343,-2.801642,0.888871,1.641071,0.197179,0.237218,0.179819,-0.029861
9540.862000,4.352000,1,START a_bow,Note,66.000000,F#4,A,0.445500,0.411369,0.549625,0.200251,-1.490278,-2.326371,1.410059,-2.494953,-0.689651,1.251426,-1.210722,-1.816759,-2.801169,0.996965,1.474651,-0.006701,0.232921,0.180894,-0.036369
9540.870000,4.360000,1,START a_bow,Note,66.000000,F#4,A,0.437500,0.411163,0.550085,0.200030,-1.490356,-2.326365,1.409948,-2.494274,-0.688931,1.250642,-1.210620,-1.816168,-2.800732,0.986748,1.821299,0.239866,0.235325,0.175407,-0.027176
9540.878000,4.368000,1,START a_bow,Note,66.000000,F#4,A,0.429500,0.410965,0.550523,0.199842,-1.490452,-2.326331,1.409908,-2.493632,-0.688279,1.249888,-1.210445,-1.815623,-2.800279,0.508687,1.574637,0.335173,0.244075,0.175367,-0.031325
9540.886000,4.376000,1,START a_bow,Note,66.000000,F#4,A,0.421500,0.410753,0.550959,0.199641,-1.490517,-2.326360,1.409817,-2.492973,-0.687627,1.249179,-1.210357,-1.815083,-2.799859,0.680826,1.569996,0.435766,0.251838,0.177624,-0.029628
9540.894000,4.384000,1,START a_bow,Note,66.000000,F#4,A,0.413500,0.410567,0.551375,0.199459,-1.490601,-2.326362,1.409727,-2.492363,-0.687000,1.248460,-1.210233,-1.814565,-2.799454,0.530033,1.434373,0.469372,0.254858,0.178536,-0.027681
9540.902000,4.392000,1,START a_bow,Note,66.000000,F#4,A,0.405500,0.410378,0.551761,0.199279,-1.490617,-2.326398,1.409690,-2.491778,-0.686416,1.247824,-1.210129,-1.814109,-2.799093,0.519135,1.470231,0.424299,0.251858,0.171726,-0.035094
9540.910000,4.400000,1,START a_bow,Note,66.000000,F#4,A,0.397500,0.410193,0.552125,0.199096,-1.490618,-2.326423,1.409705,-2.491220,-0.685856,1.247242,-1.210026,-1.813692,-2.798741,0.369666,1.406842,0.499475,0.256451,0.176480,-0.031390
9540.918000,4.408000,1,START a_bow,Note,66.000000,F#4,A,0.389500,0.410054,0.552437,0.198931,-1.490652,-2.326368,1.409689,-2.490764,-0.685345,1.246708,-1.209925,-1.813284,-2.798436,0.794588,1.422467,0.540836,0.259957,0.183748,-0.030912
9540.926000,4.416000,1,START a_bow,Note,66.000000,F#4,A,0.381500,0.409948,0.552714,0.198801,-1.490762,-2.326365,1.409625,-2.490376,-0.684892,1.246181,-1.209844,-1.812956,-2.798144,0.459997,1.322957,0.397103,0.256446,0.182228,-0.027374
9540.934000,4.424000,1,START a_bow,Note,66.000000,F#4,A,0.373500,0.409818,0.552984,0.198706,-1.490878,-2.326387,1.409553,-2.489975,-0.684531,1.245728,-1.209760,-1.812631,-2.797844,0.739214,1.015211,0.417276,0.261932,0.189080,-0.024568
9540.942000,4.432000,1,START a_bow,Note,66.000000,F#4,A,0.365500,0.409707,0.553234,0.198597,-1.490912,-2.326391,1.409523,-2.489608,-0.684149,1.245284,-1.209666,-1.812332,-2.797603,0.674330,1.169142,0.354392,0.252890,0.187938,-0.023959
9540.950000,4.440000,1,START a_bow,Note,66.000000,F#4,A,0.357500,0.409597,0.553452,0.198536,-1.491014,-2.326488,1.409354,-2.489276,-0.683884,1.244931,-1.209673,-1.812068,-2.797394,0.599186,1.624149,0.412150,0.252072,0.188209,-0.015913
9540.958000,4.448000,1,START a_bow,Note,66.000000,F#4,A,0.349500,0.409503,0.553646,0.198456,-1.491059,-2.326538,1.409312,-2.488985,-0.683604,1.244602,-1.209632,-1.811859,-2.797202,0.731467,1.379372,0.173229,0.251727,0.190512,-0.020976
9540.966000,4.456000,1,START a_bow,Note,66.000000,F#4,A,0.341500,0.409434,0.553818,0.198421,-1.491181,-2.326583,1.409180,-2.488742,-0.683392,1.244275,-1.209589,-1.811648,-2.797018,0.890204,1.280748,0.330597,0.255846,0.190463,-0.029742
9540.974000,4.464000,1,START a_bow,Note,66.000000,F#4,A,0.333500,0.409379,0.553943,0.198369,-1.491237,-2.326575,1.409165,-2.488562,-0.683207,1.244050,-1.209538,-1.811499,-2.796874,0.635989,1.579449,0.253799,0.252480,0.188985,-0.024721
9540.982000,4.472000,1,START a_bow,Note,66.000000,F#4,A,0.325500,0.409311,0.554063,0.198314,-1.491249,-2.326622,1.409097,-2.488370,-0.683039,1.243881,-1.209563,-1.811348,-2.796773,0.580794,1.496196,0.271964,0.254338,0.187580,-0.021172
9540.990000,4.480000,1,START a_bow,Note,66.000000,F#4,A,0.317500,0.409283,0.554147,0.198279,-1.491310,-2.326649,1.409073,-2.488258,-0.682904,1.243706,-1.209543,-1.811275,-2.796674,0.693925,1.423083,0.167593,0.246439,0.187840,-0.023251
9540.998000,4.488000,1,START a_bow,Note,66.000000,F#4,A,0.309500,0.409257,0.554201,0.198257,-1.491225,-2.326650,1.409053,-2.488170,-0.682816,1.243609,-1.209512,-1.811184,-2.796681,0.837611,1.400400,-0.072694,0.242366,0.194250,-0.012758
9541.006000,4.496000,1,START a_bow,Note,66.000000,F#4,A,0.301500,0.409253,0.554212,0.198287,-1.491267,-2.326694,1.409002,-2.488155,-0.682846,1.243576,-1.209500,-1.811184,-2.796665,0.993007,1.526802,0.016788,0.242737,0.196876,-0.012062
9541.014000,4.504000,2,END a_bow,Note,66.000000,F#4,A,0.293500,0.409261,0.554194,0.198305,-1.491311,-2.326645,1.409019,-2.488186,-0.682894,1.243613,-1.209473,-1.811188,-2.796646,0.437678,1.619338,0.180169,0.245297,0.185269,-0.015175
9541.022000,4.512000,2,END a_bow,Note,66.000000,F#4,A,0.285500,0.409271,0.554190,0.198306,-1.491298,-2.326689,1.409031,-2.488198,-0.682887,1.243593,-1.209473,-1.811234,-2.796661,0.717616,1.333047,0.013325,0.246551,0.189948,-0.023874
9541.030000,4.520000,2,END a_bow,Note,66.000000,F#4,A,0.277500,0.409294,0.554161,0.198323,-1.491349,-2.326668,1.409017,-2.488252,-0.682926,1.243620,-1.209476,-1.811262,-2.796665,0.994745,1.437325,0.012928,0.250653,0.188134,-0.033061
9541.038000,4.528000,2,END a_bow,Note,66.000000,F#4,A,0.269500,0.409263,0.554184,0.198321,-1.491256,-2.326668,1.409047,-2.488196,-0.682923,1.243624,-1.209442,-1.811219,-2.796681,0.468503,1.545821,0.000819,0.243376,0.179234,-0.034989
9541.046000,4.536000,1,START a_bow,Note,66.000000,F#4,A,0.261500,0.409289,0.554160,0.198333,-1.491322,-2.326644,1.409008,-2.488247,-0.682947,1.243636,-1.209461,-1.811231,-2.796681,0.577127,1.857955,0.059406,0.243194,0.177711,-0.033081
9541.054000,4.544000,1,START a_bow,Note,66.000000,F#4,A,0.253500,0.409326,0.554090,0.198381,-1.491430,-2.326528,1.408989,-2.488365,-0.683086,1.243767,-1.209452,-1.811243,-2.796682,0.299818,1.390557,0.161377,0.254323,0.175655,-0.041278
9541.062000,4.552000,1,START a_bow,Note,66.000000,F#4,A,0.245500,0.409367,0.554011,0.198418,-1.491457,-2.326497,1.408997,-2.488490,-0.683206,1.243895,-1.209467,-1.811326,-2.796737,0.217251,2.018191,-0.246668,0.240552,0.162417,-0.052736
9541.070000,4.560000,1,START a_bow,Note,66.000000,F#4,A,0.237500,0.409440,0.553896,0.198478,-1.491471,-2.326413,1.408986,-2.488680,-0.683370,1.244052,-1.209461,-1.811411,-2.796844,-0.029955,2.959006,-0.814113,0.216091,0.141777,-0.062442
9541.078000,4.568000,1,START a_bow,Note,66.000000,F#4,A,0.229500,0.409482,0.553782,0.198539,-1.491503,-2.326363,1.408999,-2.488844,-0.683578,1.244284,-1.209488,-1.811515,-2.796918,0.061549,3.184560,-1.146644,0.203262,0.120254,-0.111155
9541.086000,4.576000,1,START a_bow,Note,66.000000,F#4,A,0.221500,0.409563,0.553643,0.198622,-1.491535,-2.326340,1.408966,-2.489066,-0.683797,1.244480,-1.209512,-1.811662,-2.797045,-0.498679,3.247149,-0.947010,0.190172,0.086189,-0.138742
9541.094000,4.584000,1,START a_bow,Note,66.000000,F#4,A,0.213500,0.409634,0.553482,0.198660,-1.491487,-2.326216,1.409071,-2.489305,-0.684006,1.244788,-1.209533,-1.811807,-2.797180,-0.595355,3.086778,-0.849273,0.174978,0.043265,-0.173780
9541.102000,4.592000,1,START a_bow,Note,66.000000,F#4,A,0.205500,0.409714,0.553298,0.198750,-1.491505,-2.326215,1.409134,-2.489577,-0.684305,1.245112,-1.209572,-1.812057,-2.797318,-0.847981,2.214881,0.436964,0.168756,-0.031095,-0.212375
9541.110000,4.600000,1,START a_bow,Note,66.000000,F#4,A,0.197500,0.409819,0.553071,0.198804,-1.491441,-2.326127,1.409247,-2.489916,-0.684585,1.245519,-1.209644,-1.812309,-2.797525,-0.523576,2.108897,0.217183,0.157985,-0.053570,-0.226678
9541.118000,4.608000,1,START a_bow,Note,67.000000,G4,A,0.789500,0.409958,0.552833,0.198943,-1.491504,-2.326134,1.409167,-2.490297,-0.684961,1.245858,-1.209719,-1.812585,-2.797750,-0.635212,2.262095,-0.278231,0.148147,-0.031374,-0.217647
9541.126000,4.616000,1,START a_bow,Note,67.000000,G4,A,0.781500,0.410069,0.552558,0.199049,-1.491370,-2.326090,1.409296,-2.490688,-0.685369,1.246369,-1.209772,-1.812912,-2.798034,-0.686307,1.884752,0.787836,0.164744,-0.046356,-0.207863
9541.134000,4.624000,1,START a_bow,Note,67.000000,G4,A,0.773500,0.410179,0.552289,0.199198,-1.491325,-2.326150,1.409290,-2.491072,-0.685832,1.246853,-1.209871,-1.813253,-2.798310,-0.731320,2.758373,-0.404192,0.149098,-0.018467,-0.195719
9541.142000,4.632000,1,START a_bow,Note,67.000000,G4,A,0.765500,0.410342,0.551957,0.199317,-1.491277,-2.326035,1.409420,-2.491577,-0.686284,1.247409,-1.209928,-1.813628,-2.798603,-0.351995,2.053282,0.301803,0.166056,-0.028680,-0.222265
9541.150000,4.640000,1,START a_bow,Note,67.000000,G4,A,0.757500,0.410492,0.551624,0.199460,-1.491188,-2.326071,1.409484,-2.492065,-0.686779,1.247982,-1.210046,-1.814064,-2.798947,-0.827547,2.007647,0.610282,0.169219,-0.056308,-0.223363
9541.158000,4.648000,1,START a_bow,Note,67.000000,G4,A,0.749500,0.410644,0.551256,0.199581,-1.491024,-2.325964,1.409688,-2.492595,-0.687295,1.248662,-1.210112,-1.814489,-2.799307,-0.890031,2.907591,-0.036292,0.159924,-0.040136,-0.212538
9541.166000,4.656000,1,START a_bow,Note,67.000000,G4,A,0.741500,0.410790,0.550873,0.199732,-1.490801,-2.326020,1.409900,-2.493129,-0.687871,1.249370,-1.210201,-1.815034,-2.799718,-1.180217,3.174623,-0.550584,0.151083,-0.030611,-0.210677
