srs827/Robot-Cello-ResidualRL/Data-Files/Big-Logs/string_crossings-log-detailed.csv
timestamp_robot,time_elapsed_sec,event_label,current_event_type,bow_direction,current_string,remaining_duration_sec,TCP_pose_x,TCP_pose_y,TCP_pose_z,TCP_pose_rx,TCP_pose_ry,TCP_pose_rz,q_base,q_shoulder,q_elbow,q_wrist1,q_wrist2,q_wrist3,qd_base,qd_shoulder,qd_elbow,qd_wrist1,qd_wrist2,qd_wrist3
4137.482000,0.000000,END d_bow,Note,0,D,0.998958,0.303011,0.747749,0.117569,-1.663422,-2.085070,1.039736,-2.216935,-0.371817,0.878242,-1.325505,-1.288906,-2.550053,0.000000,0.000000,-0.000000,-0.000000,-0.000000,-0.000000
4137.522000,0.040000,END d_bow,Note,0,D,0.958958,0.303016,0.747758,0.117584,-1.663464,-2.085057,1.039673,-2.216935,-0.371817,0.878204,-1.325516,-1.288887,-2.550021,0.000000,0.000000,-0.000000,-0.000000,-0.000000,-0.000000
4137.530000,0.048000,END d_bow,Note,0,D,0.950958,0.303035,0.747742,0.117574,-1.663473,-2.085021,1.039701,-2.216966,-0.371820,0.878238,-1.325517,-1.288891,-2.550033,0.000000,0.000000,-0.000000,-0.000000,-0.000000,-0.000000
4137.538000,0.056000,END d_bow,Note,0,D,0.942958,0.303035,0.747742,0.117559,-1.663471,-2.084997,1.039760,-2.216966,-0.371801,0.878235,-1.325490,-1.288891,-2.550030,0.000000,0.000000,-0.000000,-0.000000,-0.000000,-0.000000
4137.562000,0.080000,END d_bow,Note,0,D,0.918958,0.303034,0.747744,0.117566,-1.663453,-2.085028,1.039721,-2.216963,-0.371801,0.878219,-1.325502,-1.288894,-2.550046,0.000000,0.000000,-0.000000,-0.000000,-0.000000,-0.000000
4137.626000,0.144000,END d_bow,Note,0,D,0.854958,0.303035,0.747743,0.117563,-1.663471,-2.085020,1.039730,-2.216966,-0.371801,0.878226,-1.325505,-1.288899,-2.550033,0.000000,0.000000,-0.000000,-0.000000,-0.000000,-0.000000
4137.634000,0.152000,END d_bow,Note,0,D,0.846958,0.303036,0.747747,0.117573,-1.663460,-2.085022,1.039697,-2.216963,-0.371805,0.878211,-1.325505,-1.288884,-2.550041,0.000000,0.000000,-0.000000,-0.000000,-0.000000,-0.000000
4137.642000,0.160000,END d_bow,Note,0,D,0.838958,0.303031,0.747742,0.117556,-1.663418,-2.085024,1.039749,-2.216959,-0.371789,0.878223,-1.325490,-1.288887,-2.550068,0.000000,0.000000,-0.000000,-0.000000,-0.000000,-0.000000
4137.706000,0.224000,END d_bow,Note,0,D,0.774958,0.303027,0.747750,0.117584,-1.663442,-2.085059,1.039695,-2.216951,-0.371817,0.878204,-1.325493,-1.288899,-2.550049,0.000000,0.000000,-0.000000,-0.000000,-0.000000,-0.000000
4137.730000,0.248000,END d_bow,Note,0,D,0.750958,0.303048,0.747738,0.117569,-1.663470,-2.085037,1.039690,-2.216982,-0.371805,0.878219,-1.325521,-1.288910,-2.550049,0.000000,0.000000,-0.000000,-0.000000,-0.000000,-0.000000
4137.738000,0.256000,END d_bow,Note,0,D,0.742958,0.303052,0.747737,0.117570,-1.663448,-2.085033,1.039694,-2.216985,-0.371801,0.878211,-1.325505,-1.288903,-2.550068,0.000000,0.000000,-0.000000,-0.000000,-0.000000,-0.000000
4137.746000,0.264000,END d_bow,Note,0,D,0.734958,0.303029,0.747750,0.117581,-1.663464,-2.085040,1.039689,-2.216954,-0.371817,0.878211,-1.325505,-1.288891,-2.550033,0.000000,0.000000,-0.000000,-0.000000,-0.000000,-0.000000
4137.786000,0.304000,END d_bow,Note,0,D,0.694958,0.303018,0.747748,0.117552,-1.663426,-2.085047,1.039751,-2.216944,-0.371786,0.878226,-1.325505,-1.288899,-2.550053,0.000000,0.000000,-0.000000,-0.000000,-0.000000,-0.000000
4137.834000,0.352000,END d_bow,Note,0,D,0.646958,0.303024,0.747750,0.117574,-1.663439,-2.085086,1.039661,-2.216947,-0.371805,0.878208,-1.325536,-1.288906,-2.550053,0.000000,0.000000,-0.000000,-0.000000,-0.000000,-0.000000
4137.842000,0.360000,END d_bow,Note,0,D,0.638958,0.303036,0.747741,0.117579,-1.663432,-2.085060,1.039716,-2.216966,-0.371820,0.878223,-1.325490,-1.288915,-2.550068,0.000000,0.000000,-0.000000,-0.000000,-0.000000,-0.000000
4137.850000,0.368000,END d_bow,Note,0,D,0.630958,0.303022,0.747748,0.117567,-1.663443,-2.085065,1.039717,-2.216947,-0.371805,0.878223,-1.325512,-1.288910,-2.550046,0.000000,0.000000,-0.000295,-0.000000,-0.000000,-0.000000
4137.858000,0.376000,END d_bow,Note,0,D,0.622958,0.303012,0.747750,0.117565,-1.663424,-2.085084,1.039735,-2.216935,-0.371805,0.878226,-1.325505,-1.288918,-2.550053,0.000000,0.000000,-0.001033,-0.000000,-0.000000,-0.000000
4137.866000,0.384000,END d_bow,Note,0,D,0.614958,0.303035,0.747748,0.117577,-1.663468,-2.085056,1.039718,-2.216963,-0.371808,0.878199,-1.325486,-1.288922,-2.550037,0.000000,0.000281,-0.001098,-0.000000,-0.000000,-0.000000
4137.930000,0.448000,END d_bow,Note,0,D,0.550958,0.303047,0.747851,0.117657,-1.663483,-2.085254,1.039260,-2.216895,-0.371645,0.877660,-1.325461,-1.288883,-2.550013,0.001221,0.007431,-0.016309,0.005809,0.002401,0.002337
4137.938000,0.456000,END d_bow,Note,0,D,0.542958,0.303036,0.747878,0.117649,-1.663473,-2.085250,1.039249,-2.216864,-0.371582,0.877550,-1.325425,-1.288851,-2.549997,0.002468,0.008818,-0.017186,0.006996,0.004072,0.002870
4137.946000,0.464000,END d_bow,Note,0,D,0.534958,0.303084,0.747888,0.117649,-1.663513,-2.085191,1.039245,-2.216906,-0.371510,0.877396,-1.325334,-1.288843,-2.549993,0.002819,0.011396,-0.019068,0.007458,0.004791,0.004700
4138.034000,0.552000,END d_bow,Note,0,D,0.446958,0.302843,0.748664,0.117386,-1.663644,-2.084871,1.039021,-2.216097,-0.369614,0.874156,-1.324271,-1.287993,-2.549256,0.015661,0.032001,-0.063539,0.020260,0.014331,0.011556
4138.042000,0.560000,END d_bow,Note,0,D,0.438958,0.302811,0.748784,0.117395,-1.663663,-2.084858,1.038935,-2.215977,-0.369381,0.873647,-1.324076,-1.287877,-2.549153,0.015879,0.034714,-0.068480,0.021912,0.015702,0.012680
4138.050000,0.568000,END d_bow,Note,0,D,0.430958,0.302793,0.748911,0.117359,-1.663667,-2.084783,1.038834,-2.215864,-0.369050,0.873064,-1.323897,-1.287704,-2.549060,0.016070,0.037025,-0.074540,0.024122,0.017296,0.013539
4138.122000,0.640000,END d_bow,Note,0,D,0.358958,0.302683,0.749772,0.117265,-1.663853,-2.084485,1.038178,-2.215122,-0.367028,0.869109,-1.322526,-1.286784,-2.548352,0.002305,0.015963,-0.033806,0.010943,0.005289,0.004455
4138.130000,0.648000,END d_bow,Note,0,D,0.350958,0.302732,0.749802,0.117263,-1.663916,-2.084433,1.038051,-2.215149,-0.366901,0.868857,-1.322481,-1.286737,-2.548324,0.001014,0.011064,-0.026892,0.005925,0.003290,0.002801
4138.138000,0.656000,END d_bow,Note,0,D,0.342958,0.302742,0.749827,0.117274,-1.663950,-2.084500,1.037951,-2.215142,-0.366845,0.868708,-1.322477,-1.286764,-2.548303,0.000109,0.008284,-0.018942,0.001817,0.001313,0.002041
4138.202000,0.720000,START d_bow,Transition,1,D-A,0.478958,0.302926,0.749197,0.117530,-1.664141,-2.084124,1.037753,-2.215792,-0.368564,0.871679,-1.323691,-1.286884,-2.548619,-0.022273,-0.063201,0.123929,-0.056042,-0.012011,-0.016070
4138.242000,0.760000,START d_bow,Transition,1,D-A,0.438958,0.303089,0.747724,0.117792,-1.664094,-2.083801,1.037829,-2.217033,-0.372284,0.878901,-1.326804,-1.287462,-2.549559,-0.037009,-0.114565,0.229921,-0.106405,-0.022244,-0.031915
4138.250000,0.768000,START d_bow,Transition,1,D-A,0.430958,0.303061,0.747345,0.117786,-1.663994,-2.083791,1.037997,-2.217283,-0.373199,0.880869,-1.327668,-1.287649,-2.549815,-0.039286,-0.120186,0.248287,-0.118573,-0.023849,-0.035405
4138.258000,0.776000,START d_bow,Transition,1,D-A,0.422958,0.303081,0.746918,0.117820,-1.663981,-2.083722,1.038026,-2.217616,-0.374240,0.883004,-1.328656,-1.287821,-2.550068,-0.042388,-0.131340,0.272753,-0.129731,-0.026159,-0.039680
4138.338000,0.856000,START d_bow,Transition,1,D-A,0.342958,0.303480,0.740675,0.118393,-1.663186,-2.083342,1.038171,-2.222610,-0.389027,0.913103,-1.342545,-1.290656,-2.554396,-0.083840,-0.239861,0.473887,-0.214071,-0.047162,-0.073030
4138.346000,0.864000,START d_bow,Transition,1,D-A,0.334958,0.303568,0.739832,0.118475,-1.663092,-2.083259,1.038162,-2.223323,-0.390956,0.917013,-1.344340,-1.291035,-2.554996,-0.086319,-0.247488,0.492696,-0.227558,-0.048711,-0.073587
4138.354000,0.872000,START d_bow,Transition,1,D-A,0.326958,0.303635,0.738974,0.118556,-1.663015,-2.083162,1.038187,-2.224029,-0.392942,0.921045,-1.346184,-1.291414,-2.555576,-0.094482,-0.255953,0.511259,-0.228760,-0.052071,-0.075638
4138.362000,0.880000,START d_bow,Transition,1,D-A,0.318958,0.303740,0.738079,0.118685,-1.662974,-2.083067,1.038173,-2.224803,-0.395030,0.925155,-1.348025,-1.291840,-2.556182,-0.093072,-0.266532,0.528691,-0.237273,-0.054095,-0.081049
4138.370000,0.888000,START d_bow,Transition,1,D-A,0.310958,0.303807,0.737155,0.118820,-1.662844,-2.083021,1.038137,-2.225558,-0.397214,0.929464,-1.349972,-1.292255,-2.556846,-0.097832,-0.276760,0.547668,-0.248321,-0.056659,-0.085292
4138.378000,0.896000,START d_bow,Transition,1,D-A,0.302958,0.303883,0.736179,0.118928,-1.662730,-2.082995,1.038136,-2.226365,-0.399454,0.933965,-1.352031,-1.292741,-2.557538,-0.100870,-0.285207,0.566383,-0.256971,-0.058998,-0.088615
4138.442000,0.960000,START d_bow,Transition,1,D-A,0.238958,0.304596,0.727177,0.120212,-1.661668,-2.082572,1.037871,-2.233880,-0.420072,0.974589,-1.370298,-1.297028,-2.563969,-0.134118,-0.353485,0.697365,-0.311706,-0.077055,-0.113404
4138.450000,0.968000,START d_bow,Transition,1,D-A,0.230958,0.304675,0.725878,0.120315,-1.661488,-2.082369,1.038134,-2.234951,-0.422896,0.980350,-1.372760,-1.297623,-2.564877,-0.136329,-0.359146,0.715082,-0.315565,-0.076169,-0.114915
4138.458000,0.976000,START d_bow,Transition,1,D-A,0.222958,0.304770,0.724566,0.120446,-1.661329,-2.082211,1.038258,-2.236054,-0.425754,0.986112,-1.375286,-1.298233,-2.565803,-0.143701,-0.362260,0.729140,-0.322119,-0.078826,-0.118469
4138.546000,1.064000,START d_bow,Transition,1,D-A,0.134958,0.305993,0.709701,0.122278,-1.659714,-2.080927,1.038385,-2.248886,-0.457400,1.048905,-1.403087,-1.305420,-2.576505,-0.148129,-0.348171,0.694372,-0.301430,-0.085327,-0.120323
4138.554000,1.072000,START d_bow,Transition,1,D-A,0.126958,0.306095,0.708365,0.122434,-1.659611,-2.080865,1.038356,-2.250054,-0.460157,1.054384,-1.405559,-1.306121,-2.577451,-0.147865,-0.346363,0.689252,-0.301330,-0.086176,-0.120525
4138.562000,1.080000,START d_bow,Transition,1,D-A,0.118958,0.306185,0.707020,0.122595,-1.659509,-2.080735,1.038450,-2.251221,-0.462942,1.059904,-1.407952,-1.306812,-2.578381,-0.147458,-0.342181,0.685223,-0.302488,-0.083813,-0.121490
4138.650000,1.168000,START d_bow,Transition,1,A-D,1.030958,0.307421,0.692149,0.124458,-1.657941,-2.079432,1.038555,-2.264538,-0.492665,1.118493,-1.433479,-1.314382,-2.589355,-0.152369,-0.325931,0.649573,-0.280696,-0.087548,-0.128322
4138.658000,1.176000,START d_bow,Transition,1,A-D,1.022958,0.307535,0.690795,0.124674,-1.657808,-2.079375,1.038462,-2.265772,-0.495364,1.123677,-1.435740,-1.315104,-2.590373,-0.152939,-0.328008,0.647993,-0.280318,-0.091482,-0.127167
4138.666000,1.184000,START d_bow,Transition,1,A-D,1.014958,0.307615,0.689453,0.124858,-1.657647,-2.079326,1.038454,-2.266963,-0.498012,1.128844,-1.437985,-1.315825,-2.591376,-0.152576,-0.325807,0.644423,-0.280379,-0.088930,-0.124554
4138.698000,1.216000,START d_bow,Transition,1,A-D,0.982958,0.308082,0.684038,0.125550,-1.657089,-2.078879,1.038469,-2.271959,-0.508391,1.149178,-1.446744,-1.318716,-2.595460,-0.158915,-0.319607,0.632021,-0.272265,-0.089687,-0.127121
4138.706000,1.224000,START d_bow,Transition,1,A-D,0.974958,0.308216,0.682678,0.125729,-1.656999,-2.078768,1.038367,-2.273241,-0.510966,1.154208,-1.448973,-1.319439,-2.596474,-0.156900,-0.322570,0.628880,-0.274765,-0.087841,-0.129246
4138.714000,1.232000,START d_bow,Transition,1,A-D,0.966958,0.308324,0.681331,0.125909,-1.656865,-2.078723,1.038283,-2.274488,-0.513526,1.159201,-1.451183,-1.320184,-2.597501,-0.158796,-0.321129,0.626966,-0.265414,-0.090901,-0.126466
4138.722000,1.240000,START d_bow,Transition,1,A-D,0.958958,0.308452,0.679947,0.126054,-1.656750,-2.078414,1.038527,-2.275793,-0.516091,1.164290,-1.453211,-1.320886,-2.598508,-0.158109,-0.320156,0.623848,-0.265123,-0.092891,-0.127714
4138.730000,1.248000,START d_bow,Transition,1,A-D,0.950958,0.308560,0.678595,0.126222,-1.656579,-2.078279,1.038569,-2.277048,-0.518624,1.169256,-1.455308,-1.321601,-2.599550,-0.157658,-0.317064,0.622100,-0.267000,-0.090401,-0.126350
4138.738000,1.256000,START d_bow,Transition,1,A-D,0.942958,0.308655,0.677259,0.126391,-1.656438,-2.078216,1.038550,-2.278282,-0.521131,1.174165,-1.457443,-1.322347,-2.600565,-0.159571,-0.313018,0.619169,-0.264156,-0.091121,-0.130233
4138.746000,1.264000,START d_bow,Transition,1,A-D,0.934958,0.308746,0.675918,0.126541,-1.656250,-2.078121,1.038545,-2.279517,-0.523609,1.179075,-1.459580,-1.323058,-2.601611,-0.155659,-0.309769,0.616010,-0.264467,-0.095398,-0.127478
4138.754000,1.272000,START d_bow,Transition,1,A-D,0.926958,0.308808,0.674588,0.126730,-1.656053,-2.078074,1.038554,-2.280715,-0.526145,1.183982,-1.461662,-1.323786,-2.602641,-0.156800,-0.310323,0.615046,-0.261615,-0.092383,-0.129636
4138.762000,1.280000,START d_bow,Transition,1,A-D,0.918958,0.308895,0.673238,0.126914,-1.655835,-2.078047,1.038548,-2.281958,-0.528668,1.188881,-1.463751,-1.324549,-2.603723,-0.156444,-0.310017,0.611498,-0.261140,-0.092908,-0.129340
4138.770000,1.288000,START d_bow,Transition,1,A-D,0.910958,0.308991,0.671890,0.127134,-1.655722,-2.078040,1.038454,-2.283220,-0.531237,1.193760,-1.465859,-1.325340,-2.604746,-0.159962,-0.312171,0.606696,-0.258990,-0.094369,-0.129484
4138.778000,1.296000,START d_bow,Transition,1,A-D,0.902958,0.309114,0.670532,0.127318,-1.655616,-2.077868,1.038477,-2.284521,-0.533740,1.198609,-1.467886,-1.326072,-2.605768,-0.163324,-0.310687,0.602618,-0.255713,-0.093398,-0.127928
4138.786000,1.304000,START d_bow,Transition,1,A-D,0.894958,0.309176,0.669191,0.127490,-1.655375,-2.077785,1.038542,-2.285741,-0.536228,1.203469,-1.469912,-1.326795,-2.606838,-0.160811,-0.308487,0.602082,-0.257076,-0.093824,-0.128370
4138.794000,1.312000,START d_bow,Transition,1,A-D,0.886958,0.309289,0.667833,0.127603,-1.655220,-2.077585,1.038768,-2.287039,-0.538614,1.208270,-1.471866,-1.327567,-2.607876,-0.160147,-0.304395,0.598774,-0.249219,-0.093747,-0.131222
4138.802000,1.320000,START d_bow,Transition,1,A-D,0.878958,0.309396,0.666479,0.127774,-1.655066,-2.077487,1.038751,-2.288328,-0.541069,1.213059,-1.473916,-1.328322,-2.608934,-0.162263,-0.306561,0.594694,-0.250022,-0.096203,-0.130496
4138.810000,1.328000,START d_bow,Transition,1,A-D,0.870958,0.309547,0.665136,0.127972,-1.654973,-2.077376,1.038602,-2.289657,-0.543495,1.217713,-1.475946,-1.329062,-2.609985,-0.164405,-0.308118,0.593286,-0.253065,-0.095242,-0.131895
4138.818000,1.336000,START d_bow,Transition,1,A-D,0.862958,0.309689,0.663765,0.128121,-1.654924,-2.077210,1.038596,-2.291011,-0.545908,1.222474,-1.478006,-1.329845,-2.611003,-0.165531,-0.303127,0.590983,-0.250322,-0.095162,-0.133595
4138.826000,1.344000,START d_bow,Transition,1,A-D,0.854958,0.309788,0.662411,0.128301,-1.654809,-2.077091,1.038611,-2.292306,-0.548365,1.227231,-1.480009,-1.330613,-2.612030,-0.164102,-0.302983,0.589392,-0.247822,-0.098646,-0.131491
4138.834000,1.352000,START d_bow,Transition,1,A-D,0.846958,0.309893,0.661052,0.128447,-1.654637,-2.076975,1.038749,-2.293613,-0.550759,1.231954,-1.481947,-1.331423,-2.613100,-0.162939,-0.300324,0.586537,-0.242485,-0.097376,-0.131692
4138.842000,1.360000,START d_bow,Transition,1,A-D,0.838958,0.309994,0.659698,0.128581,-1.654461,-2.076793,1.038882,-2.294914,-0.553122,1.236651,-1.483879,-1.332172,-2.614162,-0.163988,-0.298335,0.584663,-0.243845,-0.097794,-0.132851
4138.850000,1.368000,START d_bow,Transition,1,A-D,0.830958,0.310117,0.658348,0.128740,-1.654298,-2.076697,1.038895,-2.296237,-0.555481,1.241269,-1.485829,-1.332963,-2.615248,-0.163524,-0.296347,0.582334,-0.245085,-0.094986,-0.131218
4138.858000,1.376000,START d_bow,Transition,1,A-D,0.822958,0.310223,0.657031,0.128943,-1.654219,-2.076598,1.038830,-2.297522,-0.557871,1.245815,-1.487756,-1.333722,-2.616247,-0.152941,-0.285046,0.565781,-0.239351,-0.093949,-0.127018
4138.866000,1.384000,START d_bow,Transition,1,A-D,0.814958,0.310323,0.655747,0.129151,-1.654095,-2.076641,1.038582,-2.298770,-0.560198,1.250219,-1.489746,-1.334484,-2.617281,-0.156966,-0.278408,0.548284,-0.231982,-0.091910,-0.125732
4138.874000,1.392000,START d_bow,Transition,1,A-D,0.806958,0.310454,0.654478,0.129346,-1.654012,-2.076472,1.038507,-2.300042,-0.562457,1.254513,-1.491542,-1.335173,-2.618268,-0.151403,-0.272693,0.529985,-0.222481,-0.089838,-0.121873
4138.882000,1.400000,START d_bow,Transition,1,A-D,0.798958,0.310545,0.653246,0.129513,-1.653912,-2.076370,1.038472,-2.301244,-0.564645,1.258730,-1.493333,-1.335877,-2.619218,-0.147577,-0.269561,0.511267,-0.215492,-0.087096,-0.119142
4138.890000,1.408000,START d_bow,Transition,1,A-D,0.790958,0.310650,0.652043,0.129649,-1.653761,-2.076223,1.038614,-2.302435,-0.566712,1.262775,-1.494941,-1.336592,-2.620180,-0.143663,-0.258528,0.497468,-0.206378,-0.087935,-0.117047
4138.898000,1.416000,START d_bow,Transition,1,A-D,0.782958,0.310742,0.650889,0.129787,-1.653613,-2.076097,1.038755,-2.303572,-0.568711,1.266662,-1.496478,-1.337288,-2.621103,-0.139092,-0.247700,0.481281,-0.199615,-0.083906,-0.115167
4138.906000,1.424000,START d_bow,Transition,1,A-D,0.774958,0.310832,0.649782,0.129907,-1.653546,-2.076062,1.038712,-2.304670,-0.570603,1.270384,-1.498121,-1.337984,-2.621958,-0.135091,-0.235264,0.464235,-0.197325,-0.079757,-0.108774
4138.914000,1.432000,START d_bow,Transition,1,A-D,0.766958,0.310917,0.648708,0.130045,-1.653436,-2.075936,1.038737,-2.305732,-0.572470,1.273999,-1.499610,-1.338595,-2.622805,-0.131828,-0.232026,0.447645,-0.184967,-0.078610,-0.105589
4138.922000,1.440000,START d_bow,Transition,1,A-D,0.758958,0.311004,0.647659,0.130157,-1.653311,-2.075883,1.038723,-2.306775,-0.574241,1.277489,-1.501113,-1.339231,-2.623659,-0.130897,-0.225069,0.430968,-0.180067,-0.075807,-0.106347
4138.930000,1.448000,START d_bow,Transition,1,A-D,0.750958,0.311108,0.646645,0.130275,-1.653192,-2.075712,1.038726,-2.307804,-0.575949,1.280829,-1.502492,-1.339772,-2.624486,-0.125573,-0.216652,0.415383,-0.171304,-0.075545,-0.101586
4138.938000,1.456000,START d_bow,Transition,1,A-D,0.742958,0.311174,0.645646,0.130373,-1.653057,-2.075650,1.038867,-2.308786,-0.577635,1.284163,-1.503837,-1.340418,-2.625289,-0.119790,-0.207151,0.401768,-0.169387,-0.070526,-0.097991
4138.946000,1.464000,START d_bow,Transition,1,A-D,0.734958,0.311228,0.644697,0.130451,-1.652924,-2.075545,1.038944,-2.309709,-0.579214,1.287348,-1.505176,-1.340963,-2.626047,-0.117535,-0.197764,0.385561,-0.158750,-0.070088,-0.091258
4138.954000,1.472000,START d_bow,Transition,1,A-D,0.726958,0.311254,0.643794,0.130532,-1.652766,-2.075408,1.039216,-2.310563,-0.580754,1.290414,-1.506315,-1.341505,-2.626755,-0.109689,-0.188580,0.370144,-0.153821,-0.066980,-0.090497
4138.962000,1.480000,START d_bow,Transition,1,A-D,0.718958,0.311321,0.642911,0.130630,-1.652674,-2.075357,1.039197,-2.311445,-0.582242,1.293334,-1.507573,-1.342041,-2.627465,-0.110223,-0.182808,0.353477,-0.149990,-0.065763,-0.086590
4138.970000,1.488000,START d_bow,Transition,1,A-D,0.710958,0.311398,0.642079,0.130754,-1.652610,-2.075310,1.039148,-2.312292,-0.583677,1.296056,-1.508719,-1.342552,-2.628133,-0.104180,-0.176006,0.339529,-0.140829,-0.062052,-0.083628
4138.978000,1.496000,START d_bow,Transition,1,A-D,0.702958,0.311471,0.641280,0.130903,-1.652545,-2.075307,1.038946,-2.313103,-0.585096,1.298673,-1.509886,-1.343013,-2.628792,-0.100394,-0.167710,0.321095,-0.138013,-0.058157,-0.081664
4138.986000,1.504000,START d_bow,Transition,1,A-D,0.694958,0.311547,0.640536,0.131039,-1.652502,-2.075309,1.038735,-2.313869,-0.586405,1.301094,-1.510987,-1.343449,-2.629403,-0.094669,-0.162114,0.304386,-0.130350,-0.057694,-0.075087
4138.994000,1.512000,START d_bow,Transition,1,A-D,0.686958,0.311625,0.639806,0.131185,-1.652471,-2.075264,1.038659,-2.314627,-0.587711,1.303457,-1.511945,-1.343901,-2.629983,-0.091354,-0.155593,0.289922,-0.119695,-0.056303,-0.070570
4139.002000,1.520000,START d_bow,Transition,1,A-D,0.678958,0.311671,0.639112,0.131277,-1.652353,-2.075254,1.038615,-2.315315,-0.588889,1.305730,-1.512917,-1.344316,-2.630577,-0.084829,-0.142184,0.277671,-0.109205,-0.054886,-0.069543
4139.010000,1.528000,START d_bow,Transition,1,A-D,0.670958,0.311738,0.638451,0.131370,-1.652313,-2.075165,1.038644,-2.316001,-0.590012,1.307864,-1.513764,-1.344721,-2.631097,-0.082916,-0.134463,0.261627,-0.107046,-0.048752,-0.066330
4139.018000,1.536000,START d_bow,Transition,1,A-D,0.662958,0.311761,0.637834,0.131451,-1.652175,-2.075114,1.038691,-2.316593,-0.591074,1.309914,-1.514573,-1.345068,-2.631624,-0.077054,-0.125957,0.247225,-0.101772,-0.046273,-0.062145
4139.026000,1.544000,START d_bow,Transition,1,A-D,0.654958,0.311810,0.637261,0.131534,-1.652137,-2.075123,1.038621,-2.317179,-0.592052,1.311771,-1.515390,-1.345444,-2.632088,-0.071811,-0.117837,0.234109,-0.094924,-0.043325,-0.057565
4139.034000,1.552000,START d_bow,Transition,1,A-D,0.646958,0.311846,0.636699,0.131585,-1.652044,-2.075024,1.038692,-2.317739,-0.592973,1.313609,-1.516120,-1.345753,-2.632550,-0.071343,-0.109464,0.218878,-0.089737,-0.041255,-0.055956
4139.042000,1.560000,START d_bow,Transition,1,A-D,0.638958,0.311916,0.636168,0.131647,-1.652010,-2.074975,1.038721,-2.318309,-0.593832,1.315270,-1.516790,-1.346112,-2.632985,-0.064905,-0.105401,0.206127,-0.085671,-0.039030,-0.052100
4139.050000,1.568000,START d_bow,Transition,1,A-D,0.630958,0.311944,0.635688,0.131704,-1.651996,-2.074888,1.038762,-2.318789,-0.594650,1.316857,-1.517429,-1.346387,-2.633334,-0.061504,-0.097732,0.190574,-0.077657,-0.035920,-0.047405
4139.058000,1.576000,START d_bow,Transition,1,A-D,0.622958,0.311993,0.635206,0.131725,-1.651949,-2.074798,1.038785,-2.319291,-0.595385,1.318394,-1.518098,-1.346659,-2.633724,-0.059900,-0.089313,0.178286,-0.072142,-0.033948,-0.044383
4139.066000,1.584000,START d_bow,Transition,1,A-D,0.614958,0.312045,0.634786,0.131787,-1.651945,-2.074749,1.038815,-2.319743,-0.596092,1.319717,-1.518610,-1.346946,-2.634049,-0.056155,-0.085846,0.163451,-0.067557,-0.030845,-0.039442
4139.074000,1.592000,START d_bow,Transition,1,A-D,0.606958,0.312081,0.634398,0.131812,-1.651881,-2.074662,1.038857,-2.320142,-0.596696,1.320955,-1.519112,-1.347151,-2.634376,-0.048826,-0.075207,0.145714,-0.059785,-0.027424,-0.038454
4139.082000,1.600000,START d_bow,Transition,1,A-D,0.598958,0.312125,0.634047,0.131852,-1.651845,-2.074603,1.038900,-2.320517,-0.597262,1.322053,-1.519531,-1.347371,-2.634667,-0.042546,-0.070443,0.132796,-0.052350,-0.025193,-0.033641
4139.090000,1.608000,START d_bow,Transition,1,A-D,0.590958,0.312129,0.633748,0.131871,-1.651810,-2.074590,1.038944,-2.320803,-0.597750,1.323048,-1.519953,-1.347566,-2.634896,-0.038090,-0.060071,0.118666,-0.048162,-0.023014,-0.029080
4139.098000,1.616000,START d_bow,Transition,1,A-D,0.582958,0.312173,0.633469,0.131889,-1.651815,-2.074533,1.038963,-2.321113,-0.598174,1.323908,-1.520313,-1.347746,-2.635111,-0.032532,-0.053542,0.102941,-0.042403,-0.020177,-0.025628
4139.106000,1.624000,START d_bow,Transition,1,A-D,0.574958,0.312188,0.633235,0.131920,-1.651792,-2.074511,1.038956,-2.321349,-0.598569,1.324669,-1.520632,-1.347883,-2.635300,-0.027853,-0.046621,0.086595,-0.035528,-0.017428,-0.021909
4139.114000,1.632000,START d_bow,Transition,1,A-D,0.566958,0.312197,0.633043,0.131942,-1.651751,-2.074503,1.038939,-2.321537,-0.598889,1.325297,-1.520906,-1.347987,-2.635467,-0.022603,-0.038325,0.074224,-0.029852,-0.014245,-0.018378
4139.122000,1.640000,START d_bow,Transition,1,A-D,0.558958,0.312222,0.632868,0.131968,-1.651784,-2.074457,1.038983,-2.321732,-0.599185,1.325846,-1.521099,-1.348114,-2.635576,-0.019318,-0.031026,0.058623,-0.024883,-0.011715,-0.015107
4139.130000,1.648000,START d_bow,Transition,1,A-D,0.550958,0.312224,0.632747,0.131990,-1.651739,-2.074448,1.038943,-2.321844,-0.599398,1.326247,-1.521278,-1.348155,-2.635695,-0.014700,-0.023979,0.044306,-0.019661,-0.008491,-0.011287
4139.138000,1.656000,START d_bow,Transition,1,A-D,0.542958,0.312232,0.632649,0.132017,-1.651719,-2.074444,1.038904,-2.321944,-0.599581,1.326561,-1.521410,-1.348199,-2.635786,-0.010529,-0.017425,0.029607,-0.012492,-0.002847,-0.005733
4139.146000,1.664000,START d_bow,Transition,1,A-D,0.534958,0.312209,0.632615,0.132012,-1.651749,-2.074400,1.038994,-2.321956,-0.599658,1.326734,-1.521447,-1.348218,-2.635760,-0.002657,-0.010245,0.017604,-0.004997,-0.001092,-0.001250
4139.154000,1.672000,START d_bow,Transition,1,A-D,0.526958,0.312209,0.632603,0.132018,-1.651707,-2.074381,1.039005,-2.321964,-0.599682,1.326772,-1.521435,-1.348199,-2.635794,0.004395,-0.000012,0.003475,0.004229,-0.000243,-0.000447
4139.162000,1.680000,END d_bow,Transition,1,A-D,0.518958,0.312190,0.632624,0.131995,-1.651703,-2.074395,1.039037,-2.321925,-0.599630,1.326734,-1.521439,-1.348195,-2.635767,0.000354,0.001455,-0.001839,0.003294,-0.000072,0.000398
4139.170000,1.688000,END d_bow,Transition,1,A-D,0.510958,0.312180,0.632632,0.132017,-1.651673,-2.074432,1.039030,-2.321904,-0.599658,1.326721,-1.521406,-1.348199,-2.635779,0.004532,0.000457,-0.002501,0.001138,-0.000055,0.000295
4139.178000,1.696000,END d_bow,Transition,1,A-D,0.502958,0.312163,0.632638,0.132008,-1.651655,-2.074475,1.039039,-2.321881,-0.599649,1.326728,-1.521427,-1.348215,-2.635779,0.002009,0.000589,-0.000001,0.000740,-0.000044,0.000234
4139.186000,1.704000,START d_to_a,Transition,1,A-D,0.494958,0.312153,0.632643,0.131976,-1.651666,-2.074419,1.039125,-2.321868,-0.599603,1.326731,-1.521415,-1.348199,-2.635747,0.001564,0.000556,-0.002119,0.000402,-0.000091,0.000155
4139.194000,1.712000,START d_to_a,Transition,1,A-D,0.486958,0.312241,0.632646,0.132014,-1.651659,-2.074396,1.039211,-2.321956,-0.599577,1.326529,-1.521165,-1.348275,-2.635808,-0.020613,0.004882,-0.036863,0.031413,-0.017397,-0.014318
4139.202000,1.720000,START d_to_a,Transition,1,A-D,0.478958,0.312384,0.632654,0.132066,-1.651588,-2.074572,1.039060,-2.322088,-0.599487,1.326163,-1.520985,-1.348427,-2.635989,-0.014097,0.012691,-0.048931,0.039863,-0.021858,-0.020405
4139.210000,1.728000,START d_to_a,Transition,1,A-D,0.470958,0.312576,0.632663,0.132168,-1.651583,-2.074664,1.039054,-2.322275,-0.599442,1.325703,-1.520568,-1.348630,-2.636142,-0.027635,0.010963,-0.067315,0.060511,-0.022385,-0.021326
4139.226000,1.744000,START d_to_a,Transition,1,A-D,0.454958,0.313214,0.632684,0.132444,-1.651613,-2.074677,1.038851,-2.322906,-0.599220,1.324272,-1.519392,-1.349010,-2.636604,-0.046512,0.015430,-0.104252,0.096761,-0.029910,-0.032202
4139.242000,1.760000,START d_to_a,Transition,1,A-D,0.438958,0.314122,0.632721,0.132871,-1.651731,-2.074637,1.038744,-2.323804,-0.598960,1.322217,-1.517540,-1.349601,-2.637184,-0.063373,0.017107,-0.146231,0.134781,-0.041416,-0.045331
4139.250000,1.768000,START d_to_a,Transition,1,A-D,0.430958,0.314677,0.632732,0.133143,-1.651744,-2.074643,1.038725,-2.324359,-0.598828,1.320981,-1.516364,-1.349992,-2.637586,-0.070502,0.019305,-0.161859,0.158364,-0.047899,-0.050610
4139.258000,1.776000,START d_to_a,Transition,1,A-D,0.422958,0.315283,0.632770,0.133447,-1.651731,-2.074660,1.038636,-2.324937,-0.598645,1.319540,-1.515068,-1.350372,-2.638032,-0.076384,0.021117,-0.184861,0.177615,-0.055098,-0.057314
4139.266000,1.784000,START d_to_a,Transition,1,A-D,0.414958,0.315963,0.632804,0.133798,-1.651747,-2.074653,1.038657,-2.325598,-0.598477,1.317950,-1.513530,-1.350843,-2.638506,-0.083785,0.023338,-0.203637,0.198498,-0.061377,-0.063844
4139.274000,1.792000,START d_to_a,Transition,1,A-D,0.406958,0.316686,0.632853,0.134174,-1.651698,-2.074622,1.038686,-2.326280,-0.598270,1.316202,-1.511840,-1.351295,-2.639042,-0.089167,0.025174,-0.227683,0.214964,-0.065903,-0.067794
4139.282000,1.800000,START d_to_a,Transition,1,A-D,0.398958,0.317480,0.632893,0.134590,-1.651679,-2.074667,1.038754,-2.327047,-0.598070,1.314315,-1.509998,-1.351894,-2.639621,-0.099542,0.028492,-0.245769,0.235411,-0.069464,-0.073617
4139.290000,1.808000,START d_to_a,Transition,1,A-D,0.390958,0.318364,0.632925,0.135025,-1.651672,-2.074592,1.038866,-2.327913,-0.597827,1.312273,-1.507973,-1.352485,-2.640247,-0.106684,0.032155,-0.263551,0.252261,-0.077696,-0.080785
4139.298000,1.816000,START d_to_a,Transition,1,A-D,0.382958,0.319266,0.632974,0.135456,-1.651617,-2.074585,1.039077,-2.328777,-0.597521,1.310094,-1.505820,-1.353156,-2.640906,-0.116439,0.036627,-0.285169,0.272155,-0.080622,-0.085175
4139.306000,1.824000,START d_to_a,Transition,1,A-D,0.374958,0.320296,0.633024,0.135970,-1.651635,-2.074533,1.039034,-2.329769,-0.597213,1.307661,-1.503557,-1.353801,-2.641623,-0.125628,0.040587,-0.307113,0.289371,-0.087810,-0.092958
4139.314000,1.832000,START d_to_a,Transition,1,A-D,0.366958,0.321399,0.633048,0.136512,-1.651655,-2.074459,1.039069,-2.330858,-0.596914,1.305144,-1.501133,-1.354527,-2.642400,-0.134856,0.042039,-0.329441,0.307235,-0.094372,-0.097250
4139.322000,1.840000,START d_to_a,Transition,1,A-D,0.358958,0.322537,0.633105,0.137087,-1.651685,-2.074491,1.039021,-2.331949,-0.596566,1.302416,-1.498628,-1.355310,-2.643189,-0.141230,0.043453,-0.352633,0.326131,-0.098307,-0.104217
4139.330000,1.848000,START d_to_a,Transition,1,A-D,0.350958,0.323756,0.633152,0.137713,-1.651669,-2.074459,1.039045,-2.333126,-0.596223,1.299530,-1.495876,-1.356119,-2.644063,-0.149991,0.048057,-0.375208,0.349675,-0.107497,-0.108992
4139.338000,1.856000,START d_to_a,Transition,1,A-D,0.342958,0.325044,0.633206,0.138342,-1.651691,-2.074441,1.039094,-2.334367,-0.595796,1.296448,-1.493001,-1.357005,-2.644953,-0.154995,0.052576,-0.400716,0.366236,-0.111029,-0.116824
4139.346000,1.864000,START d_to_a,Transition,1,A-D,0.334958,0.326377,0.633274,0.139005,-1.651612,-2.074440,1.039156,-2.335628,-0.595329,1.293179,-1.489945,-1.357893,-2.645935,-0.140363,0.061529,-0.397448,0.378926,-0.109923,-0.116677
4139.354000,1.872000,START d_to_a,Transition,1,A-D,0.326958,0.327582,0.633383,0.139650,-1.651617,-2.074630,1.039028,-2.336723,-0.594893,1.290047,-1.487213,-1.358768,-2.646770,-0.130653,0.058872,-0.375942,0.343071,-0.103141,-0.109059
4139.362000,1.880000,START d_to_a,Transition,1,A-D,0.318958,0.328780,0.633455,0.140262,-1.651593,-2.074663,1.039060,-2.337845,-0.594470,1.287054,-1.484455,-1.359591,-2.647614,-0.147296,0.048619,-0.361592,0.325855,-0.097593,-0.102741
4139.370000,1.888000,START d_to_a,Transition,1,A-D,0.310958,0.329947,0.633500,0.140796,-1.651582,-2.074615,1.039033,-2.338959,-0.593995,1.284227,-1.481933,-1.360323,-2.648439,-0.133458,0.052991,-0.340898,0.309840,-0.093070,-0.097532
4139.378000,1.896000,START d_to_a,Transition,1,A-D,0.302958,0.330979,0.633554,0.141286,-1.651488,-2.074533,1.039277,-2.339926,-0.593572,1.281641,-1.479427,-1.361011,-2.649188,-0.125604,0.050472,-0.319073,0.297443,-0.086839,-0.091290
4139.386000,1.904000,START d_to_a,Transition,1,A-D,0.294958,0.332006,0.633582,0.141764,-1.651550,-2.074441,1.039357,-2.340919,-0.593186,1.279185,-1.477153,-1.361690,-2.649854,-0.116678,0.048076,-0.302054,0.274133,-0.083486,-0.082130
4139.394000,1.912000,START d_to_a,Transition,1,A-D,0.286958,0.332931,0.633630,0.142204,-1.651525,-2.074452,1.039440,-2.341786,-0.592799,1.276859,-1.475031,-1.362337,-2.650503,-0.107407,0.044582,-0.282014,0.255589,-0.076050,-0.078563
4139.402000,1.920000,START d_to_a,Transition,1,A-D,0.278958,0.333797,0.633669,0.142638,-1.651509,-2.074454,1.039351,-2.342600,-0.592470,1.274709,-1.473135,-1.362871,-2.651121,-0.099749,0.039979,-0.260707,0.239716,-0.067982,-0.075459
4139.410000,1.928000,START d_to_a,Transition,1,A-D,0.270958,0.334583,0.633721,0.143046,-1.651472,-2.074536,1.039267,-2.343319,-0.592159,1.272679,-1.471372,-1.363398,-2.651695,-0.089548,0.038481,-0.243015,0.219481,-0.067792,-0.068091
4139.418000,1.936000,START d_to_a,Transition,1,A-D,0.262958,0.335293,0.633756,0.143395,-1.651439,-2.074578,1.039322,-2.343983,-0.591867,1.270875,-1.469731,-1.363914,-2.652205,-0.085637,0.034573,-0.224160,0.199792,-0.059200,-0.061477
4139.426000,1.944000,START d_to_a,Transition,1,A-D,0.254958,0.336009,0.633772,0.143727,-1.651490,-2.074513,1.039269,-2.344673,-0.591583,1.269158,-1.468223,-1.364342,-2.652672,-0.076571,0.033218,-0.202134,0.181353,-0.052489,-0.055345
4139.434000,1.952000,START d_to_a,Transition,1,A-D,0.246958,0.336584,0.633799,0.143990,-1.651484,-2.074463,1.039405,-2.345213,-0.591323,1.267706,-1.466854,-1.364738,-2.653054,-0.069551,0.031078,-0.181765,0.164736,-0.048256,-0.049768
4139.442000,1.960000,START d_to_a,Transition,1,A-D,0.238958,0.337123,0.633810,0.144227,-1.651505,-2.074415,1.039487,-2.345733,-0.591088,1.266396,-1.465648,-1.365106,-2.653406,-0.061077,0.028112,-0.161242,0.144690,-0.042283,-0.041582
4139.450000,1.968000,START d_to_a,Transition,1,A-D,0.230958,0.337598,0.633825,0.144445,-1.651507,-2.074367,1.039505,-2.346183,-0.590884,1.265230,-1.464595,-1.365394,-2.653728,-0.053414,0.023946,-0.138502,0.122317,-0.035533,-0.037889
4139.458000,1.976000,START d_to_a,Transition,1,A-D,0.222958,0.338005,0.633846,0.144657,-1.651543,-2.074391,1.039413,-2.346562,-0.590728,1.264197,-1.463733,-1.365654,-2.653991,-0.045277,0.018137,-0.119539,0.104978,-0.030032,-0.031857
4139.466000,1.984000,START d_to_a,Transition,1,A-D,0.214958,0.338371,0.633839,0.144823,-1.651592,-2.074342,1.039324,-2.346929,-0.590600,1.263378,-1.463042,-1.365851,-2.654227,-0.036868,0.014989,-0.096568,0.083487,-0.023335,-0.025173
4139.474000,1.992000,START d_to_a,Transition,1,A-D,0.206958,0.338625,0.633859,0.144956,-1.651599,-2.074349,1.039320,-2.347158,-0.590492,1.262703,-1.462447,-1.366019,-2.654391,-0.030049,0.010125,-0.076724,0.065468,-0.017271,-0.019516
4139.482000,2.000000,START d_to_a,Transition,1,A-D,0.198958,0.338803,0.633870,0.145049,-1.651551,-2.074329,1.039372,-2.347318,-0.590417,1.262235,-1.461980,-1.366123,-2.654538,-0.021208,0.006990,-0.055174,0.046145,-0.011768,-0.014083
4139.490000,2.008000,START d_to_a,Transition,1,A-D,0.190958,0.338939,0.633873,0.145153,-1.651595,-2.074348,1.039261,-2.347450,-0.590424,1.261913,-1.461716,-1.366198,-2.654614,-0.012625,0.001388,-0.030958,0.026751,-0.004851,-0.007198
4139.498000,2.016000,START d_to_a,Transition,1,A-D,0.182958,0.339019,0.633884,0.145216,-1.651675,-2.074321,1.039164,-2.347522,-0.590424,1.261714,-1.461579,-1.366210,-2.654614,-0.001289,-0.002443,-0.009766,0.008752,-0.001246,-0.000030
4139.506000,2.024000,START d_to_a,Transition,1,A-D,0.174958,0.338994,0.633907,0.145240,-1.651653,-2.074442,1.039194,-2.347475,-0.590444,1.261668,-1.461530,-1.366281,-2.654606,0.001652,0.015824,-0.057491,0.040377,-0.046239,-0.001594
4139.514000,2.032000,START d_to_a,Transition,1,A-D,0.166958,0.339005,0.634027,0.145220,-1.651429,-2.075014,1.039787,-2.347367,-0.590174,1.261049,-1.460950,-1.366847,-2.654693,0.018547,0.036428,-0.097338,0.087949,-0.090002,-0.015263
4139.522000,2.040000,START d_to_a,Transition,1,A-D,0.158958,0.338975,0.634235,0.145212,-1.651023,-2.076097,1.040852,-2.347133,-0.589790,1.260066,-1.459956,-1.367878,-2.654828,0.028201,0.055518,-0.143417,0.145534,-0.148651,-0.019983
4139.530000,2.048000,START d_to_a,Transition,1,A-D,0.150958,0.338985,0.634489,0.145211,-1.650512,-2.077529,1.042451,-2.346897,-0.589289,1.258718,-1.458474,-1.369384,-2.655019,0.034739,0.071015,-0.190553,0.203675,-0.206757,-0.025849
4139.538000,2.056000,START d_to_a,Transition,1,A-D,0.142958,0.339022,0.634838,0.145229,-1.649912,-2.079432,1.044336,-2.346597,-0.588611,1.256857,-1.456609,-1.371317,-2.655247,0.039809,0.088793,-0.244892,0.259108,-0.265761,-0.031137
4139.546000,2.064000,START d_to_a,Transition,1,A-D,0.134958,0.339075,0.635238,0.145248,-1.649139,-2.081730,1.046896,-2.346266,-0.587808,1.254628,-1.454178,-1.373778,-2.655546,0.047011,0.108884,-0.293363,0.320343,-0.329179,-0.039522
4139.554000,2.072000,START d_to_a,Transition,1,A-D,0.126958,0.339114,0.635726,0.145224,-1.648211,-2.084531,1.049865,-2.345835,-0.586782,1.251979,-1.451431,-1.376703,-2.655889,0.054974,0.132823,-0.348066,0.379375,-0.389385,-0.046210
4139.562000,2.080000,START d_to_a,Transition,1,A-D,0.118958,0.339201,0.636256,0.145206,-1.647088,-2.087681,1.053565,-2.345412,-0.585623,1.248918,-1.448028,-1.380165,-2.656330,0.063362,0.155050,-0.402207,0.439102,-0.457760,-0.053964
4139.570000,2.088000,START d_to_a,Transition,1,A-D,0.110958,0.339229,0.636886,0.145140,-1.645751,-2.091270,1.057981,-2.344834,-0.584261,1.245473,-1.444120,-1.384114,-2.656772,0.071589,0.179200,-0.455605,0.501414,-0.521100,-0.060011
4139.578000,2.096000,START d_to_a,Transition,1,A-D,0.102958,0.339296,0.637565,0.145032,-1.644293,-2.095329,1.062880,-2.344251,-0.582682,1.241617,-1.439850,-1.388609,-2.657274,0.077558,0.205698,-0.509149,0.560758,-0.583881,-0.067319
4139.586000,2.104000,START d_to_a,Transition,1,D-G,1.094958,0.339353,0.638317,0.144904,-1.642572,-2.099874,1.068451,-2.343585,-0.580920,1.237335,-1.435037,-1.393650,-2.657863,0.087567,0.227183,-0.564217,0.623328,-0.652942,-0.077812
4139.594000,2.112000,START d_to_a,Transition,1,D-G,1.086958,0.339420,0.639146,0.144807,-1.640658,-2.104922,1.074411,-2.342851,-0.579022,1.232593,-1.429791,-1.399164,-2.658524,0.096259,0.249103,-0.624572,0.684442,-0.719461,-0.082623
4139.602000,2.120000,START d_to_a,Transition,1,D-G,1.078958,0.339497,0.640077,0.144728,-1.638592,-2.110444,1.080991,-2.342032,-0.576937,1.227296,-1.423943,-1.405227,-2.659178,0.106204,0.271079,-0.683528,0.748574,-0.784221,-0.088223
4139.610000,2.128000,START d_to_a,Transition,1,D-G,1.070958,0.339602,0.641086,0.144672,-1.636323,-2.116605,1.087950,-2.341163,-0.574666,1.221456,-1.417676,-1.411883,-2.659923,0.114701,0.298144,-0.740136,0.814118,-0.843449,-0.093965
4139.618000,2.136000,START d_to_a,Transition,1,D-G,1.062958,0.339679,0.642165,0.144625,-1.633769,-2.123086,1.095658,-2.340197,-0.572272,1.215244,-1.410779,-1.418976,-2.660704,0.124746,0.319292,-0.801816,0.872537,-0.908151,-0.096597
4139.626000,2.144000,START d_to_a,Transition,1,D-G,1.054958,0.339775,0.643321,0.144546,-1.631215,-2.129728,1.103371,-2.339179,-0.569654,1.208648,-1.403794,-1.426177,-2.661417,0.135006,0.343294,-0.838176,0.884445,-0.890122,-0.088349
4139.634000,2.152000,START d_to_a,Transition,1,D-G,1.046958,0.339836,0.644560,0.144429,-1.628495,-2.136400,1.111216,-2.338042,-0.566837,1.201760,-1.396639,-1.433339,-2.662111,0.140019,0.360924,-0.882945,0.908716,-0.894697,-0.081235
4139.642000,2.160000,START d_to_a,Transition,1,D-G,1.038958,0.339933,0.645866,0.144271,-1.625747,-2.143015,1.119315,-2.336884,-0.563784,1.194483,-1.389185,-1.440555,-2.662725,0.148776,0.389115,-0.923487,0.930712,-0.891923,-0.074221
4139.650000,2.168000,START d_to_a,Transition,1,D-G,1.030958,0.340013,0.647272,0.144089,-1.622900,-2.149664,1.127355,-2.335611,-0.560502,1.186817,-1.381620,-1.447676,-2.663298,0.159587,0.414915,-0.966333,0.945314,-0.889404,-0.064725
4139.658000,2.176000,START d_to_a,Transition,1,D-G,1.022958,0.340085,0.648734,0.143893,-1.620117,-2.156270,1.135337,-2.334286,-0.557093,1.178941,-1.374031,-1.454729,-2.663750,0.166225,0.433197,-1.008214,0.964584,-0.882950,-0.054370
4139.666000,2.184000,START d_to_a,Transition,1,D-G,1.014958,0.340186,0.650253,0.143665,-1.617260,-2.162893,1.143394,-2.332937,-0.553468,1.170707,-1.366264,-1.461805,-2.664184,0.176198,0.454279,-1.056250,0.988351,-0.882747,-0.048407
4139.674000,2.192000,START d_to_a,Transition,1,D-G,1.006958,0.340306,0.651848,0.143455,-1.614307,-2.169377,1.151761,-2.331539,-0.549679,1.162061,-1.358032,-1.468853,-2.664554,0.180603,0.480773,-1.098339,1.018163,-0.876118,-0.041423
4139.682000,2.200000,START d_to_a,Transition,1,D-G,0.998958,0.340433,0.653543,0.143242,-1.611428,-2.175982,1.159787,-2.330062,-0.545666,1.152981,-1.349857,-1.475825,-2.664834,0.184761,0.504500,-1.147474,1.032214,-0.866558,-0.034005
4139.690000,2.208000,START d_to_a,Transition,1,D-G,0.990958,0.340549,0.655307,0.143112,-1.608500,-2.182646,1.167711,-2.328511,-0.541616,1.143587,-1.341490,-1.482745,-2.665077,0.194692,0.525255,-1.197109,1.058284,-0.862556,-0.027653
4139.698000,2.216000,START d_to_a,Transition,1,D-G,0.982958,0.340685,0.657134,0.142931,-1.605566,-2.189238,1.175784,-2.326929,-0.537319,1.133823,-1.332909,-1.489659,-2.665233,0.200879,0.552130,-1.248900,1.080789,-0.858402,-0.019420
4139.706000,2.224000,START d_to_a,Transition,1,D-G,0.974958,0.340857,0.659068,0.142750,-1.602621,-2.195864,1.183576,-2.325289,-0.532732,1.123484,-1.324223,-1.496443,-2.665365,0.208067,0.582882,-1.300626,1.109604,-0.849823,-0.011791
4139.714000,2.232000,START d_to_a,Transition,1,D-G,0.966958,0.341023,0.661026,0.142542,-1.599549,-2.202307,1.191871,-2.323627,-0.528020,1.112939,-1.315104,-1.503261,-2.665436,0.204641,0.590162,-1.327316,1.131046,-0.853137,-0.006159
4139.722000,2.240000,START d_to_a,Transition,1,D-G,0.958958,0.341165,0.663010,0.142365,-1.596516,-2.208916,1.199855,-2.321924,-0.523275,1.102260,-1.306133,-1.510067,-2.665472,0.205411,0.588871,-1.341605,1.128249,-0.853368,-0.003729
4139.730000,2.248000,START d_to_a,Transition,1,D-G,0.950958,0.341290,0.665012,0.142148,-1.593363,-2.215420,1.208040,-2.320192,-0.518400,1.091435,-1.296986,-1.516836,-2.665493,0.214700,0.606181,-1.351227,1.135351,-0.849018,-0.001947
4139.738000,2.256000,START d_to_a,Transition,1,D-G,0.942958,0.341440,0.666974,0.141924,-1.590221,-2.221954,1.216227,-2.318526,-0.513507,1.080594,-1.287862,-1.523692,-2.665508,0.210795,0.612246,-1.367664,1.143458,-0.850744,-0.000999
4139.746000,2.264000,START d_to_a,Transition,1,D-G,0.934958,0.341580,0.668943,0.141742,-1.587061,-2.228410,1.224367,-2.316850,-0.508618,1.069658,-1.278649,-1.530464,-2.665493,0.209426,0.619178,-1.380262,1.153113,-0.851713,-0.000573
4139.754000,2.272000,START d_to_a,Transition,1,D-G,0.926958,0.341759,0.670925,0.141545,-1.583907,-2.235032,1.232236,-2.315204,-0.503570,1.058457,-1.269543,-1.537285,-2.665508,0.207176,0.634322,-1.398381,1.157173,-0.850082,-0.000152
4139.762000,2.280000,START d_to_a,Transition,1,D-G,0.918958,0.341904,0.672916,0.141379,-1.580667,-2.241579,1.240427,-2.313524,-0.498525,1.047156,-1.260126,-1.544150,-2.665458,0.212179,0.639631,-1.413097,1.175682,-0.849699,-0.000000
4139.770000,2.288000,START d_to_a,Transition,1,D-G,0.910958,0.342103,0.674829,0.141151,-1.577363,-2.248025,1.248591,-2.311966,-0.493416,1.035929,-1.250826,-1.551010,-2.665489,0.189248,0.615263,-1.382513,1.161050,-0.857414,-0.000831
4139.778000,2.296000,START d_to_a,Transition,1,D-G,0.902958,0.342253,0.676672,0.140923,-1.574047,-2.254395,1.256795,-2.310429,-0.488455,1.025028,-1.241669,-1.557851,-2.665489,0.192480,0.609583,-1.354069,1.147230,-0.858426,-0.006818
4139.786000,2.304000,START d_to_a,Transition,1,D-G,0.894958,0.342341,0.678434,0.140721,-1.570420,-2.260790,1.265371,-2.308897,-0.483673,1.014429,-1.232382,-1.564821,-2.665592,0.184625,0.593696,-1.325274,1.140501,-0.865579,-0.012469
4139.794000,2.312000,START d_to_a,Transition,1,D-G,0.886958,0.342469,0.680155,0.140593,-1.566925,-2.267346,1.273385,-2.307439,-0.478983,1.003847,-1.223419,-1.571770,-2.665727,0.180241,0.579859,-1.298869,1.120198,-0.871632,-0.016329
4139.802000,2.320000,START d_to_a,Transition,1,D-G,0.878958,0.342598,0.681779,0.140492,-1.563485,-2.273842,1.281290,-2.306073,-0.474487,0.993611,-1.214674,-1.578716,-2.665859,0.170745,0.570931,-1.270545,1.103734,-0.875443,-0.016516
4139.810000,2.328000,START d_to_a,Transition,1,D-G,0.870958,0.342674,0.683343,0.140333,-1.559952,-2.280335,1.289467,-2.304712,-0.470039,0.983640,-1.205989,-1.585774,-2.665959,0.163165,0.551354,-1.244254,1.089190,-0.886457,-0.014728
4139.818000,2.336000,START d_to_a,Transition,1,D-G,0.862958,0.342801,0.684826,0.140201,-1.556476,-2.286687,1.297489,-2.303473,-0.465700,0.973844,-1.197437,-1.592768,-2.666082,0.154969,0.533901,-1.190076,1.042461,-0.833368,-0.010840
4139.826000,2.344000,START d_to_a,Transition,1,D-G,0.854958,0.342891,0.686250,0.139995,-1.553117,-2.292480,1.305157,-2.302257,-0.461439,0.964507,-1.189319,-1.599206,-2.666155,0.145231,0.508823,-1.142874,0.993007,-0.798433,-0.009058
4139.834000,2.352000,START d_to_a,Transition,1,D-G,0.846958,0.342916,0.687592,0.139828,-1.549797,-2.298118,1.312569,-2.301050,-0.457465,0.955707,-1.181558,-1.605430,-2.666222,0.139404,0.484801,-1.090718,0.949650,-0.757659,-0.002888
4139.842000,2.360000,START d_to_a,Transition,1,D-G,0.838958,0.342959,0.688864,0.139699,-1.546773,-2.303388,1.319403,-2.299933,-0.453699,0.947296,-1.174245,-1.611240,-2.666225,0.133798,0.464069,-1.035738,0.896796,-0.713090,-0.001291
4139.850000,2.368000,START d_to_a,Transition,1,D-G,0.830958,0.343037,0.690059,0.139588,-1.543972,-2.308305,1.325800,-2.298923,-0.450094,0.939231,-1.167297,-1.616706,-2.666203,0.123317,0.442079,-0.977387,0.848554,-0.669506,-0.000608
4139.858000,2.376000,START d_to_a,Transition,1,D-G,0.822958,0.343130,0.691149,0.139497,-1.541253,-2.313000,1.331777,-2.298015,-0.446728,0.931669,-1.160795,-1.621908,-2.666253,0.111884,0.413989,-0.923582,0.794943,-0.629014,-0.000395
4139.866000,2.384000,START d_to_a,Transition,1,D-G,0.814958,0.343193,0.692182,0.139423,-1.538773,-2.317339,1.337258,-2.297137,-0.443581,0.924579,-1.154756,-1.626680,-2.666241,0.105228,0.387317,-0.865966,0.741512,-0.584361,-0.000292
4139.874000,2.392000,START d_to_a,Transition,1,D-G,0.806958,0.343281,0.693131,0.139337,-1.536513,-2.321307,1.342295,-2.296362,-0.440605,0.917940,-1.149168,-1.631080,-2.666218,0.095366,0.361720,-0.808232,0.689514,-0.542718,-0.000232
4139.882000,2.400000,START d_to_a,Transition,1,D-G,0.798958,0.343333,0.694016,0.139241,-1.534203,-2.324995,1.347203,-2.295604,-0.437797,0.911733,-1.143821,-1.635206,-2.666249,0.087970,0.336339,-0.745667,0.637084,-0.496666,-0.000154
4139.890000,2.408000,START d_to_a,Transition,1,D-G,0.790958,0.343407,0.694816,0.139126,-1.532221,-2.328321,1.351687,-2.294951,-0.435181,0.906020,-1.138959,-1.639001,-2.666199,0.081698,0.314521,-0.682883,0.581928,-0.449468,-0.000099
4139.898000,2.416000,START d_to_a,Transition,1,D-G,0.782958,0.343440,0.695542,0.139040,-1.530284,-2.331437,1.355711,-2.294320,-0.432840,0.900868,-1.134577,-1.642448,-2.666225,0.074233,0.280983,-0.618562,0.522185,-0.406125,0.000065
4139.906000,2.424000,START d_to_a,Transition,1,D-G,0.774958,0.343483,0.696191,0.138961,-1.528578,-2.334120,1.359275,-2.293768,-0.430722,0.896227,-1.130644,-1.645449,-2.666237,0.063608,0.249902,-0.555366,0.469006,-0.365859,0.000100
4139.914000,2.432000,START d_to_a,Transition,1,D-G,0.766958,0.343532,0.696758,0.138903,-1.527133,-2.336496,1.362327,-2.293300,-0.428867,0.892131,-1.127224,-1.648091,-2.666234,0.055952,0.218931,-0.492276,0.411578,-0.321320,0.000127
4139.922000,2.440000,START d_to_a,Transition,1,D-G,0.758958,0.343544,0.697257,0.138824,-1.525784,-2.338559,1.365198,-2.292858,-0.427223,0.888569,-1.124146,-1.650440,-2.666214,0.047848,0.187695,-0.423418,0.359583,-0.277191,0.000317
4139.930000,2.448000,START d_to_a,Transition,1,D-G,0.750958,0.343601,0.697668,0.138804,-1.524722,-2.340400,1.367379,-2.292538,-0.425856,0.885487,-1.121630,-1.652451,-2.666234,0.039952,0.159677,-0.359712,0.301416,-0.232437,0.000297
4139.938000,2.456000,START d_to_a,Transition,1,D-G,0.742958,0.343639,0.698014,0.138787,-1.523834,-2.341893,1.369268,-2.292261,-0.424720,0.882922,-1.119482,-1.654117,-2.666225,0.033691,0.131632,-0.290700,0.246291,-0.187468,0.000244
4139.946000,2.464000,START d_to_a,Transition,1,D-G,0.734958,0.343644,0.698295,0.138736,-1.523092,-2.343098,1.370790,-2.292010,-0.423781,0.880913,-1.117829,-1.655436,-2.666218,0.026234,0.100681,-0.225884,0.187455,-0.145438,0.000207
4139.954000,2.472000,START d_to_a,Transition,1,D-G,0.726958,0.343653,0.698503,0.138715,-1.522544,-2.343917,1.371896,-2.291830,-0.423102,0.879422,-1.116574,-1.656349,-2.666218,0.018198,0.069897,-0.152897,0.128776,-0.100978,0.000179
4139.962000,2.480000,START d_to_a,Transition,1,D-G,0.718958,0.343676,0.698619,0.138726,-1.522247,-2.344439,1.372504,-2.291745,-0.422725,0.878523,-1.115831,-1.656920,-2.666225,0.010871,0.035763,-0.084255,0.071172,-0.056631,0.000158
4139.970000,2.488000,START a_bow,Transition,0,D-G,0.710958,0.343680,0.698661,0.138731,-1.522100,-2.344704,1.372783,-2.291709,-0.422584,0.878179,-1.115534,-1.657203,-2.666237,0.000017,0.005123,-0.015637,0.015413,-0.015014,0.000142
4139.978000,2.496000,START a_bow,Transition,0,D-G,0.702958,0.343643,0.698689,0.138756,-1.522072,-2.344664,1.372776,-2.291650,-0.422605,0.878159,-1.115477,-1.657117,-2.666222,0.020632,0.024221,-0.039000,0.008583,0.002289,0.000171
4139.986000,2.504000,START a_bow,Transition,0,D-G,0.694958,0.343672,0.698755,0.138757,-1.522232,-2.344824,1.372441,-2.291625,-0.422425,0.877784,-1.115538,-1.657105,-2.666182,0.011571,0.023089,-0.041430,0.006190,0.006048,0.006957
4139.994000,2.512000,START a_bow,Transition,0,D-G,0.686958,0.343661,0.698825,0.138785,-1.522287,-2.344765,1.372485,-2.291561,-0.422325,0.877485,-1.115304,-1.657038,-2.666095,0.014622,0.023315,-0.042539,0.022661,0.010751,0.012605
4140.002000,2.520000,START a_bow,Transition,0,D-G,0.678958,0.343612,0.698939,0.138798,-1.522338,-2.344859,1.372364,-2.291422,-0.422145,0.877068,-1.115164,-1.656959,-2.666007,0.016766,0.028508,-0.055442,0.016170,0.010010,0.016287
4140.010000,2.528000,START a_bow,Transition,0,D-G,0.670958,0.343580,0.699073,0.138788,-1.522417,-2.344994,1.372256,-2.291284,-0.421867,0.876502,-1.114982,-1.656926,-2.665896,0.019636,0.035477,-0.065028,0.019390,0.011875,0.014426
4140.018000,2.536000,START a_bow,Transition,0,D-G,0.662958,0.343537,0.699207,0.138742,-1.522472,-2.345031,1.372187,-2.291135,-0.421555,0.875972,-1.114814,-1.656818,-2.665784,0.022632,0.044999,-0.077069,0.025015,0.015503,0.016223
4140.026000,2.544000,START a_bow,Transition,0,D-G,0.654958,0.343459,0.699398,0.138703,-1.522515,-2.345199,1.372033,-2.290903,-0.421160,0.875251,-1.114619,-1.656711,-2.665653,0.028773,0.054392,-0.089123,0.028478,0.018955,0.020425
4140.034000,2.552000,START a_bow,Transition,0,D-G,0.646958,0.343359,0.699604,0.138591,-1.522504,-2.345209,1.372038,-2.290640,-0.420665,0.874525,-1.114372,-1.656513,-2.665497,0.034796,0.061835,-0.100506,0.033508,0.025531,0.022545
4140.042000,2.560000,START a_bow,Transition,0,D-G,0.638958,0.343230,0.699847,0.138461,-1.522494,-2.345292,1.372057,-2.290320,-0.420095,0.873685,-1.114099,-1.656334,-2.665303,0.039804,0.069503,-0.111039,0.036137,0.028560,0.025965
4140.050000,2.568000,START a_bow,Transition,0,D-G,0.630958,0.343077,0.700116,0.138306,-1.522438,-2.345284,1.372140,-2.289953,-0.419460,0.872784,-1.113756,-1.656067,-2.665095,0.043569,0.079785,-0.122214,0.042756,0.032608,0.028491
4140.058000,2.576000,START a_bow,Transition,0,D-G,0.622958,0.342953,0.700393,0.138111,-1.522424,-2.345226,1.372261,-2.289613,-0.418719,0.871769,-1.113379,-1.655804,-2.664864,0.046751,0.090932,-0.131922,0.045629,0.036628,0.031869
4140.066000,2.584000,START a_bow,Transition,0,D-G,0.614958,0.342818,0.700700,0.137968,-1.522491,-2.345238,1.372221,-2.289238,-0.417999,0.870654,-1.113000,-1.655514,-2.664597,0.049739,0.094681,-0.145183,0.048848,0.040876,0.035963
4140.074000,2.592000,START a_bow,Transition,0,D-G,0.606958,0.342666,0.701042,0.137821,-1.522565,-2.345255,1.372167,-2.288818,-0.417217,0.869418,-1.112571,-1.655188,-2.664302,0.053643,0.102614,-0.158144,0.052174,0.045544,0.038235
4140.082000,2.600000,START a_bow,Transition,0,D-G,0.598958,0.342499,0.701425,0.137684,-1.522742,-2.345330,1.371988,-2.288356,-0.416383,0.868039,-1.112152,-1.654838,-2.663942,0.057435,0.108940,-0.172130,0.055212,0.047581,0.041767
4140.090000,2.608000,START a_bow,Transition,0,D-G,0.590958,0.342355,0.701800,0.137563,-1.522823,-2.345392,1.371793,-2.287916,-0.415544,0.866622,-1.111690,-1.654471,-2.663665,0.061036,0.115009,-0.185408,0.061713,0.051068,0.042783
4140.098000,2.616000,START a_bow,Transition,0,D-G,0.582958,0.342184,0.702215,0.137409,-1.522940,-2.345435,1.371706,-2.287421,-0.414606,0.865074,-1.111135,-1.654100,-2.663303,0.065426,0.125251,-0.200189,0.066936,0.054563,0.048454
4140.106000,2.624000,START a_bow,Transition,0,D-G,0.574958,0.341976,0.702674,0.137266,-1.523037,-2.345449,1.371513,-2.286855,-0.413631,0.863431,-1.110562,-1.653600,-2.662936,0.071399,0.130970,-0.210648,0.070502,0.056889,0.051745
4140.114000,2.632000,START a_bow,Transition,0,D-G,0.566958,0.341729,0.703167,0.137069,-1.523141,-2.345583,1.371384,-2.286224,-0.412549,0.861697,-1.110008,-1.653173,-2.662510,0.078215,0.141476,-0.224283,0.076293,0.059328,0.054657
4140.122000,2.640000,START a_bow,Transition,0,D-G,0.558958,0.341488,0.703689,0.136862,-1.523223,-2.345655,1.371203,-2.285574,-0.411371,0.859807,-1.109395,-1.652656,-2.662099,0.079711,0.149527,-0.240156,0.079506,0.064159,0.057653
4140.130000,2.648000,START a_bow,Transition,0,D-G,0.550958,0.341250,0.704218,0.136591,-1.523423,-2.345573,1.371190,-2.284933,-0.410110,0.857897,-1.108730,-1.652119,-2.661570,0.085682,0.157838,-0.252388,0.084665,0.066944,0.061862
4140.138000,2.656000,START a_bow,Transition,0,D-G,0.542958,0.340986,0.704789,0.136308,-1.523457,-2.345606,1.371134,-2.284223,-0.408737,0.855802,-1.108018,-1.651569,-2.661123,0.088430,0.171299,-0.264210,0.091636,0.072581,0.063653
4140.146000,2.664000,START a_bow,Transition,0,D-G,0.534958,0.340692,0.705390,0.136023,-1.523539,-2.345605,1.371082,-2.283464,-0.407336,0.853649,-1.107270,-1.650965,-2.660613,0.095098,0.178204,-0.278702,0.095224,0.074333,0.065157
4140.154000,2.672000,START a_bow,Transition,0,D-G,0.526958,0.340423,0.706014,0.135726,-1.523687,-2.345617,1.370994,-2.282713,-0.405831,0.851306,-1.106471,-1.650375,-2.660071,0.100041,0.190260,-0.290548,0.097093,0.077265,0.067560
4140.162000,2.680000,START a_bow,Transition,0,D-G,0.518958,0.340123,0.706677,0.135451,-1.523812,-2.345710,1.370799,-2.281898,-0.404295,0.848843,-1.105659,-1.649747,-2.659533,0.103374,0.197248,-0.307804,0.102903,0.081107,0.070726
4140.170000,2.688000,START a_bow,Transition,0,D-G,0.510958,0.339817,0.707355,0.135142,-1.523968,-2.345739,1.370706,-2.281071,-0.402690,0.846317,-1.104784,-1.649109,-2.658940,0.107466,0.205326,-0.319820,0.109079,0.086030,0.074731
4140.178000,2.696000,START a_bow,Transition,0,D-G,0.502958,0.339499,0.708068,0.134836,-1.524102,-2.345821,1.370461,-2.280201,-0.401009,0.843642,-1.103928,-1.648409,-2.658374,0.112926,0.211302,-0.336473,0.111618,0.085794,0.075318
4140.186000,2.704000,START a_bow,Transition,0,D-G,0.494958,0.339155,0.708804,0.134493,-1.524283,-2.345824,1.370356,-2.279295,-0.399268,0.840925,-1.102996,-1.647689,-2.657717,0.115650,0.217955,-0.350560,0.121308,0.088168,0.079295
4140.194000,2.712000,START a_bow,Transition,0,D-G,0.486958,0.338825,0.709561,0.134166,-1.524496,-2.345858,1.370228,-2.278387,-0.397471,0.838040,-1.101981,-1.646988,-2.657044,0.119888,0.226010,-0.369173,0.123176,0.092178,0.084018
4140.202000,2.720000,START a_bow,Transition,0,D-G,0.478958,0.338458,0.710357,0.133836,-1.524650,-2.345948,1.370058,-2.277408,-0.395610,0.835037,-1.100939,-1.646247,-2.656379,0.122953,0.235510,-0.383829,0.129383,0.094202,0.086010
4140.210000,2.728000,START a_bow,Transition,0,D-G,0.470958,0.338076,0.711184,0.133489,-1.524823,-2.346005,1.369921,-2.276395,-0.393669,0.831908,-1.099825,-1.645471,-2.655670,0.128600,0.242771,-0.398520,0.136129,0.099584,0.088255
4140.218000,2.736000,START a_bow,Transition,0,D-G,0.462958,0.337687,0.712039,0.133153,-1.525062,-2.346140,1.369594,-2.275353,-0.391685,0.828662,-1.098774,-1.644664,-2.654945,0.132512,0.255619,-0.415626,0.140105,0.100451,0.092503
4140.226000,2.744000,START a_bow,Transition,0,D-G,0.454958,0.337294,0.712917,0.132794,-1.525267,-2.346202,1.369325,-2.274290,-0.389609,0.825288,-1.097628,-1.643801,-2.654216,0.135689,0.262191,-0.432204,0.145837,0.104360,0.094404
4140.234000,2.752000,START a_bow,Transition,0,D-G,0.446958,0.336856,0.713838,0.132438,-1.525413,-2.346398,1.369072,-2.273148,-0.387468,0.821763,-1.096413,-1.642980,-2.653475,0.142269,0.274048,-0.448436,0.154345,0.105849,0.096850
4140.242000,2.760000,START a_bow,Transition,0,D-G,0.438958,0.336418,0.714796,0.132096,-1.525653,-2.346591,1.368708,-2.271982,-0.385261,0.818058,-1.095160,-1.642108,-2.652681,0.143973,0.284736,-0.463239,0.157753,0.109468,0.100281
4140.250000,2.768000,START a_bow,Transition,0,D-G,0.430958,0.335949,0.715773,0.131718,-1.525805,-2.346763,1.368509,-2.270771,-0.382977,0.814289,-1.093807,-1.641240,-2.651880,0.150053,0.295117,-0.477871,0.166824,0.116423,0.102539
4140.258000,2.776000,START a_bow,Transition,0,D-G,0.422958,0.335507,0.716774,0.131354,-1.526113,-2.346940,1.368043,-2.269571,-0.380629,0.810349,-1.092522,-1.640297,-2.651043,0.151455,0.303991,-0.494470,0.168252,0.116247,0.103316
4140.266000,2.784000,START a_bow,Transition,0,D-G,0.414958,0.335022,0.717805,0.130960,-1.526289,-2.347111,1.367766,-2.268306,-0.378190,0.806300,-1.091089,-1.639357,-2.650210,0.155103,0.312092,-0.512306,0.180967,0.119444,0.108528
4140.274000,2.792000,START a_bow,Transition,0,D-G,0.406958,0.334535,0.718864,0.130528,-1.526525,-2.347249,1.367426,-2.267021,-0.375634,0.802110,-1.089666,-1.638359,-2.649337,0.157416,0.322147,-0.533127,0.183272,0.121808,0.109106
4140.282000,2.800000,START a_bow,Transition,0,D-G,0.398958,0.334037,0.719940,0.130082,-1.526728,-2.347376,1.367243,-2.265714,-0.373010,0.797802,-1.088099,-1.637399,-2.648437,0.164076,0.334739,-0.549532,0.191792,0.124695,0.112988
4140.290000,2.808000,START a_bow,Transition,0,D-G,0.390958,0.333534,0.721042,0.129598,-1.526940,-2.347492,1.366977,-2.264384,-0.370263,0.793348,-1.086553,-1.636375,-2.647536,0.167191,0.344125,-0.564875,0.199331,0.126416,0.116518
4140.298000,2.816000,START a_bow,Transition,0,D-G,0.382958,0.333029,0.722154,0.129071,-1.527159,-2.347524,1.366860,-2.263050,-0.367424,0.788806,-1.084906,-1.635349,-2.646591,0.158157,0.340516,-0.566304,0.202396,0.125753,0.116981
4140.306000,2.824000,START a_bow,Transition,0,D-G,0.374958,0.332567,0.723252,0.128592,-1.527461,-2.347573,1.366561,-2.261772,-0.364623,0.784219,-1.083297,-1.634317,-2.645665,0.165932,0.346592,-0.569653,0.206240,0.126863,0.113234
4140.314000,2.832000,START a_bow,Transition,0,D-G,0.366958,0.332055,0.724375,0.128114,-1.527747,-2.347734,1.366260,-2.260426,-0.361808,0.779589,-1.081690,-1.633319,-2.644711,0.165404,0.350730,-0.574140,0.204841,0.127597,0.115423
4140.322000,2.840000,START a_bow,Transition,0,D-G,0.358958,0.331564,0.725475,0.127650,-1.528013,-2.347809,1.365973,-2.259120,-0.359025,0.774996,-1.080053,-1.632285,-2.643791,0.165301,0.350461,-0.580988,0.208197,0.125730,0.113671
4140.330000,2.848000,START a_bow,Transition,0,D-G,0.350958,0.331074,0.726571,0.127159,-1.528215,-2.347866,1.365763,-2.257817,-0.356190,0.770368,-1.078375,-1.631262,-2.642898,0.163645,0.353182,-0.585802,0.210807,0.125679,0.116830
4140.338000,2.856000,START a_bow,Transition,0,D-G,0.342958,0.330556,0.727672,0.126699,-1.528421,-2.347978,1.365572,-2.256487,-0.353406,0.765751,-1.076664,-1.630270,-2.641981,0.164104,0.354910,-0.589730,0.212586,0.123815,0.114613
4140.346000,2.864000,START a_bow,Transition,0,D-G,0.334958,0.330038,0.728784,0.126233,-1.528640,-2.348129,1.365288,-2.255150,-0.350574,0.761051,-1.074983,-1.629267,-2.641072,0.162470,0.359342,-0.595014,0.215527,0.125403,0.114160
4140.354000,2.872000,START a_bow,Transition,0,D-G,0.326958,0.329563,0.729892,0.125805,-1.528922,-2.348284,1.364920,-2.253859,-0.347727,0.756217,-1.073243,-1.628280,-2.640168,0.166470,0.362127,-0.602349,0.219512,0.125917,0.114405
4140.362000,2.880000,START a_bow,Transition,0,D-G,0.318958,0.329059,0.731036,0.125414,-1.529239,-2.348493,1.364455,-2.252517,-0.344866,0.751249,-1.071457,-1.627262,-2.639231,0.164473,0.360072,-0.605460,0.221109,0.127916,0.114598
4140.370000,2.888000,START a_bow,Transition,0,D-G,0.310958,0.328591,0.732149,0.125011,-1.529614,-2.348634,1.363981,-2.251238,-0.342013,0.746329,-1.069710,-1.626247,-2.638293,0.165590,0.361037,-0.609947,0.221622,0.128920,0.115666
4140.378000,2.896000,START a_bow,Transition,0,D-G,0.302958,0.328093,0.733256,0.124565,-1.529861,-2.348763,1.363699,-2.249932,-0.339122,0.741446,-1.067907,-1.625260,-2.637382,0.164112,0.362083,-0.617865,0.224266,0.126748,0.115135
4140.386000,2.904000,START a_bow,Transition,0,D-G,0.294958,0.327602,0.734372,0.124115,-1.530157,-2.348881,1.363315,-2.248630,-0.336184,0.736478,-1.066126,-1.624233,-2.636463,0.166204,0.361836,-0.622042,0.227531,0.124941,0.113623
4140.394000,2.912000,START a_bow,Transition,0,D-G,0.286958,0.327100,0.735468,0.123604,-1.530295,-2.348910,1.363239,-2.247332,-0.333195,0.731560,-1.064227,-1.623238,-2.635583,0.167012,0.367710,-0.626168,0.232727,0.125288,0.113324
4140.402000,2.920000,START a_bow,Transition,0,D-G,0.278958,0.326575,0.736585,0.123104,-1.530496,-2.348960,1.363197,-2.246002,-0.330181,0.726545,-1.062253,-1.622263,-2.634634,0.165334,0.372716,-0.627436,0.237242,0.123556,0.115620
4140.410000,2.928000,START a_bow,Transition,0,D-G,0.270958,0.326084,0.737706,0.122649,-1.530837,-2.349087,1.362782,-2.244704,-0.327175,0.721437,-1.060432,-1.621244,-2.633692,0.164603,0.380913,-0.633630,0.232940,0.124307,0.114520
4140.426000,2.944000,START a_bow,Transition,0,D-G,0.254958,0.325056,0.739933,0.121710,-1.531229,-2.349355,1.362222,-2.242071,-0.321119,0.711213,-1.056631,-1.619248,-2.631923,0.164577,0.382793,-0.646612,0.241177,0.123672,0.112508
4140.434000,2.952000,START a_bow,Transition,0,D-G,0.246958,0.324491,0.741070,0.121248,-1.531401,-2.349607,1.361991,-2.240690,-0.318069,0.706019,-1.054672,-1.618312,-2.631003,0.164773,0.383694,-0.655183,0.245227,0.123580,0.112329
4140.442000,2.960000,START a_bow,Transition,0,D-G,0.238958,0.323980,0.742187,0.120793,-1.531684,-2.349737,1.361665,-2.239383,-0.315008,0.700788,-1.052728,-1.617317,-2.630074,0.164828,0.387120,-0.660271,0.247628,0.123281,0.114871
4140.450000,2.968000,START a_bow,Transition,0,D-G,0.230958,0.323444,0.743322,0.120317,-1.531885,-2.349815,1.361437,-2.238037,-0.311874,0.695463,-1.050678,-1.616274,-2.629155,0.166140,0.388136,-0.665639,0.251499,0.122288,0.113496
4140.458000,2.976000,START a_bow,Transition,0,D-G,0.222958,0.322939,0.744447,0.119877,-1.532131,-2.350036,1.361016,-2.236730,-0.308744,0.690049,-1.048693,-1.615307,-2.628272,0.165001,0.392420,-0.672706,0.249840,0.122041,0.111792
4140.474000,2.992000,START a_bow,Transition,0,D-G,0.206958,0.321901,0.746695,0.119001,-1.532567,-2.350460,1.360270,-2.234095,-0.302467,0.679169,-1.044621,-1.613373,-2.626507,0.160992,0.391266,-0.685247,0.260633,0.124035,0.110835
4140.482000,3.000000,START a_bow,Transition,0,D-G,0.198958,0.321409,0.747799,0.118540,-1.532861,-2.350578,1.360012,-2.232828,-0.299291,0.673699,-1.042517,-1.612432,-2.625578,0.161775,0.398206,-0.690830,0.264624,0.125014,0.112186
4140.490000,3.008000,START a_bow,Transition,0,D-G,0.190958,0.320902,0.748916,0.118068,-1.533065,-2.350610,1.359806,-2.231535,-0.296056,0.668144,-1.040319,-1.611408,-2.624683,0.159596,0.402265,-0.699233,0.273791,0.120778,0.114864
4140.498000,3.016000,START a_bow,Transition,0,D-G,0.182958,0.320408,0.750027,0.117604,-1.533348,-2.350760,1.359480,-2.230264,-0.292807,0.662530,-1.038192,-1.610461,-2.623772,0.159399,0.407537,-0.705139,0.274574,0.120327,0.111990
4140.514000,3.032000,START a_bow,Transition,0,D-G,0.166958,0.319426,0.752242,0.116680,-1.533823,-2.351018,1.358885,-2.227732,-0.286234,0.651137,-1.033789,-1.608549,-2.622008,0.157277,0.417883,-0.716063,0.277850,0.121021,0.110916
4140.522000,3.040000,START a_bow,Transition,0,D-G,0.158958,0.318917,0.753354,0.116207,-1.534015,-2.351137,1.358591,-2.226446,-0.282904,0.645384,-1.031562,-1.607563,-2.621143,0.159101,0.418845,-0.725127,0.282764,0.119753,0.113372
4140.530000,3.048000,START a_bow,Transition,0,D-G,0.150958,0.318410,0.754467,0.115760,-1.534294,-2.351258,1.358271,-2.225169,-0.279592,0.639585,-1.029303,-1.606592,-2.620230,0.159272,0.420031,-0.733018,0.286245,0.121909,0.111999
4140.538000,3.056000,START a_bow,Transition,0,D-G,0.142958,0.317901,0.755582,0.115276,-1.534562,-2.351355,1.358035,-2.223890,-0.276191,0.633694,-1.026986,-1.605633,-2.619304,0.163269,0.421888,-0.742345,0.288247,0.122091,0.114637
4140.546000,3.064000,START a_bow,Transition,0,D-G,0.134958,0.317384,0.756714,0.114806,-1.534730,-2.351543,1.357702,-2.222586,-0.272718,0.627626,-1.024627,-1.604670,-2.618451,0.164172,0.423331,-0.750911,0.295448,0.119154,0.111265
4140.562000,3.080000,START a_bow,Transition,0,D-G,0.118958,0.316370,0.758948,0.113910,-1.535227,-2.351759,1.357194,-2.220038,-0.265839,0.615491,-1.019739,-1.602760,-2.616639,0.159280,0.432581,-0.766027,0.308146,0.119058,0.111335
4140.578000,3.096000,START a_bow,Transition,0,D-G,0.102958,0.315409,0.761148,0.112990,-1.535774,-2.351891,1.356649,-2.217574,-0.258837,0.603159,-1.014790,-1.600843,-2.614850,0.157213,0.444346,-0.784465,0.314812,0.116447,0.111919
4140.586000,3.104000,START a_bow,Transition,0,G-C,1.094958,0.314919,0.762274,0.112608,-1.536131,-2.352119,1.356125,-2.216317,-0.255331,0.596772,-1.012298,-1.599911,-2.613936,0.156905,0.450772,-0.793102,0.320859,0.118595,0.111066
4140.594000,3.112000,START a_bow,Transition,0,G-C,1.086958,0.314432,0.763396,0.112161,-1.536432,-2.352247,1.355709,-2.215068,-0.251701,0.590304,-1.009752,-1.598937,-2.613041,0.157042,0.456697,-0.802042,0.321063,0.116475,0.110753
4140.602000,3.120000,START a_bow,Transition,0,G-C,1.078958,0.313909,0.764501,0.111645,-1.536552,-2.352274,1.355722,-2.213795,-0.248025,0.583907,-1.007027,-1.598005,-2.612167,0.161488,0.457775,-0.814784,0.331803,0.116185,0.110981
4140.610000,3.128000,START a_bow,Transition,0,G-C,1.070958,0.313381,0.765629,0.111175,-1.536795,-2.352522,1.355343,-2.212504,-0.244319,0.577330,-1.004452,-1.597102,-2.611277,0.159076,0.463162,-0.823786,0.330447,0.116346,0.110705
4140.618000,3.136000,START a_bow,Transition,0,G-C,1.062958,0.312890,0.766740,0.110718,-1.537101,-2.352658,1.354995,-2.211266,-0.240605,0.570701,-1.001797,-1.596175,-2.610370,0.161105,0.461558,-0.833460,0.337678,0.118150,0.112432
4140.626000,3.144000,START a_bow,Transition,0,G-C,1.054958,0.312358,0.767871,0.110231,-1.537242,-2.352810,1.354767,-2.209969,-0.236778,0.563916,-0.999008,-1.595231,-2.609515,0.162227,0.472838,-0.842961,0.344038,0.118586,0.111657
4140.634000,3.152000,START a_bow,Transition,0,G-C,1.046958,0.311849,0.768993,0.109810,-1.537543,-2.353046,1.354201,-2.208707,-0.233019,0.557110,-0.996371,-1.594277,-2.608641,0.159846,0.475396,-0.853551,0.346873,0.116338,0.110952
4140.642000,3.160000,START a_bow,Transition,0,G-C,1.038958,0.311303,0.770116,0.109348,-1.537696,-2.353091,1.354125,-2.207410,-0.229204,0.550272,-0.993407,-1.593314,-2.607746,0.158213,0.480695,-0.868494,0.361017,0.118172,0.108749
4140.650000,3.168000,START a_bow,Transition,0,G-C,1.030958,0.310795,0.771236,0.108964,-1.538012,-2.353318,1.353708,-2.206157,-0.225417,0.543290,-0.990539,-1.592426,-2.606835,0.155675,0.489773,-0.879594,0.364057,0.115985,0.110789
4140.658000,3.176000,START a_bow,Transition,0,G-C,1.022958,0.310303,0.772340,0.108489,-1.538240,-2.353416,1.353474,-2.204930,-0.221472,0.536215,-0.987585,-1.591511,-2.605964,0.143284,0.481990,-0.873227,0.366202,0.112968,0.106368
4140.666000,3.184000,START a_bow,Transition,0,G-C,1.014958,0.309823,0.773405,0.108001,-1.538469,-2.353499,1.353275,-2.203745,-0.217591,0.529308,-0.984714,-1.590631,-2.605110,0.145346,0.480951,-0.862521,0.358424,0.108664,0.105318
4140.674000,3.192000,START a_bow,Transition,0,G-C,1.006958,0.309316,0.774461,0.107532,-1.538634,-2.353605,1.353097,-2.202539,-0.213764,0.522468,-0.981840,-1.589749,-2.604284,0.145480,0.470851,-0.850425,0.356673,0.107425,0.103394
4140.682000,3.200000,START a_bow,Transition,0,G-C,0.998958,0.308865,0.775469,0.107058,-1.538834,-2.353715,1.352793,-2.201420,-0.209976,0.515734,-0.979112,-1.588894,-2.603512,0.141077,0.460122,-0.840719,0.346695,0.101611,0.100966
4140.690000,3.208000,START a_bow,Transition,0,G-C,0.990958,0.308364,0.776474,0.106618,-1.538997,-2.353765,1.352715,-2.200259,-0.206297,0.509125,-0.976250,-1.588043,-2.602694,0.136953,0.455944,-0.827493,0.350884,0.100258,0.096028
4140.698000,3.216000,START a_bow,Transition,0,G-C,0.982958,0.307935,0.777442,0.106221,-1.539207,-2.353870,1.352496,-2.199194,-0.202645,0.502459,-0.973409,-1.587264,-2.601930,0.132646,0.452231,-0.814814,0.345523,0.097154,0.092847
4140.706000,3.224000,START a_bow,Transition,0,G-C,0.974958,0.307506,0.778383,0.105854,-1.539435,-2.354035,1.352131,-2.198148,-0.199112,0.495972,-0.970729,-1.586493,-2.601196,0.127414,0.439743,-0.803631,0.341064,0.094349,0.090156
4140.714000,3.232000,START a_bow,Transition,0,G-C,0.966958,0.307143,0.779274,0.105541,-1.539736,-2.354096,1.351821,-2.197205,-0.195709,0.489615,-0.968004,-1.585754,-2.600465,0.120513,0.430121,-0.791448,0.338673,0.091422,0.088099
4140.722000,3.240000,START a_bow,Transition,0,G-C,0.958958,0.306742,0.780152,0.105194,-1.539946,-2.354234,1.351505,-2.196231,-0.192334,0.483407,-0.965409,-1.585034,-2.599777,0.116826,0.426852,-0.779324,0.330775,0.091347,0.084423
4140.730000,3.248000,START a_bow,Transition,0,G-C,0.950958,0.306377,0.780987,0.104818,-1.540124,-2.354228,1.351465,-2.195324,-0.188972,0.477294,-0.962698,-1.584354,-2.599099,0.113465,0.414915,-0.762876,0.327333,0.084926,0.081185
4140.738000,3.256000,START a_bow,Transition,0,G-C,0.942958,0.305962,0.781836,0.104462,-1.540266,-2.354447,1.351113,-2.194355,-0.185632,0.471192,-0.960206,-1.583675,-2.598468,0.111629,0.408575,-0.746373,0.319682,0.080441,0.079747
4140.746000,3.264000,START a_bow,Transition,0,G-C,0.934958,0.305606,0.782626,0.104127,-1.540452,-2.354508,1.351006,-2.193487,-0.182429,0.465306,-0.957621,-1.583055,-2.597821,0.109891,0.396699,-0.729885,0.314757,0.080685,0.076203
4140.754000,3.272000,START a_bow,Transition,0,G-C,0.926958,0.305241,0.783406,0.103798,-1.540605,-2.354624,1.350771,-2.192618,-0.179257,0.459482,-0.955148,-1.582420,-2.597221,0.103784,0.385798,-0.718063,0.308451,0.077094,0.071452
4140.762000,3.280000,START a_bow,Transition,0,G-C,0.918958,0.304915,0.784141,0.103502,-1.540758,-2.354694,1.350598,-2.191815,-0.176219,0.453849,-0.952687,-1.581824,-2.596650,0.101371,0.373579,-0.699738,0.301397,0.072717,0.071507
4140.770000,3.288000,START a_bow,Transition,0,G-C,0.910958,0.304586,0.784851,0.103211,-1.540875,-2.354726,1.350485,-2.191028,-0.173271,0.448394,-0.950266,-1.581226,-2.596103,0.098084,0.366039,-0.680170,0.298205,0.071518,0.066692
4140.778000,3.296000,START a_bow,Transition,0,G-C,0.902958,0.304273,0.785545,0.102950,-1.541037,-2.354879,1.350187,-2.190267,-0.170378,0.442982,-0.947973,-1.580682,-2.595575,0.091266,0.356625,-0.664021,0.286011,0.066838,0.064047
4140.786000,3.304000,START a_bow,Transition,0,G-C,0.894958,0.304014,0.786184,0.102659,-1.541205,-2.354899,1.350059,-2.189598,-0.167549,0.437775,-0.945696,-1.580170,-2.595069,0.088275,0.345313,-0.642626,0.280067,0.064113,0.064694
4140.794000,3.312000,START a_bow,Transition,0,G-C,0.886958,0.303708,0.786823,0.102420,-1.541330,-2.355032,1.349829,-2.188881,-0.164860,0.432734,-0.943523,-1.579663,-2.594581,0.082756,0.336385,-0.619772,0.270002,0.062575,0.061572
4140.802000,3.320000,START a_bow,Transition,0,G-C,0.878958,0.303451,0.787408,0.102166,-1.541400,-2.354979,1.349886,-2.188249,-0.162262,0.427914,-0.941263,-1.579175,-2.594129,0.081254,0.325172,-0.599588,0.262098,0.058921,0.057678
4140.810000,3.328000,START a_bow,Transition,0,G-C,0.870958,0.303199,0.787980,0.101911,-1.541599,-2.355057,1.349643,-2.187633,-0.159720,0.423224,-0.939300,-1.578711,-2.593655,0.077203,0.313219,-0.578093,0.250259,0.056026,0.054533
4140.818000,3.336000,START a_bow,Transition,0,G-C,0.862958,0.302930,0.788537,0.101718,-1.541708,-2.355176,1.349453,-2.187007,-0.157326,0.418683,-0.937305,-1.578276,-2.593227,0.073706,0.298491,-0.558408,0.244497,0.054483,0.055025
4140.826000,3.344000,START a_bow,Transition,0,G-C,0.854958,0.302697,0.789051,0.101502,-1.541801,-2.355268,1.349317,-2.186445,-0.155000,0.414345,-0.935404,-1.577887,-2.592839,0.072226,0.283874,-0.535476,0.233953,0.050920,0.050987
4140.834000,3.352000,START a_bow,Transition,0,G-C,0.846958,0.302456,0.789554,0.101311,-1.541945,-2.355371,1.349126,-2.185885,-0.152780,0.410160,-0.933594,-1.577497,-2.592428,0.066444,0.273813,-0.511061,0.225760,0.047581,0.046992
4140.842000,3.360000,START a_bow,Transition,0,G-C,0.838958,0.302256,0.790012,0.101093,-1.542030,-2.355364,1.349082,-2.185394,-0.150623,0.406184,-0.931809,-1.577117,-2.592072,0.062359,0.259609,-0.485254,0.216479,0.044561,0.044069
4140.850000,3.368000,START a_bow,Transition,0,G-C,0.830958,0.302071,0.790446,0.100936,-1.542141,-2.355460,1.348851,-2.184931,-0.148627,0.402392,-0.930183,-1.576773,-2.591752,0.057874,0.244312,-0.460432,0.204844,0.043546,0.041680
4140.858000,3.376000,START a_bow,Transition,0,G-C,0.822958,0.301882,0.790854,0.100760,-1.542231,-2.355502,1.348715,-2.184482,-0.146726,0.398852,-0.928644,-1.576430,-2.591437,0.054317,0.227355,-0.432786,0.192163,0.040863,0.038048
4140.866000,3.384000,START a_bow,Transition,0,G-C,0.814958,0.301680,0.791234,0.100547,-1.542244,-2.355512,1.348792,-2.184040,-0.144907,0.395565,-0.927136,-1.576134,-2.591138,0.050598,0.217351,-0.405071,0.179698,0.036200,0.033565
4140.874000,3.392000,START a_bow,Transition,0,G-C,0.806958,0.301554,0.791564,0.100393,-1.542327,-2.355513,1.348735,-2.183704,-0.143258,0.392495,-0.925758,-1.575874,-2.590883,0.046225,0.201819,-0.375110,0.166628,0.034673,0.032128
4140.882000,3.400000,START a_bow,Transition,0,G-C,0.798958,0.301418,0.791882,0.100239,-1.542421,-2.355487,1.348680,-2.183368,-0.141705,0.389623,-0.924477,-1.575594,-2.590619,0.043091,0.185490,-0.349090,0.154850,0.031392,0.030254
4140.890000,3.408000,START a_bow,Transition,0,G-C,0.790958,0.301251,0.792186,0.100117,-1.542413,-2.355586,1.348624,-2.183006,-0.140296,0.386975,-0.923292,-1.575374,-2.590410,0.039792,0.171804,-0.318886,0.143012,0.027873,0.027540
4140.898000,3.416000,START a_bow,Transition,0,G-C,0.782958,0.301131,0.792448,0.100006,-1.542451,-2.355622,1.348554,-2.182719,-0.139022,0.384581,-0.922225,-1.575165,-2.590219,0.037265,0.156540,-0.290404,0.128213,0.024907,0.024413
4140.906000,3.424000,START a_bow,Transition,0,G-C,0.774958,0.301037,0.792689,0.099961,-1.542579,-2.355677,1.348380,-2.182474,-0.137920,0.382376,-0.921256,-1.574982,-2.590012,0.032357,0.134706,-0.259942,0.114543,0.021738,0.021735
4140.914000,3.432000,START a_bow,Transition,0,G-C,0.766958,0.300945,0.792903,0.099928,-1.542643,-2.355730,1.348206,-2.182247,-0.136957,0.380441,-0.920404,-1.574795,-2.589859,0.027269,0.117025,-0.231107,0.101239,0.020152,0.019156
4140.922000,3.440000,START a_bow,Transition,0,G-C,0.758958,0.300847,0.793102,0.099905,-1.542722,-2.355840,1.348024,-2.182023,-0.136099,0.378695,-0.919659,-1.574659,-2.589700,0.024556,0.099063,-0.197471,0.088874,0.017633,0.017241
4140.930000,3.448000,START a_bow,Transition,0,G-C,0.750958,0.300780,0.793253,0.099863,-1.542739,-2.355880,1.347935,-2.181859,-0.135377,0.377287,-0.919035,-1.574535,-2.589603,0.020255,0.084313,-0.166881,0.075637,0.014109,0.014512
4140.938000,3.456000,START a_bow,Transition,0,G-C,0.742958,0.300707,0.793391,0.099850,-1.542756,-2.356008,1.347765,-2.181696,-0.134782,0.376074,-0.918548,-1.574451,-2.589522,0.016608,0.065601,-0.131668,0.057445,0.011453,0.011706
4140.946000,3.464000,START a_bow,Transition,0,G-C,0.734958,0.300662,0.793486,0.099823,-1.542758,-2.356011,1.347792,-2.181591,-0.134331,0.375189,-0.918100,-1.574386,-2.589450,0.012476,0.051035,-0.098705,0.046644,0.007464,0.006921
4140.954000,3.472000,START a_bow,Transition,0,G-C,0.726958,0.300612,0.793555,0.099785,-1.542705,-2.356075,1.347812,-2.181495,-0.133991,0.374571,-0.917818,-1.574362,-2.589423,0.007436,0.034461,-0.065434,0.031697,0.001758,0.001815
4140.962000,3.480000,START a_bow,Transition,0,G-C,0.718958,0.300606,0.793593,0.099810,-1.542700,-2.356132,1.347728,-2.181464,-0.133825,0.374164,-0.917637,-1.574350,-2.589423,0.001703,0.018280,-0.033649,0.015386,0.000897,0.000776
4140.970000,3.488000,START a_bow,Transition,0,G-C,0.710958,0.300617,0.793598,0.099773,-1.542714,-2.356097,1.347765,-2.181472,-0.133714,0.374024,-0.917581,-1.574346,-2.589411,-0.000718,0.001882,-0.002535,-0.000208,0.000392,0.000334
4140.978000,3.496000,END a_bow,Transition,0,G-C,0.702958,0.300621,0.793580,0.099745,-1.542664,-2.356049,1.347935,-2.181487,-0.133742,0.374145,-0.917558,-1.574376,-2.589423,0.006499,0.006393,0.001661,-0.001037,0.000136,-0.000133
4140.986000,3.504000,END a_bow,Transition,0,G-C,0.694958,0.300644,0.793582,0.099760,-1.542780,-2.356062,1.347738,-2.181511,-0.133742,0.374114,-0.917661,-1.574350,-2.589396,-0.002723,-0.001077,-0.000003,-0.000565,0.000104,-0.000103
4140.994000,3.512000,END a_bow,Transition,0,G-C,0.686958,0.300678,0.793571,0.099801,-1.542793,-2.356022,1.347725,-2.181551,-0.133786,0.374102,-0.917605,-1.574346,-2.589414,-0.001502,-0.002909,-0.000000,-0.000267,0.000124,-0.000084
4141.002000,3.520000,START a_to_d,Transition,0,G-C,0.678958,0.300714,0.793565,0.099859,-1.542858,-2.356051,1.347575,-2.181590,-0.133833,0.374055,-0.917613,-1.574354,-2.589423,-0.012983,0.007267,-0.037337,0.017882,-0.000034,-0.000061
4141.010000,3.528000,START a_to_d,Transition,0,G-C,0.670958,0.300849,0.793559,0.099889,-1.542962,-2.355900,1.347592,-2.181727,-0.133595,0.373474,-0.917241,-1.574366,-2.589435,-0.031552,0.033671,-0.092095,0.053001,-0.010858,-0.010444
4141.018000,3.536000,START a_to_d,Transition,0,G-C,0.662958,0.301037,0.793554,0.099943,-1.542986,-2.355806,1.347630,-2.181911,-0.133205,0.372514,-0.916629,-1.574454,-2.589527,-0.017808,0.053010,-0.138480,0.088633,-0.014616,-0.015920
4141.026000,3.544000,START a_to_d,Transition,0,G-C,0.654958,0.301258,0.793571,0.100081,-1.543033,-2.355804,1.347505,-2.182110,-0.132726,0.371151,-0.915825,-1.574570,-2.589645,-0.028724,0.071080,-0.192446,0.113968,-0.019758,-0.015863
4141.034000,3.552000,START a_to_d,Transition,0,G-C,0.646958,0.301551,0.793596,0.100259,-1.543140,-2.355788,1.347367,-2.182373,-0.132078,0.369322,-0.914737,-1.574733,-2.589765,-0.034482,0.090736,-0.244468,0.147209,-0.026225,-0.020391
4141.042000,3.560000,START a_to_d,Transition,0,G-C,0.638958,0.301908,0.793615,0.100439,-1.543181,-2.355724,1.347330,-2.182700,-0.131263,0.367140,-0.913381,-1.574933,-2.589952,-0.043746,0.113463,-0.297933,0.183307,-0.033791,-0.025356
4141.050000,3.568000,START a_to_d,Transition,0,G-C,0.630958,0.302331,0.793637,0.100616,-1.543264,-2.355692,1.347288,-2.183088,-0.130239,0.364516,-0.911813,-1.575216,-2.590149,-0.051752,0.136988,-0.352255,0.215614,-0.042073,-0.031201
4141.058000,3.576000,START a_to_d,Transition,0,G-C,0.622958,0.302839,0.793651,0.100817,-1.543292,-2.355546,1.347448,-2.183563,-0.129026,0.361430,-0.909820,-1.575543,-2.590400,-0.060651,0.161356,-0.406724,0.252564,-0.047808,-0.036893
4141.066000,3.584000,START a_to_d,Transition,0,G-C,0.614958,0.303400,0.793665,0.101026,-1.543302,-2.355521,1.347517,-2.184084,-0.127634,0.357949,-0.907689,-1.575966,-2.590710,-0.066893,0.181877,-0.463469,0.288311,-0.055500,-0.041788
4141.074000,3.592000,START a_to_d,Transition,0,G-C,0.606958,0.303984,0.793704,0.101280,-1.543229,-2.355436,1.347739,-2.184607,-0.126058,0.353960,-0.905119,-1.576387,-2.591051,-0.071714,0.205466,-0.526279,0.326529,-0.059919,-0.047295
4141.082000,3.600000,START a_to_d,Transition,0,G-C,0.598958,0.304634,0.793744,0.101567,-1.543170,-2.355475,1.347781,-2.185191,-0.124291,0.349493,-0.902399,-1.576889,-2.591453,-0.080626,0.232431,-0.589803,0.362946,-0.067825,-0.053062
4141.090000,3.608000,START a_to_d,Transition,0,G-C,0.590958,0.305376,0.793796,0.101946,-1.543224,-2.355458,1.347770,-2.185857,-0.122333,0.344381,-0.899260,-1.577413,-2.591841,-0.085068,0.253864,-0.657414,0.402640,-0.073592,-0.059098
4141.098000,3.616000,START a_to_d,Transition,0,G-C,0.582958,0.306167,0.793849,0.102359,-1.543149,-2.355600,1.347691,-2.186560,-0.120167,0.338755,-0.895873,-1.578043,-2.592355,-0.092970,0.283280,-0.727435,0.443472,-0.080092,-0.063937
4141.106000,3.624000,START a_to_d,Transition,0,G-C,0.574958,0.307066,0.793889,0.102801,-1.543115,-2.355535,1.347786,-2.187377,-0.117777,0.332576,-0.892013,-1.578672,-2.592878,-0.101369,0.309318,-0.802874,0.492516,-0.087714,-0.067054
4141.114000,3.632000,START a_to_d,Transition,0,G-C,0.566958,0.307980,0.793949,0.103252,-1.543052,-2.355642,1.347836,-2.188191,-0.115108,0.325788,-0.887888,-1.579417,-2.593430,-0.107904,0.339327,-0.880330,0.535113,-0.094686,-0.074960
4141.122000,3.640000,START a_to_d,Transition,0,G-C,0.558958,0.308977,0.794000,0.103742,-1.542945,-2.355645,1.348011,-2.189088,-0.112201,0.318400,-0.883298,-1.580184,-2.594039,-0.115000,0.378173,-0.962160,0.584773,-0.100120,-0.078396
4141.130000,3.648000,START a_to_d,Transition,0,G-C,0.550958,0.310063,0.794057,0.104269,-1.542940,-2.355689,1.348053,-2.190067,-0.108966,0.310227,-0.878354,-1.581019,-2.594655,-0.126828,0.418312,-1.054214,0.635083,-0.104878,-0.082676
4141.138000,3.656000,START a_to_d,Transition,0,G-C,0.542958,0.311227,0.794112,0.104865,-1.542948,-2.355782,1.348004,-2.191117,-0.105456,0.301308,-0.873007,-1.581918,-2.595326,-0.137736,0.459077,-1.153724,0.693862,-0.111754,-0.088360
4141.146000,3.664000,START a_to_d,Transition,0,G-C,0.534958,0.312493,0.794156,0.105528,-1.542973,-2.355808,1.347963,-2.192269,-0.101639,0.291576,-0.867137,-1.582848,-2.596048,-0.142076,0.504157,-1.266952,0.757668,-0.115331,-0.094869
4141.154000,3.672000,START a_to_d,Transition,0,G-C,0.526958,0.313796,0.794212,0.106185,-1.542906,-2.355763,1.348079,-2.193443,-0.097370,0.280920,-0.860672,-1.583784,-2.596819,-0.152666,0.562944,-1.389495,0.827876,-0.124337,-0.099386
4141.162000,3.680000,START a_to_d,Transition,0,G-C,0.518958,0.315107,0.794300,0.106884,-1.542917,-2.356012,1.347736,-2.194598,-0.092682,0.269298,-0.854010,-1.584779,-2.597613,-0.114554,0.574055,-1.403187,0.833148,-0.111941,-0.094189
4141.170000,3.688000,START a_to_d,Transition,0,G-C,0.510958,0.316286,0.794376,0.107532,-1.542774,-2.356069,1.347917,-2.195636,-0.088206,0.258234,-0.847322,-1.585706,-2.598337,-0.120107,0.566252,-1.390022,0.830215,-0.112754,-0.089267
4141.178000,3.696000,START a_to_d,Transition,0,G-C,0.502958,0.317529,0.794409,0.108093,-1.542816,-2.356087,1.347753,-2.196765,-0.083572,0.247089,-0.840928,-1.586569,-2.599059,-0.139119,0.564346,-1.379977,0.803894,-0.104628,-0.085667
4141.186000,3.704000,START a_to_d,Transition,0,G-C,0.494958,0.318680,0.794430,0.108570,-1.542696,-2.355824,1.348186,-2.197815,-0.078980,0.236236,-0.834347,-1.587349,-2.599723,-0.124197,0.567769,-1.359637,0.803137,-0.099026,-0.082762
4141.194000,3.712000,START a_to_d,Transition,0,G-C,0.486958,0.319753,0.794462,0.109040,-1.542632,-2.355834,1.348199,-2.198782,-0.074400,0.225441,-0.828130,-1.588128,-2.600380,-0.116559,0.567578,-1.350129,0.780289,-0.093364,-0.076447
4141.202000,3.720000,START a_to_d,Transition,0,G-C,0.478958,0.320752,0.794498,0.109532,-1.542588,-2.355756,1.348386,-2.199680,-0.069912,0.214775,-0.821830,-1.588856,-2.600945,-0.111292,0.560919,-1.328065,0.772271,-0.087775,-0.070513
4141.210000,3.728000,START a_to_d,Transition,0,G-C,0.470958,0.321630,0.794568,0.110044,-1.542603,-2.355889,1.348277,-2.200440,-0.065484,0.204194,-0.815786,-1.589543,-2.601441,-0.099684,0.556026,-1.301803,0.748527,-0.081487,-0.062339
4141.218000,3.736000,START a_to_d,Transition,0,G-C,0.462958,0.322472,0.794618,0.110527,-1.542626,-2.356029,1.348040,-2.201178,-0.061164,0.193927,-0.810022,-1.590166,-2.601944,-0.089754,0.543622,-1.269893,0.723380,-0.075324,-0.059413
4141.226000,3.744000,START a_to_d,Transition,0,G-C,0.454958,0.323268,0.794646,0.110865,-1.542531,-2.355903,1.348244,-2.201888,-0.056805,0.183948,-0.804249,-1.590703,-2.602422,-0.081958,0.530732,-1.228871,0.703881,-0.068652,-0.054805
4141.234000,3.752000,START a_to_d,Transition,0,G-C,0.446958,0.323985,0.794681,0.111204,-1.542556,-2.355938,1.348220,-2.202524,-0.052617,0.174319,-0.798844,-1.591246,-2.602815,-0.075541,0.509139,-1.182952,0.669123,-0.065088,-0.049799
4141.242000,3.760000,START a_to_d,Transition,0,G-C,0.438958,0.324635,0.794703,0.111496,-1.542478,-2.355893,1.348362,-2.203103,-0.048619,0.165212,-0.793639,-1.591726,-2.603211,-0.068422,0.488941,-1.123458,0.637087,-0.057495,-0.044699
4141.250000,3.768000,START a_to_d,Transition,0,G-C,0.430958,0.325213,0.794728,0.111745,-1.542428,-2.355847,1.348487,-2.203615,-0.044759,0.156506,-0.788711,-1.592149,-2.603546,-0.065682,0.465934,-1.059406,0.594055,-0.052054,-0.039969
4141.258000,3.776000,START a_to_d,Transition,0,G-C,0.422958,0.325771,0.794733,0.111993,-1.542475,-2.355824,1.348490,-2.204125,-0.041182,0.148393,-0.784183,-1.592558,-2.603839,-0.056291,0.430050,-0.980185,0.548492,-0.044454,-0.034044
4141.266000,3.784000,START a_to_d,Transition,0,G-C,0.414958,0.326242,0.794755,0.112298,-1.542589,-2.355896,1.348163,-2.204542,-0.037986,0.140951,-0.780165,-1.592850,-2.604094,-0.049503,0.390698,-0.884270,0.495360,-0.036586,-0.029366
4141.274000,3.792000,START a_to_d,Transition,0,G-C,0.406958,0.326696,0.794739,0.112501,-1.542695,-2.355845,1.348126,-2.204972,-0.035099,0.134400,-0.776532,-1.593165,-2.604303,-0.044093,0.345203,-0.776981,0.434211,-0.033170,-0.024586
4141.282000,3.800000,START a_to_d,Transition,0,G-C,0.398958,0.327028,0.794745,0.112693,-1.542711,-2.355810,1.348100,-2.205272,-0.032633,0.128765,-0.773375,-1.593377,-2.604489,-0.036787,0.288321,-0.653667,0.362711,-0.026795,-0.020263
4141.290000,3.808000,START a_to_d,Transition,0,G-C,0.390958,0.327262,0.794761,0.112819,-1.542708,-2.355854,1.348042,-2.205473,-0.030574,0.124144,-0.770861,-1.593558,-2.604633,-0.027390,0.227606,-0.510872,0.283479,-0.019952,-0.014850
4141.298000,3.816000,START a_to_d,Transition,0,G-C,0.382958,0.327417,0.794769,0.112845,-1.542656,-2.355825,1.348188,-2.205608,-0.029025,0.120838,-0.769008,-1.593696,-2.604725,-0.016443,0.161891,-0.356306,0.199761,-0.013280,-0.010077
4141.306000,3.824000,START a_to_d,Transition,0,G-C,0.374958,0.327519,0.794771,0.112846,-1.542629,-2.355760,1.348293,-2.205700,-0.028043,0.118783,-0.767856,-1.593757,-2.604782,-0.007903,0.088091,-0.189473,0.111339,-0.006577,-0.002242
4141.314000,3.832000,START a_to_d,Transition,0,G-C,0.366958,0.327548,0.794771,0.112826,-1.542612,-2.355668,1.348495,-2.205728,-0.027713,0.118133,-0.767397,-1.593785,-2.604770,0.006353,0.013400,-0.019009,0.016950,-0.000053,0.002396
4141.322000,3.840000,START a_to_d,Transition,0,G-C,0.358958,0.327531,0.794776,0.112893,-1.542823,-2.355645,1.347924,-2.205712,-0.028310,0.119246,-0.768260,-1.593560,-2.604731,-0.017833,-0.185658,0.298512,-0.194281,0.052297,0.007353
4141.330000,3.848000,START a_to_d,Transition,0,G-C,0.350958,0.327477,0.794722,0.113026,-1.542927,-2.355134,1.348041,-2.205709,-0.030355,0.123194,-0.769979,-1.593197,-2.604631,-0.002077,-0.308146,0.616863,-0.326420,0.071373,0.013207
4141.338000,3.856000,START a_to_d,Transition,0,G-C,0.342958,0.327393,0.794648,0.113052,-1.543405,-2.354675,1.346886,-2.205692,-0.033442,0.129675,-0.773981,-1.592415,-2.604523,-0.004831,-0.446293,0.926274,-0.543258,0.115408,0.017031
4141.346000,3.864000,START a_to_d,Transition,0,G-C,0.334958,0.327318,0.794511,0.113140,-1.543944,-2.353755,1.345622,-2.205728,-0.037739,0.138572,-0.779137,-1.591257,-2.604426,-0.001795,-0.594989,1.243844,-0.723906,0.172053,0.017640
4141.354000,3.872000,START a_to_d,Transition,0,G-C,0.326958,0.327197,0.794327,0.113169,-1.544703,-2.352511,1.343862,-2.205760,-0.043172,0.150043,-0.785962,-1.589665,-2.604272,-0.006951,-0.739921,1.559468,-0.926542,0.234706,0.022906
4141.362000,3.880000,START a_to_d,Transition,0,G-C,0.318958,0.327054,0.794078,0.113208,-1.545734,-2.350625,1.341625,-2.205824,-0.049839,0.164147,-0.794332,-1.587426,-2.604041,-0.010766,-0.889782,1.875670,-1.119941,0.310378,0.032600
4141.370000,3.888000,START a_to_d,Transition,0,G-C,0.310958,0.326920,0.793756,0.113325,-1.547160,-2.348062,1.338474,-2.205955,-0.057661,0.180572,-0.804273,-1.584386,-2.603755,-0.014258,-1.027080,2.187692,-1.319446,0.404394,0.044021
4141.378000,3.896000,START a_to_d,Transition,0,G-C,0.302958,0.326705,0.793355,0.113429,-1.548921,-2.344943,1.334519,-2.206071,-0.066671,0.199614,-0.816009,-1.580614,-2.603375,-0.017118,-1.170430,2.490993,-1.535752,0.512565,0.059160
4141.386000,3.904000,START a_to_d,Transition,0,G-C,0.294958,0.326472,0.792869,0.113508,-1.550952,-2.341118,1.330261,-2.206239,-0.076191,0.219854,-0.828471,-1.576237,-2.602884,-0.020470,-1.195010,2.574505,-1.611426,0.585538,0.068874
4141.394000,3.912000,START a_to_d,Transition,0,G-C,0.286958,0.326237,0.792319,0.113572,-1.553538,-2.336929,1.324687,-2.206458,-0.086034,0.240926,-0.842190,-1.571185,-2.602274,-0.027564,-1.250054,2.667807,-1.736499,0.674088,0.081758
4141.402000,3.920000,START a_to_d,Transition,0,G-C,0.278958,0.325973,0.791709,0.113740,-1.556352,-2.331929,1.318402,-2.206693,-0.096279,0.262699,-0.856449,-1.565244,-2.601622,-0.029268,-1.276443,2.745743,-1.817109,0.762285,0.092841
4141.410000,3.928000,START a_to_d,Transition,0,G-C,0.270958,0.325672,0.791042,0.113887,-1.559617,-2.326541,1.311211,-2.206944,-0.106659,0.284898,-0.871503,-1.558737,-2.600797,-0.028972,-1.305667,2.799520,-1.892505,0.849642,0.105538
4141.418000,3.936000,START a_to_d,Transition,0,G-C,0.262958,0.325272,0.790335,0.114076,-1.562917,-2.320432,1.303783,-2.207129,-0.117196,0.307416,-0.886691,-1.551510,-2.599900,-0.027739,-1.320546,2.845211,-1.942868,0.929630,0.124141
4141.426000,3.944000,START a_to_d,Transition,0,G-C,0.254958,0.324862,0.789538,0.114162,-1.566579,-2.313752,1.295518,-2.207372,-0.127799,0.330453,-0.902746,-1.543614,-2.598882,-0.029199,-1.323481,2.885850,-2.024824,1.012542,0.137033
4141.434000,3.952000,START a_to_d,Transition,0,G-C,0.246958,0.324424,0.788672,0.114138,-1.570510,-2.306367,1.286822,-2.207644,-0.138306,0.353669,-0.919214,-1.535066,-2.597701,-0.033434,-1.326819,2.900955,-2.062573,1.085150,0.148864
4141.442000,3.960000,START a_to_d,Transition,0,G-C,0.238958,0.323917,0.787731,0.114170,-1.574238,-2.298991,1.278648,-2.207898,-0.148727,0.376543,-0.935124,-1.526697,-2.596499,-0.035802,-1.288266,2.849347,-1.999565,1.051487,0.151202
4141.450000,3.968000,START a_to_d,Transition,0,G-C,0.230958,0.323379,0.786725,0.114202,-1.577901,-2.291538,1.270082,-2.208158,-0.158981,0.399149,-0.951152,-1.518117,-2.595351,-0.032540,-1.270442,2.812036,-1.992860,1.059854,0.155178
4141.458000,3.976000,START a_to_d,Transition,0,G-C,0.222958,0.322812,0.785646,0.114190,-1.581744,-2.284214,1.261220,-2.208446,-0.169075,0.421555,-0.967408,-1.509609,-2.594081,-0.034103,-1.259647,2.778778,-2.012837,1.069048,0.158231
4141.466000,3.984000,START a_to_d,Transition,0,G-C,0.214958,0.322187,0.784500,0.114127,-1.585450,-2.276735,1.252863,-2.208725,-0.178979,0.443693,-0.983262,-1.501159,-2.592753,-0.035290,-1.252144,2.755407,-1.979987,1.064916,0.164236
4141.474000,3.992000,START a_to_d,Transition,0,G-C,0.206958,0.321537,0.783283,0.114191,-1.588994,-2.269120,1.244645,-2.209021,-0.188918,0.465608,-0.998741,-1.492646,-2.591466,-0.037041,-1.230293,2.735450,-1.952960,1.063453,0.164755
4141.482000,4.000000,START a_to_d,Transition,0,G-C,0.198958,0.320868,0.781998,0.114266,-1.592662,-2.261648,1.235815,-2.209345,-0.198779,0.487397,-1.014617,-1.484082,-2.590141,-0.038850,-1.227015,2.707582,-1.965604,1.066154,0.167707
4141.490000,4.008000,START a_to_d,Transition,0,G-C,0.190958,0.320150,0.780659,0.114376,-1.596319,-2.254276,1.226794,-2.209656,-0.208567,0.508976,-1.030525,-1.475537,-2.588780,-0.043401,-1.224828,2.688265,-1.967016,1.066778,0.168933
4141.498000,4.016000,START a_to_d,Transition,0,G-C,0.182958,0.319414,0.779245,0.114621,-1.599781,-2.246730,1.218395,-2.209999,-0.218420,0.530323,-1.045723,-1.467090,-2.587422,-0.043251,-1.213824,2.673508,-1.926716,1.058221,0.175713
4141.506000,4.024000,START a_to_d,Transition,0,G-C,0.174958,0.318622,0.777767,0.114751,-1.603323,-2.239212,1.209670,-2.210335,-0.228102,0.551664,-1.061335,-1.458575,-2.585980,-0.042722,-1.209039,2.657127,-1.939678,1.061804,0.176821
4141.514000,4.032000,START a_to_d,Transition,0,G-C,0.166958,0.317806,0.776221,0.114897,-1.606778,-2.231754,1.200655,-2.210685,-0.237703,0.572861,-1.077083,-1.450008,-2.584586,-0.043332,-1.205016,2.645001,-1.937004,1.059463,0.180452
4141.522000,4.040000,START a_to_d,Transition,0,G-C,0.158958,0.316926,0.774600,0.115062,-1.610095,-2.224138,1.192492,-2.211033,-0.247328,0.594009,-1.092226,-1.441628,-2.583107,-0.044327,-1.194114,2.639686,-1.917675,1.052504,0.184239
4141.530000,4.048000,START a_to_d,Transition,0,G-C,0.150958,0.316005,0.772910,0.115195,-1.613378,-2.216540,1.184098,-2.211384,-0.256867,0.615122,-1.107588,-1.433186,-2.581621,-0.047219,-1.185905,2.625923,-1.919492,1.057494,0.187077
4141.538000,4.056000,START a_to_d,Transition,0,G-C,0.142958,0.315093,0.771154,0.115352,-1.616762,-2.209049,1.175040,-2.211787,-0.266331,0.636093,-1.123356,-1.424665,-2.580115,-0.050041,-1.178884,2.602489,-1.927685,1.055797,0.191002
4141.546000,4.064000,START a_to_d,Transition,0,G-C,0.134958,0.314167,0.769428,0.115507,-1.619854,-2.201301,1.167252,-2.212154,-0.275355,0.656071,-1.137730,-1.416339,-2.578574,-0.047274,-1.081782,2.430050,-1.807309,1.052326,0.196845
4141.554000,4.072000,START a_to_d,Transition,0,G-C,0.126958,0.313294,0.767791,0.115638,-1.623144,-2.193898,1.158109,-2.212506,-0.283721,0.674854,-1.152540,-1.407847,-2.576981,-0.044952,-1.021602,2.291068,-1.783609,1.055626,0.201490
4141.562000,4.080000,START a_to_d,Transition,0,G-C,0.118958,0.312480,0.766191,0.115768,-1.626312,-2.186087,1.149882,-2.212889,-0.291646,0.692668,-1.166186,-1.399380,-2.575311,-0.041903,-0.967829,2.175019,-1.708850,1.055905,0.207311
4141.570000,4.088000,START a_to_d,Transition,0,G-C,0.110958,0.311625,0.764687,0.115907,-1.629321,-2.178609,1.141406,-2.213154,-0.299092,0.709483,-1.179555,-1.390988,-2.573657,-0.039483,-0.913052,2.054199,-1.653369,1.057048,0.213928
4141.578000,4.096000,START a_to_d,Transition,0,G-C,0.102958,0.310913,0.763224,0.116076,-1.632522,-2.170946,1.132525,-2.213531,-0.306113,0.725379,-1.192702,-1.382452,-2.571899,-0.040509,-0.858464,1.949864,-1.610731,1.057215,0.220027
4141.586000,4.104000,START a_to_d,Transition,0,C-G,1.094958,0.310174,0.761828,0.116225,-1.635504,-2.163208,1.124510,-2.213832,-0.312760,0.740480,-1.204886,-1.374086,-2.570097,-0.038892,-0.805409,1.850028,-1.540598,1.056080,0.224157
4141.594000,4.112000,START a_to_d,Transition,0,C-G,1.086958,0.309503,0.760496,0.116360,-1.638586,-2.155656,1.115476,-2.214147,-0.318965,0.754799,-1.217458,-1.365557,-2.568264,-0.036925,-0.748891,1.743173,-1.516103,1.050738,0.230439
4141.602000,4.120000,START a_to_d,Transition,0,C-G,1.078958,0.308855,0.759224,0.116504,-1.641316,-2.148235,1.107980,-2.214438,-0.324784,0.768127,-1.228474,-1.357615,-2.566493,-0.034223,-0.709117,1.620366,-1.385439,0.977029,0.216629
4141.610000,4.128000,START a_to_d,Transition,0,C-G,1.070958,0.308262,0.758051,0.116574,-1.644078,-2.141469,1.099931,-2.214713,-0.329990,0.780380,-1.239565,-1.350030,-2.564720,-0.029730,-0.643271,1.507180,-1.329068,0.929156,0.208081
4141.618000,4.136000,START a_to_d,Transition,0,C-G,1.062958,0.307616,0.756901,0.116579,-1.646331,-2.134839,1.093377,-2.214909,-0.334924,0.792110,-1.249435,-1.342919,-2.563118,-0.028080,-0.601723,1.404701,-1.228445,0.873992,0.200270
4141.626000,4.144000,START a_to_d,Transition,0,C-G,1.054958,0.307027,0.755860,0.116626,-1.648531,-2.128669,1.086803,-2.215082,-0.339428,0.802784,-1.258816,-1.336168,-2.561532,-0.025232,-0.545860,1.304756,-1.149261,0.823133,0.194631
4141.634000,4.152000,START a_to_d,Transition,0,C-G,1.046958,0.306506,0.754858,0.116684,-1.650591,-2.122881,1.080502,-2.215290,-0.343629,0.812736,-1.267679,-1.329830,-2.560049,-0.023080,-0.501769,1.204852,-1.075541,0.767970,0.183142
4141.642000,4.160000,START a_to_d,Transition,0,C-G,1.038958,0.306025,0.753906,0.116781,-1.652464,-2.117571,1.074646,-2.215500,-0.347579,0.821971,-1.275880,-1.324007,-2.558686,-0.021634,-0.470635,1.106760,-0.992940,0.714549,0.172726
4141.650000,4.168000,START a_to_d,Transition,0,C-G,1.030958,0.305562,0.753050,0.116852,-1.654220,-2.112664,1.069285,-2.215661,-0.351129,0.830345,-1.283400,-1.318641,-2.557349,-0.021819,-0.431639,1.011881,-0.913962,0.660820,0.161644
4141.658000,4.176000,START a_to_d,Transition,0,C-G,1.022958,0.305175,0.752259,0.116981,-1.655801,-2.108075,1.064217,-2.215844,-0.354408,0.837928,-1.290256,-1.313616,-2.556146,-0.021526,-0.396466,0.920504,-0.834683,0.607366,0.150545
4141.666000,4.184000,START a_to_d,Transition,0,C-G,1.014958,0.304804,0.751548,0.117073,-1.657284,-2.103805,1.059560,-2.215988,-0.357344,0.844819,-1.296571,-1.308955,-2.554972,-0.016861,-0.356460,0.832866,-0.760621,0.552675,0.139043
4141.674000,4.192000,START a_to_d,Transition,0,C-G,1.006958,0.304436,0.750880,0.117137,-1.658558,-2.099926,1.055553,-2.216101,-0.360041,0.851186,-1.302242,-1.304772,-2.553918,-0.014868,-0.320728,0.747094,-0.682635,0.499130,0.127126
4141.682000,4.200000,START a_to_d,Transition,0,C-G,0.998958,0.304132,0.750278,0.117170,-1.659756,-2.096564,1.051915,-2.216235,-0.362378,0.856781,-1.307365,-1.301148,-2.552954,-0.013764,-0.279701,0.662021,-0.606014,0.445201,0.113834
4141.690000,4.208000,START a_to_d,Transition,0,C-G,0.990958,0.303863,0.749755,0.117209,-1.660777,-2.093445,1.048786,-2.216343,-0.364428,0.861677,-1.311773,-1.297839,-2.552092,-0.013233,-0.245597,0.577271,-0.531187,0.388579,0.101747
4141.698000,4.216000,START a_to_d,Transition,0,C-G,0.982958,0.303638,0.749313,0.117297,-1.661651,-2.090930,1.045831,-2.216435,-0.366214,0.865804,-1.315665,-1.295037,-2.551374,-0.011451,-0.212058,0.495214,-0.454232,0.338495,0.088012
4141.706000,4.224000,START a_to_d,Transition,0,C-G,0.974958,0.303432,0.748934,0.117358,-1.662408,-2.088656,1.043484,-2.216502,-0.367749,0.869377,-1.318899,-1.292601,-2.550716,-0.006333,-0.174888,0.406672,-0.379192,0.284656,0.073865
4141.714000,4.232000,START a_to_d,Transition,0,C-G,0.966958,0.303231,0.748659,0.117434,-1.662992,-2.086970,1.041244,-2.216495,-0.368969,0.872182,-1.321710,-1.290586,-2.550184,-0.002768,-0.131991,0.324596,-0.312684,0.230530,0.060173
4141.722000,4.240000,START a_to_d,Transition,0,C-G,0.958958,0.303104,0.748424,0.117499,-1.663452,-2.085536,1.039652,-2.216535,-0.369951,0.874410,-1.323781,-1.289005,-2.549779,-0.001176,-0.103541,0.244824,-0.238092,0.175903,0.045104
4141.730000,4.248000,START a_to_d,Transition,0,C-G,0.950958,0.302971,0.748269,0.117493,-1.663765,-2.084553,1.038505,-2.216512,-0.370589,0.876015,-1.325361,-1.287866,-2.549465,-0.000236,-0.071382,0.169687,-0.163046,0.124007,0.033391
4141.738000,4.256000,START a_to_d,Transition,0,C-G,0.942958,0.302898,0.748171,0.117531,-1.663945,-2.083942,1.037762,-2.216507,-0.371037,0.877011,-1.326303,-1.287150,-2.549289,0.001977,-0.038321,0.089661,-0.090319,0.069198,0.019381
4141.754000,4.272000,START d_bow,Transition,1,C-G,0.926958,0.302843,0.748140,0.117560,-1.663930,-2.083863,1.037261,-2.216468,-0.371217,0.877393,-1.326813,-1.286873,-2.549280,-0.005239,-0.029416,0.046967,-0.027030,0.001636,-0.004801
4141.762000,4.280000,START d_bow,Transition,1,C-G,0.918958,0.302828,0.748062,0.117605,-1.663925,-2.083781,1.037384,-2.216511,-0.371496,0.877852,-1.326887,-1.286877,-2.549304,-0.002362,-0.033561,0.056790,-0.017114,0.000010,-0.010988
4141.770000,4.288000,START d_bow,Transition,1,C-G,0.910958,0.302830,0.747962,0.117582,-1.663888,-2.083787,1.037262,-2.216583,-0.371688,0.878352,-1.327248,-1.286873,-2.549392,-0.013612,-0.034757,0.068341,-0.037210,-0.000817,-0.012542
4141.778000,4.296000,START d_bow,Transition,1,C-G,0.902958,0.302862,0.747805,0.117567,-1.663887,-2.083673,1.037370,-2.216730,-0.372007,0.879073,-1.327527,-1.286916,-2.549488,-0.017784,-0.044434,0.091835,-0.035276,-0.003726,-0.013413
4141.786000,4.304000,START d_bow,Transition,1,C-G,0.894958,0.302869,0.747634,0.117540,-1.663870,-2.083560,1.037501,-2.216862,-0.372374,0.879929,-1.327877,-1.286952,-2.549584,-0.020259,-0.050639,0.112990,-0.049055,-0.007639,-0.012813
4141.794000,4.312000,START d_bow,Transition,1,C-G,0.886958,0.302874,0.747437,0.117499,-1.663886,-2.083410,1.037673,-2.217014,-0.372793,0.880936,-1.328296,-1.286996,-2.549665,-0.023614,-0.058193,0.130051,-0.058756,-0.008824,-0.014941
4141.802000,4.320000,START d_bow,Transition,1,C-G,0.878958,0.302896,0.747191,0.117458,-1.663878,-2.083282,1.037868,-2.217218,-0.373300,0.882125,-1.328782,-1.287094,-2.549804,-0.026485,-0.068395,0.152838,-0.066253,-0.009964,-0.018644
4141.810000,4.328000,START d_bow,Transition,1,C-G,0.870958,0.302963,0.746910,0.117460,-1.663937,-2.083087,1.037840,-2.217492,-0.373907,0.883433,-1.329418,-1.287128,-2.549948,-0.029872,-0.081799,0.171409,-0.078873,-0.012253,-0.020159
4141.818000,4.336000,START d_bow,Transition,1,C-G,0.862958,0.302988,0.746608,0.117495,-1.663972,-2.082991,1.037946,-2.217744,-0.374658,0.884929,-1.330032,-1.287267,-2.550097,-0.033789,-0.094765,0.193838,-0.086031,-0.016271,-0.025994
4141.826000,4.344000,START d_bow,Transition,1,C-G,0.854958,0.303020,0.746277,0.117605,-1.663937,-2.082983,1.037755,-2.218015,-0.375554,0.886560,-1.330820,-1.287363,-2.550336,-0.038194,-0.107163,0.211431,-0.098989,-0.018488,-0.029929
4141.834000,4.352000,START d_bow,Transition,1,C-G,0.846958,0.303076,0.745907,0.117711,-1.663978,-2.082981,1.037583,-2.218346,-0.376517,0.888327,-1.331676,-1.287537,-2.550561,-0.040817,-0.122623,0.229041,-0.106678,-0.020496,-0.032952
4141.842000,4.360000,START d_bow,Transition,1,C-G,0.838958,0.303095,0.745526,0.117826,-1.663937,-2.083025,1.037386,-2.218643,-0.377547,0.890228,-1.332607,-1.287689,-2.550828,-0.042173,-0.129299,0.248303,-0.114232,-0.022937,-0.036417
