srs827/Robot-Cello-ResidualRL/Data-Files/Big-Logs/twinkle_twinkle-log-detailed.csv
timestamp_robot,time_elapsed_sec,event_flag,event_label,current_event_type,current_note_number,current_note_name,current_string,remaining_duration_sec,TCP_pose_x,TCP_pose_y,TCP_pose_z,TCP_pose_rx,TCP_pose_ry,TCP_pose_rz,q_base,q_shoulder,q_elbow,q_wrist1,q_wrist2,q_wrist3,TCP_force_x,TCP_force_y,TCP_force_z,TCP_force_rx,TCP_force_ry,TCP_force_rz
9024.676000,0.000000,4,END d_bow,Note,50,D3,D,0.498958,0.382746,0.597506,0.161376,-1.663371,-2.084447,1.037841,-2.425796,-0.622472,1.273577,-1.439409,-1.432306,-2.703677,0.073935,1.949014,0.383129,-0.107335,-0.051162,-0.063832
9024.684000,0.008000,4,END d_bow,Note,50,D3,D,0.490958,0.382771,0.597499,0.161385,-1.663445,-2.084393,1.037781,-2.425830,-0.622476,1.273561,-1.439425,-1.432282,-2.703649,-0.293461,1.560193,0.703421,-0.098036,-0.061763,-0.068152
9024.692000,0.016000,4,END d_bow,Note,50,D3,D,0.482958,0.382752,0.597502,0.161359,-1.663434,-2.084387,1.037847,-2.425812,-0.622457,1.273597,-1.439440,-1.432290,-2.703634,-0.130766,1.237484,0.969752,-0.090981,-0.059523,-0.066506
9024.700000,0.024000,4,END d_bow,Note,50,D3,D,0.474958,0.382763,0.597492,0.161373,-1.663389,-2.084385,1.037829,-2.425827,-0.622472,1.273591,-1.439413,-1.432278,-2.703681,-0.307740,1.332088,0.692178,-0.092792,-0.059449,-0.069157
9024.708000,0.032000,4,END d_bow,Note,50,D3,D,0.466958,0.382750,0.597499,0.161365,-1.663413,-2.084388,1.037874,-2.425812,-0.622472,1.273607,-1.439413,-1.432297,-2.703646,-0.147802,1.567165,0.721387,-0.094034,-0.051836,-0.062370
9024.716000,0.040000,4,END d_bow,Note,50,D3,D,0.458958,0.382772,0.597492,0.161370,-1.663447,-2.084411,1.037835,-2.425839,-0.622464,1.273573,-1.439425,-1.432328,-2.703649,0.043719,1.307522,0.732282,-0.088831,-0.048043,-0.066083
9024.724000,0.048000,4,END d_bow,Note,50,D3,D,0.450958,0.382755,0.597498,0.161366,-1.663404,-2.084414,1.037821,-2.425815,-0.622464,1.273595,-1.439444,-1.432294,-2.703665,-0.279393,1.080279,0.730590,-0.089142,-0.058672,-0.069195
9024.796000,0.120000,4,END d_bow,Note,50,D3,D,0.378958,0.382746,0.597499,0.161368,-1.663371,-2.084407,1.037886,-2.425804,-0.622476,1.273607,-1.439397,-1.432300,-2.703672,-0.310569,1.451464,0.605236,-0.093617,-0.056786,-0.070098
9024.884000,0.208000,4,END d_bow,Note,50,D3,D,0.290958,0.382740,0.597499,0.161364,-1.663382,-2.084437,1.037853,-2.425800,-0.622476,1.273622,-1.439444,-1.432309,-2.703669,-0.149998,0.947412,1.013604,-0.084314,-0.061049,-0.071909
9024.892000,0.216000,4,END d_bow,Note,50,D3,D,0.282958,0.382754,0.597498,0.161373,-1.663381,-2.084414,1.037816,-2.425812,-0.622472,1.273591,-1.439428,-1.432282,-2.703681,-0.132593,1.519695,0.661596,-0.095481,-0.052382,-0.064555
9024.900000,0.224000,4,END d_bow,Note,50,D3,D,0.274958,0.382771,0.597483,0.161365,-1.663387,-2.084419,1.037814,-2.425843,-0.622464,1.273597,-1.439444,-1.432309,-2.703699,-0.154622,1.613086,0.584385,-0.094104,-0.054146,-0.059576
9024.908000,0.232000,4,END d_bow,Note,50,D3,D,0.266958,0.382753,0.597502,0.161367,-1.663394,-2.084411,1.037810,-2.425808,-0.622461,1.273585,-1.439440,-1.432278,-2.703669,-0.087250,1.029239,0.766856,-0.092590,-0.057623,-0.069450
9024.916000,0.240000,4,END d_bow,Note,50,D3,D,0.258958,0.382765,0.597479,0.161349,-1.663416,-2.084356,1.037900,-2.425846,-0.622461,1.273634,-1.439425,-1.432309,-2.703662,-0.300171,0.950320,0.867782,-0.088955,-0.063653,-0.074359
9024.924000,0.248000,4,END d_bow,Note,50,D3,D,0.250958,0.382748,0.597498,0.161357,-1.663390,-2.084393,1.037871,-2.425808,-0.622461,1.273610,-1.439425,-1.432290,-2.703662,-0.381578,1.520270,0.630852,-0.095253,-0.058159,-0.061771
9024.932000,0.256000,4,END d_bow,Note,50,D3,D,0.242958,0.382767,0.597487,0.161359,-1.663421,-2.084356,1.037874,-2.425839,-0.622462,1.273607,-1.439413,-1.432294,-2.703656,-0.164772,1.531790,0.768481,-0.093965,-0.055942,-0.061678
9024.940000,0.264000,4,END d_bow,Note,50,D3,D,0.234958,0.382759,0.597500,0.161362,-1.663450,-2.084393,1.037813,-2.425820,-0.622457,1.273588,-1.439456,-1.432290,-2.703634,-0.450298,1.042693,1.017497,-0.086503,-0.068502,-0.068407
9024.948000,0.272000,4,END d_bow,Note,50,D3,D,0.226958,0.382758,0.597497,0.161375,-1.663413,-2.084417,1.037828,-2.425820,-0.622476,1.273588,-1.439425,-1.432306,-2.703662,-0.550588,1.483043,0.901530,-0.091987,-0.064372,-0.063976
9024.956000,0.280000,4,END d_bow,Note,50,D3,D,0.218958,0.382757,0.597492,0.161358,-1.663397,-2.084394,1.037889,-2.425824,-0.622461,1.273604,-1.439409,-1.432312,-2.703665,-0.428302,1.605758,0.814525,-0.090969,-0.058114,-0.064686
9024.964000,0.288000,4,END d_bow,Note,50,D3,D,0.210958,0.382781,0.597483,0.161378,-1.663429,-2.084409,1.037784,-2.425855,-0.622476,1.273580,-1.439440,-1.432309,-2.703681,-0.468739,1.505645,0.852725,-0.090721,-0.059729,-0.062537
9024.972000,0.296000,4,END d_bow,Note,50,D3,D,0.202958,0.382740,0.597505,0.161370,-1.663374,-2.084415,1.037866,-2.425793,-0.622476,1.273604,-1.439409,-1.432290,-2.703665,-0.286990,1.402460,0.870045,-0.090628,-0.062810,-0.064050
9024.980000,0.304000,4,END d_bow,Note,50,D3,D,0.194958,0.382760,0.597491,0.161360,-1.663392,-2.084380,1.037871,-2.425827,-0.622461,1.273604,-1.439413,-1.432294,-2.703672,-0.363504,1.413058,0.682979,-0.098941,-0.060961,-0.068832
9024.988000,0.312000,4,END d_bow,Note,50,D3,D,0.186958,0.382758,0.597497,0.161360,-1.663420,-2.084386,1.037853,-2.425820,-0.622457,1.273595,-1.439428,-1.432294,-2.703649,-0.226582,1.512797,0.641704,-0.091740,-0.054350,-0.064686
9024.996000,0.320000,4,END d_bow,Note,50,D3,D,0.178958,0.382738,0.597505,0.161354,-1.663394,-2.084427,1.037882,-2.425793,-0.622457,1.273610,-1.439437,-1.432312,-2.703649,0.222649,0.052445,-0.048338,-0.003507,0.004370,0.001659
9025.004000,0.328000,4,END d_bow,Note,50,D3,D,0.170958,0.382753,0.597498,0.161362,-1.663374,-2.084408,1.037849,-2.425812,-0.622457,1.273591,-1.439421,-1.432290,-2.703681,-0.179383,-0.190569,0.224918,-0.006745,-0.014871,-0.003241
9025.012000,0.336000,4,END d_bow,Note,50,D3,D,0.162958,0.382754,0.597500,0.161362,-1.663391,-2.084399,1.037862,-2.425812,-0.622457,1.273588,-1.439413,-1.432294,-2.703665,-0.091183,-0.199253,0.285550,0.003405,-0.008802,-0.006324
9025.020000,0.344000,4,END d_bow,Note,50,D3,D,0.154958,0.382756,0.597488,0.161351,-1.663404,-2.084392,1.037868,-2.425827,-0.622457,1.273622,-1.439444,-1.432306,-2.703665,-0.118833,0.050574,0.125484,-0.008102,-0.004111,-0.002343
9025.028000,0.352000,4,END d_bow,Note,50,D3,D,0.146958,0.382760,0.597493,0.161363,-1.663387,-2.084408,1.037863,-2.425824,-0.622461,1.273591,-1.439413,-1.432309,-2.703677,0.080172,0.213016,-0.112116,-0.005482,0.002123,0.005079
9025.036000,0.360000,4,END d_bow,Note,50,D3,D,0.138958,0.382754,0.597495,0.161371,-1.663372,-2.084399,1.037868,-2.425815,-0.622476,1.273600,-1.439397,-1.432294,-2.703681,0.011867,-0.259084,0.160889,-0.001755,-0.008410,-0.003981
9025.044000,0.368000,4,END d_bow,Note,50,D3,D,0.130958,0.382766,0.597492,0.161372,-1.663402,-2.084399,1.037790,-2.425830,-0.622468,1.273588,-1.439444,-1.432278,-2.703681,-0.141875,-0.311864,0.299038,-0.003697,-0.011762,-0.004218
9025.052000,0.376000,4,END d_bow,Note,50,D3,D,0.122958,0.382763,0.597494,0.161375,-1.663417,-2.084395,1.037801,-2.425827,-0.622476,1.273591,-1.439437,-1.432282,-2.703665,-0.096050,-0.286693,0.044552,0.003615,-0.004127,-0.006278
9025.060000,0.384000,4,END d_bow,Note,50,D3,D,0.114958,0.382757,0.597504,0.161384,-1.663423,-2.084436,1.037810,-2.425812,-0.622480,1.273568,-1.439421,-1.432309,-2.703653,0.127796,0.115618,-0.234463,-0.003950,0.003152,0.002466
9025.068000,0.392000,4,END d_bow,Note,50,D3,D,0.106958,0.382760,0.597503,0.161374,-1.663388,-2.084442,1.037753,-2.425812,-0.622457,1.273561,-1.439459,-1.432278,-2.703687,-0.257335,-0.099674,0.051848,0.002370,-0.001983,0.001600
9025.076000,0.400000,4,END d_bow,Note,50,D3,D,0.098958,0.382770,0.597502,0.161369,-1.663439,-2.084386,1.037794,-2.425827,-0.622449,1.273552,-1.439432,-1.432278,-2.703649,-0.273018,-0.284469,0.307435,0.001416,-0.010129,-0.005159
9025.084000,0.408000,4,END d_bow,Note,50,D3,D,0.090958,0.382760,0.597514,0.161366,-1.663407,-2.084429,1.037819,-2.425803,-0.622433,1.273528,-1.439416,-1.432297,-2.703656,-0.102118,-0.166200,0.236545,0.003683,-0.002996,0.001181
9025.212000,0.536000,4,END d_bow,Note,50,D3,D,0.462958,0.382446,0.598609,0.161163,-1.663491,-2.084559,1.037622,-2.424391,-0.620820,1.270815,-1.438631,-1.431344,-2.702628,0.570696,-0.690762,-0.878205,0.168758,0.153211,0.185768
9025.236000,0.560000,4,END d_bow,Note,50,D3,D,0.438958,0.382318,0.599147,0.161033,-1.663588,-2.084565,1.037522,-2.423726,-0.619959,1.269430,-1.438260,-1.430866,-2.702095,0.862123,-0.226392,-0.931671,0.156785,0.151952,0.192401
9025.244000,0.568000,4,END d_bow,Note,50,D3,D,0.430958,0.382264,0.599368,0.160973,-1.663619,-2.084534,1.037464,-2.423451,-0.619596,1.268869,-1.438120,-1.430631,-2.701880,0.235202,-1.209232,-0.049347,0.158142,0.111832,0.164278
9025.252000,0.576000,4,END d_bow,Note,50,D3,D,0.422958,0.382189,0.599616,0.160920,-1.663635,-2.084543,1.037446,-2.423128,-0.619225,1.268265,-1.437937,-1.430409,-2.701641,0.559289,-0.491058,-0.899212,0.156754,0.147553,0.172032
9025.260000,0.584000,4,END d_bow,Note,50,D3,D,0.414958,0.382111,0.599879,0.160838,-1.663599,-2.084539,1.037445,-2.422785,-0.618786,1.267613,-1.437746,-1.430154,-2.701420,0.854809,0.116711,-1.269839,0.151301,0.156211,0.182635
9025.268000,0.592000,4,END d_bow,Note,50,D3,D,0.406958,0.381993,0.600198,0.160779,-1.663578,-2.084664,1.037437,-2.422348,-0.618339,1.266861,-1.437523,-1.429935,-2.701138,0.528000,-0.763954,-0.380420,0.160981,0.125783,0.170626
9025.276000,0.600000,4,END d_bow,Note,50,D3,D,0.398958,0.381913,0.600510,0.160675,-1.663594,-2.084622,1.037448,-2.421957,-0.617801,1.266069,-1.437292,-1.429637,-2.700840,0.296099,-1.551494,0.119345,0.169662,0.113960,0.150438
9025.284000,0.608000,4,END d_bow,Note,50,D3,D,0.390958,0.381816,0.600874,0.160605,-1.663665,-2.084657,1.037371,-2.421498,-0.617253,1.265149,-1.437041,-1.429330,-2.700474,0.757675,-0.312361,-1.095628,0.154951,0.145960,0.162506
9025.292000,0.616000,4,END d_bow,Note,50,D3,D,0.382958,0.381666,0.601268,0.160492,-1.663607,-2.084750,1.037369,-2.420954,-0.616644,1.264236,-1.436806,-1.429003,-2.700138,0.864953,0.036558,-1.402194,0.156932,0.153785,0.174333
9025.300000,0.624000,4,END d_bow,Note,50,D3,D,0.374958,0.381534,0.601684,0.160392,-1.663603,-2.084764,1.037360,-2.420407,-0.616008,1.263227,-1.436495,-1.428624,-2.699752,0.803375,-0.350638,-0.968616,0.156407,0.146430,0.170844
9025.308000,0.632000,4,END d_bow,Note,50,D3,D,0.366958,0.381417,0.602125,0.160277,-1.663650,-2.084781,1.037295,-2.419852,-0.615294,1.262102,-1.436195,-1.428233,-2.699330,0.743159,-0.530129,-0.484968,0.161644,0.132500,0.166957
9025.316000,0.640000,4,END d_bow,Note,50,D3,D,0.358958,0.381280,0.602615,0.160182,-1.663668,-2.084857,1.037192,-2.419226,-0.614551,1.260859,-1.435845,-1.427814,-2.698891,0.593877,-1.413727,-0.530987,0.180138,0.133502,0.161787
9025.324000,0.648000,4,END d_bow,Note,50,D3,D,0.350958,0.381110,0.603136,0.160042,-1.663664,-2.084842,1.037175,-2.418537,-0.613737,1.259605,-1.435478,-1.427310,-2.698401,0.727201,-1.384142,-0.747331,0.173474,0.138764,0.168133
9025.332000,0.656000,4,END d_bow,Note,50,D3,D,0.342958,0.380947,0.603701,0.159914,-1.663659,-2.084887,1.037136,-2.417811,-0.612856,1.258175,-1.435037,-1.426817,-2.697894,1.034577,-0.939906,-1.388868,0.168778,0.155998,0.173147
9025.340000,0.664000,4,END d_bow,Note,50,D3,D,0.334958,0.380766,0.604298,0.159753,-1.663728,-2.084869,1.037081,-2.417042,-0.611910,1.256708,-1.434641,-1.426259,-2.697297,0.466965,-1.407923,-0.964536,0.172439,0.143546,0.171460
9025.348000,0.672000,4,END d_bow,Note,50,D3,D,0.326958,0.380565,0.604951,0.159596,-1.663766,-2.084863,1.037071,-2.416197,-0.610900,1.255097,-1.434139,-1.425669,-2.696664,0.501689,-1.999277,-0.510178,0.175144,0.126139,0.157475
9025.356000,0.680000,4,END d_bow,Note,50,D3,D,0.318958,0.380360,0.605643,0.159427,-1.663801,-2.084867,1.036996,-2.415308,-0.609814,1.253369,-1.433642,-1.425026,-2.696011,0.860427,-0.800935,-1.277883,0.167056,0.154590,0.178225
9025.364000,0.688000,4,END d_bow,Note,50,D3,D,0.310958,0.380164,0.606358,0.159240,-1.663894,-2.084830,1.036937,-2.414409,-0.608660,1.251550,-1.433119,-1.424367,-2.695302,0.473788,-1.970931,-0.511044,0.176098,0.126721,0.154384
9025.372000,0.696000,4,END d_bow,Note,50,D3,D,0.302958,0.379925,0.607120,0.159012,-1.663953,-2.084770,1.037023,-2.413425,-0.607425,1.249677,-1.432532,-1.423684,-2.694534,0.828999,-1.591087,-1.085941,0.176576,0.142573,0.166966
9025.380000,0.704000,4,END d_bow,Note,50,D3,D,0.294958,0.379657,0.607941,0.158807,-1.664002,-2.084795,1.036981,-2.412352,-0.606155,1.247671,-1.431954,-1.422948,-2.693736,0.535077,-2.054654,-0.708905,0.174471,0.125322,0.152451
9025.388000,0.712000,4,END d_bow,Note,50,D3,D,0.286958,0.379396,0.608820,0.158615,-1.664148,-2.084814,1.036926,-2.411237,-0.604814,1.245464,-1.431285,-1.422200,-2.692838,0.824145,-1.227895,-1.385143,0.171595,0.148542,0.169923
9025.396000,0.720000,4,END d_bow,Note,50,D3,D,0.278958,0.379107,0.609715,0.158370,-1.664191,-2.084795,1.036892,-2.410073,-0.603389,1.243260,-1.430654,-1.421367,-2.691972,0.751135,-1.931976,-0.642938,0.179879,0.123591,0.148421
9025.404000,0.728000,4,END d_bow,Note,50,D3,D,0.270958,0.378843,0.610634,0.158147,-1.664324,-2.084742,1.036847,-2.408915,-0.601936,1.240919,-1.429937,-1.420533,-2.691043,1.060665,-1.721479,-1.160081,0.171923,0.144524,0.144940
9025.412000,0.736000,4,END d_bow,Note,50,D3,D,0.262958,0.378513,0.611632,0.157888,-1.664367,-2.084708,1.036806,-2.407612,-0.600371,1.238469,-1.429215,-1.419588,-2.690076,1.119970,-0.506485,-1.771914,0.151563,0.152222,0.163804
9025.420000,0.744000,4,END d_bow,Note,50,D3,D,0.254958,0.378204,0.612639,0.157615,-1.664426,-2.084749,1.036710,-2.406324,-0.598739,1.235916,-1.428516,-1.418693,-2.689123,1.024004,-0.952048,-1.316639,0.159878,0.139950,0.161366
9025.428000,0.752000,4,END d_bow,Note,50,D3,D,0.246958,0.377838,0.613688,0.157295,-1.664407,-2.084727,1.036838,-2.404940,-0.597034,1.233348,-1.427716,-1.417756,-2.688123,0.915635,-1.654961,-1.319458,0.158307,0.134645,0.150405
9025.436000,0.760000,4,END d_bow,Note,50,D3,D,0.238958,0.377494,0.614779,0.156992,-1.664555,-2.084728,1.036752,-2.403544,-0.595270,1.230605,-1.426982,-1.416786,-2.687021,0.821799,-1.539199,-1.068866,0.155573,0.126236,0.144191
9025.564000,0.888000,4,END d_bow,Note,50,D3,D,0.110958,0.369414,0.636995,0.151284,-1.665314,-2.085357,1.035533,-2.374456,-0.560075,1.174710,-1.410767,-1.396669,-2.665672,0.254355,-2.096248,-0.070255,0.187542,0.127580,0.156707
9025.588000,0.912000,4,END d_bow,Note,50,D3,D,0.086958,0.367347,0.642112,0.149784,-1.665495,-2.085279,1.035599,-2.367697,-0.551689,1.161726,-1.407009,-1.391981,-2.660616,0.593537,-2.456179,-0.872881,0.188005,0.137049,0.145321
9025.596000,0.920000,4,END d_bow,Note,50,D3,D,0.078958,0.366617,0.643895,0.149320,-1.665557,-2.085397,1.035464,-2.365340,-0.548827,1.157148,-1.405726,-1.390397,-2.658886,1.107524,-1.293523,-1.517411,0.159782,0.151678,0.154874
9025.604000,0.928000,4,END d_bow,Note,50,D3,D,0.070958,0.365858,0.645705,0.148842,-1.665596,-2.085517,1.035321,-2.362935,-0.545917,1.152515,-1.404442,-1.388772,-2.657137,1.025721,-1.975118,-0.806906,0.168703,0.132124,0.130113
9025.612000,0.936000,4,END d_bow,Note,50,D3,D,0.062958,0.365053,0.647540,0.148333,-1.665548,-2.085510,1.035364,-2.360467,-0.542963,1.147875,-1.403036,-1.387053,-2.655372,1.066138,-1.955569,-1.071291,0.165259,0.127653,0.128941
9025.620000,0.944000,4,END d_bow,Note,50,D3,D,0.054958,0.364238,0.649398,0.147841,-1.665594,-2.085597,1.035291,-2.357978,-0.539993,1.143147,-1.401687,-1.385375,-2.653543,1.265691,-0.597419,-1.983458,0.140831,0.147071,0.149444
9025.628000,0.952000,4,END d_bow,Note,50,D3,D,0.046958,0.363400,0.651297,0.147322,-1.665604,-2.085599,1.035222,-2.355433,-0.536923,1.138296,-1.400287,-1.383583,-2.651690,1.042841,-1.284951,-1.263824,0.141111,0.118027,0.124147
9025.636000,0.960000,4,END d_bow,Note,50,D3,D,0.038958,0.362504,0.653251,0.146818,-1.665623,-2.085674,1.035102,-2.352790,-0.533829,1.133351,-1.398888,-1.381762,-2.649770,1.299994,0.694410,-1.855486,0.120587,0.145753,0.155053
9025.644000,0.968000,4,END d_bow,Note,50,D3,D,0.030958,0.361640,0.655239,0.146326,-1.665662,-2.085763,1.034874,-2.350150,-0.530635,1.128161,-1.397420,-1.379918,-2.647849,0.706926,-0.677980,-0.490647,0.135746,0.116111,0.147433
9025.652000,0.976000,4,END d_bow,Note,50,D3,D,0.022958,0.360755,0.657230,0.145793,-1.665788,-2.085812,1.034753,-2.347505,-0.527402,1.122986,-1.395963,-1.378112,-2.645840,0.936246,0.297611,-0.969318,0.130152,0.146078,0.177040
9025.660000,0.984000,4,END d_bow,Note,50,D3,D,0.014958,0.359837,0.659241,0.145206,-1.665899,-2.085751,1.034747,-2.344817,-0.524081,1.117791,-1.394479,-1.376230,-2.643787,1.256620,0.603585,-0.662444,0.137134,0.149811,0.193498
9025.668000,0.992000,4,END d_bow,Note,50,D3,D,0.006958,0.358888,0.661270,0.144605,-1.665939,-2.085673,1.034844,-2.342087,-0.520722,1.112543,-1.392906,-1.374326,-2.641743,0.846564,0.353038,-0.908707,0.154824,0.156171,0.201995
9025.676000,1.000000,4,END d_bow,Transition,transition,transition D->A,D-A,0.198958,0.357934,0.663322,0.143978,-1.665905,-2.085592,1.034938,-2.339331,-0.517255,1.107157,-1.391288,-1.372380,-2.639734,1.122144,0.698675,-1.328557,0.168420,0.171100,0.209544
9025.684000,1.008000,4,END d_bow,Transition,transition,transition D->A,D-A,0.190958,0.356912,0.665449,0.143336,-1.665997,-2.085467,1.034971,-2.336462,-0.513713,1.101653,-1.389709,-1.370333,-2.637547,1.134752,0.329125,-1.464125,0.180624,0.172967,0.197391
9025.692000,1.016000,4,END d_bow,Transition,transition,transition D->A,D-A,0.182958,0.355892,0.667592,0.142756,-1.666021,-2.085528,1.034868,-2.333580,-0.510185,1.095993,-1.388078,-1.368350,-2.635434,1.275392,-0.313659,-1.774804,0.181250,0.172505,0.178709
9025.700000,1.024000,4,END d_bow,Transition,transition,transition D->A,D-A,0.174958,0.354775,0.669789,0.142158,-1.666022,-2.085604,1.034838,-2.330567,-0.506628,1.090318,-1.386439,-1.366314,-2.633234,1.189049,-0.599632,-1.566848,0.179259,0.167143,0.162581
9025.708000,1.032000,4,END d_bow,Transition,transition,transition D->A,D-A,0.166958,0.353699,0.671980,0.141566,-1.666106,-2.085595,1.034722,-2.327608,-0.503029,1.084537,-1.384784,-1.364240,-2.631009,1.286425,-0.952116,-1.248565,0.177151,0.156577,0.156772
9025.716000,1.040000,4,END d_bow,Transition,transition,transition D->A,D-A,0.158958,0.352518,0.674231,0.140965,-1.666107,-2.085637,1.034689,-2.324503,-0.499397,1.078711,-1.383086,-1.362114,-2.628733,1.150499,-2.125408,-0.684969,0.163000,0.128013,0.130414
9025.724000,1.048000,4,END d_bow,Transition,transition,transition D->A,D-A,0.150958,0.351320,0.676505,0.140309,-1.666024,-2.085686,1.034828,-2.321365,-0.495628,1.072739,-1.381264,-1.360015,-2.626480,0.772928,-2.266661,-0.882957,0.154844,0.128613,0.127246
9025.732000,1.056000,4,END d_bow,Transition,transition,transition D->A,D-A,0.142958,0.350101,0.678795,0.139574,-1.665967,-2.085784,1.034873,-2.318203,-0.491710,1.066695,-1.379603,-1.357910,-2.624201,0.438676,-0.710071,-1.116050,0.145473,0.141827,0.143840
9025.740000,1.064000,4,END d_bow,Transition,transition,transition D->A,D-A,0.134958,0.348940,0.681004,0.138963,-1.665943,-2.085714,1.034820,-2.315176,-0.488041,1.060820,-1.377870,-1.355734,-2.621986,-0.514254,-1.242584,-0.464015,0.153116,0.106229,0.122342
9025.748000,1.072000,4,END d_bow,Transition,transition,transition D->A,D-A,0.126958,0.347755,0.683188,0.138361,-1.665973,-2.085759,1.034769,-2.312159,-0.484439,1.055036,-1.376211,-1.353678,-2.619747,-0.461264,-1.483567,-0.092936,0.159904,0.109578,0.148951
9025.756000,1.080000,4,END d_bow,Transition,transition,transition D->A,D-A,0.118958,0.346664,0.685308,0.137780,-1.666042,-2.085760,1.034473,-2.309294,-0.480851,1.049246,-1.374657,-1.351607,-2.617606,0.800152,1.265125,-1.380572,0.152117,0.153766,0.182228
9025.764000,1.088000,4,END d_bow,Transition,transition,transition D->A,D-A,0.110958,0.345491,0.687391,0.137167,-1.666061,-2.085651,1.034654,-2.306393,-0.477376,1.043743,-1.372960,-1.349597,-2.615423,1.258754,0.329430,-1.642427,0.163545,0.165214,0.198729
9025.772000,1.096000,4,END d_bow,Transition,transition,transition D->A,D-A,0.102958,0.344363,0.689467,0.136549,-1.666167,-2.085594,1.034553,-2.303550,-0.473831,1.038124,-1.371419,-1.347586,-2.613242,0.541439,0.840610,-1.091409,0.167698,0.156099,0.186493
9025.780000,1.104000,4,END d_bow,Transition,transition,transition D->A,D-A,0.094958,0.343182,0.691516,0.135918,-1.666084,-2.085704,1.034595,-2.300676,-0.470327,1.032616,-1.369862,-1.345686,-2.611185,1.375717,1.012957,-1.262635,0.154536,0.161927,0.188699
9025.788000,1.112000,4,END d_bow,Transition,transition,transition D->A,D-A,0.086958,0.342010,0.693518,0.135308,-1.666044,-2.085629,1.034661,-2.297861,-0.466930,1.027276,-1.368310,-1.343701,-2.609116,1.156810,0.873323,-1.795885,0.152213,0.184133,0.188834
9025.796000,1.120000,4,END d_bow,Transition,transition,transition D->A,D-A,0.078958,0.340836,0.695479,0.134660,-1.665945,-2.085614,1.034897,-2.295082,-0.463527,1.022016,-1.366738,-1.341837,-2.607110,0.853439,-0.277435,-0.673682,0.154153,0.133620,0.179838
9025.804000,1.128000,4,END d_bow,Transition,transition,transition D->A,D-A,0.070958,0.339653,0.697415,0.134063,-1.665896,-2.085554,1.035053,-2.292324,-0.460249,1.016871,-1.365208,-1.339936,-2.605082,0.350566,-0.834052,-0.880640,0.156090,0.151715,0.175480
9025.812000,1.136000,4,END d_bow,Transition,transition,transition D->A,D-A,0.062958,0.338482,0.699308,0.133522,-1.665852,-2.085532,1.035146,-2.289619,-0.457097,1.011829,-1.363698,-1.338080,-2.603098,0.442873,-0.388093,-1.424205,0.145652,0.157781,0.170271
9025.908000,1.232000,4,END d_bow,Note,57,A3,A,0.266958,0.325833,0.719042,0.127492,-1.665428,-2.085433,1.035597,-2.261336,-0.422875,0.957408,-1.348089,-1.318640,-2.582275,0.578500,-0.463984,-0.428376,0.133348,0.117830,0.145978
9025.956000,1.280000,4,END d_bow,Note,57,A3,A,0.218958,0.320389,0.726916,0.124994,-1.665141,-2.085144,1.035923,-2.249832,-0.408845,0.935108,-1.341635,-1.310569,-2.573804,0.588746,-0.185056,-0.956113,0.169522,0.161908,0.186708
9025.964000,1.288000,4,END d_bow,Note,57,A3,A,0.210958,0.319556,0.728110,0.124638,-1.665189,-2.085061,1.035926,-2.248094,-0.406737,0.931698,-1.340659,-1.309331,-2.572452,0.722521,-0.909464,-0.805957,0.170574,0.154661,0.172688
9025.972000,1.296000,4,END d_bow,Note,57,A3,A,0.202958,0.318708,0.729278,0.124245,-1.665127,-2.085040,1.035978,-2.246357,-0.404621,0.928376,-1.339734,-1.308127,-2.571185,0.639773,-0.591582,-1.010982,0.172358,0.155045,0.195616
9025.980000,1.304000,4,END d_bow,Note,57,A3,A,0.194958,0.317904,0.730396,0.123865,-1.665095,-2.084987,1.036058,-2.244706,-0.402576,0.925163,-1.338815,-1.306977,-2.569956,0.608518,-0.921777,-0.489155,0.172587,0.144166,0.187726
9025.988000,1.312000,4,END d_bow,Note,57,A3,A,0.186958,0.317072,0.731495,0.123464,-1.665010,-2.084937,1.036291,-2.243044,-0.400563,0.922064,-1.337873,-1.305859,-2.568750,1.184054,-1.700171,-0.329221,0.189018,0.134918,0.165344
9025.996000,1.320000,4,END d_bow,Note,57,A3,A,0.178958,0.316284,0.732564,0.123080,-1.665000,-2.084854,1.036453,-2.241453,-0.398593,0.919008,-1.336975,-1.304763,-2.567542,1.223604,-0.819018,-0.759776,0.179314,0.148012,0.174813
9026.004000,1.328000,4,END d_bow,Note,57,A3,A,0.170958,0.315511,0.733593,0.122709,-1.664964,-2.084821,1.036603,-2.239908,-0.396696,0.916066,-1.336123,-1.303726,-2.566392,1.406513,-1.784372,-0.592410,0.187791,0.130147,0.148465
9026.012000,1.336000,4,END d_bow,Note,57,A3,A,0.162958,0.314741,0.734598,0.122348,-1.664878,-2.084820,1.036746,-2.238382,-0.394844,0.913195,-1.335293,-1.302708,-2.565298,1.456521,-1.383453,-0.799685,0.184328,0.133682,0.147674
9026.020000,1.344000,4,END d_bow,Note,57,A3,A,0.154958,0.313990,0.735588,0.122056,-1.664836,-2.084861,1.036698,-2.236890,-0.393098,0.910366,-1.334533,-1.301694,-2.564209,1.860423,-1.558236,-0.375862,0.179389,0.110664,0.117901
9026.028000,1.352000,4,END d_bow,Note,57,A3,A,0.146958,0.313305,0.736517,0.121770,-1.664811,-2.084905,1.036649,-2.235510,-0.391413,0.907641,-1.333802,-1.300765,-2.563192,2.408976,-1.628527,-0.389404,0.179062,0.111702,0.098271
9026.036000,1.360000,4,END d_bow,Note,57,A3,A,0.138958,0.312642,0.737408,0.121467,-1.664801,-2.084810,1.036748,-2.234184,-0.389768,0.905040,-1.333026,-1.299816,-2.562183,2.340971,-1.333899,-0.151771,0.173859,0.100350,0.086797
9026.044000,1.368000,4,END d_bow,Note,57,A3,A,0.130958,0.311966,0.738281,0.121214,-1.664715,-2.084809,1.036776,-2.232854,-0.388229,0.902531,-1.332281,-1.298891,-2.561241,2.505978,-1.331753,-0.543261,0.174737,0.101973,0.073893
9026.052000,1.376000,4,END d_bow,Note,57,A3,A,0.122958,0.311338,0.739108,0.120977,-1.664695,-2.084776,1.036800,-2.231612,-0.386767,0.900132,-1.331567,-1.298021,-2.560312,2.586493,-1.789276,0.097534,0.179394,0.087779,0.055161
9026.060000,1.384000,4,END d_bow,Note,57,A3,A,0.114958,0.310728,0.739911,0.120758,-1.664673,-2.084833,1.036776,-2.230407,-0.385349,0.897776,-1.330894,-1.297233,-2.559423,2.884480,-1.242717,-0.326342,0.176514,0.092029,0.061872
9026.068000,1.392000,4,END d_bow,Note,57,A3,A,0.106958,0.310176,0.740667,0.120561,-1.664697,-2.084805,1.036650,-2.229296,-0.384007,0.895526,-1.330291,-1.296416,-2.558567,3.097887,-1.074108,-0.054391,0.181526,0.095678,0.047888
9026.076000,1.400000,4,END d_bow,Note,57,A3,A,0.098958,0.309618,0.741401,0.120352,-1.664662,-2.084758,1.036659,-2.228195,-0.382693,0.893364,-1.329643,-1.295619,-2.557753,3.300584,-1.585203,0.544730,0.188406,0.079791,0.049024
9026.084000,1.408000,4,END d_bow,Note,57,A3,A,0.090958,0.309053,0.742107,0.120131,-1.664632,-2.084742,1.036722,-2.227108,-0.381435,0.891343,-1.329050,-1.294881,-2.556948,3.129494,-1.440051,0.558679,0.201466,0.076428,0.040090
9026.092000,1.416000,4,END d_bow,Note,57,A3,A,0.082958,0.308557,0.742766,0.119923,-1.664583,-2.084713,1.036707,-2.226125,-0.380208,0.889363,-1.328487,-1.294167,-2.556238,3.021267,-0.632474,0.735241,0.198078,0.090550,0.041125
9026.100000,1.424000,4,END d_bow,Note,57,A3,A,0.074958,0.308035,0.743418,0.119674,-1.664535,-2.084675,1.036825,-2.225123,-0.378970,0.887462,-1.327935,-1.293481,-2.555506,3.081850,0.459753,0.293135,0.192920,0.101015,0.060841
9026.108000,1.432000,4,END d_bow,Note,57,A3,A,0.066958,0.307551,0.744028,0.119436,-1.664473,-2.084622,1.036974,-2.224189,-0.377796,0.885660,-1.327376,-1.292835,-2.554833,3.069660,-0.659838,1.146742,0.214031,0.068062,0.030779
9026.116000,1.440000,4,END d_bow,Note,57,A3,A,0.058958,0.307067,0.744614,0.119146,-1.664454,-2.084548,1.037217,-2.223278,-0.376607,0.883963,-1.326882,-1.292236,-2.554137,3.238314,0.276425,0.779678,0.202713,0.080846,0.038142
9026.124000,1.448000,4,END d_bow,Note,57,A3,A,0.050958,0.306624,0.745170,0.118978,-1.664379,-2.084550,1.037189,-2.222424,-0.375594,0.882322,-1.326428,-1.291622,-2.553547,3.329660,-0.440648,1.182195,0.205127,0.069821,0.028362
9026.132000,1.456000,4,END d_bow,Note,57,A3,A,0.042958,0.306228,0.745684,0.118789,-1.664426,-2.084475,1.037304,-2.221656,-0.374616,0.880785,-1.325953,-1.291095,-2.552916,3.791621,-0.278973,0.954877,0.192080,0.071926,0.030181
9026.140000,1.464000,4,END d_bow,Note,57,A3,A,0.034958,0.305860,0.746173,0.118628,-1.664403,-2.084531,1.037224,-2.220929,-0.373677,0.879273,-1.325586,-1.290612,-2.552391,4.174621,-0.929315,1.555652,0.176673,0.057027,0.020556
9026.148000,1.472000,4,END d_bow,Note,57,A3,A,0.026958,0.305504,0.746634,0.118464,-1.664368,-2.084496,1.037250,-2.220235,-0.372791,0.877877,-1.325188,-1.290109,-2.551885,3.904522,-0.158054,1.189000,0.189699,0.065140,0.021032
9026.156000,1.480000,4,END d_bow,Note,57,A3,A,0.018958,0.305150,0.747061,0.118283,-1.664382,-2.084429,1.037405,-2.219572,-0.371968,0.876643,-1.324806,-1.289663,-2.551357,4.892254,-0.608804,1.060197,0.180550,0.063764,0.016464
9026.164000,1.488000,4,END d_bow,Note,57,A3,A,0.010958,0.304852,0.747450,0.118136,-1.664366,-2.084333,1.037399,-2.218989,-0.371205,0.875466,-1.324494,-1.289181,-2.550916,4.115168,0.420298,1.231767,0.190135,0.073944,0.008249
9026.196000,1.520000,4,END d_bow,Note,57,A3,A,0.478958,0.303790,0.748724,0.117654,-1.664266,-2.084227,1.037677,-2.217000,-0.368792,0.871743,-1.323376,-1.287808,-2.549458,4.472813,-0.301027,1.862153,0.198201,0.052138,-0.003404
9026.228000,1.552000,4,END d_bow,Note,57,A3,A,0.446958,0.303097,0.749520,0.117368,-1.664109,-2.084288,1.037851,-2.215725,-0.367313,0.869433,-1.322673,-1.287001,-2.548607,5.374482,-1.470120,2.096125,0.206042,0.045825,-0.006768
9026.292000,1.616000,3,START d_bow,Note,59,B3,A,0.882958,0.302847,0.749616,0.117430,-1.664089,-2.084402,1.037660,-2.215406,-0.367479,0.869641,-1.322923,-1.286804,-2.548398,4.878782,0.087024,1.177651,0.152732,0.019980,-0.050433
9026.316000,1.640000,3,START d_bow,Note,59,B3,A,0.858958,0.303000,0.749118,0.117609,-1.664234,-2.084191,1.037529,-2.215928,-0.368783,0.871929,-1.323874,-1.286983,-2.548667,4.154692,1.218584,1.220876,0.098402,-0.035906,-0.137416
9026.324000,1.648000,3,START d_bow,Note,59,B3,A,0.850958,0.302998,0.748906,0.117653,-1.664215,-2.084132,1.037513,-2.216080,-0.369362,0.873051,-1.324379,-1.287024,-2.548791,4.433552,1.670817,1.329695,0.079164,-0.057111,-0.192035
9026.332000,1.656000,3,START d_bow,Note,59,B3,A,0.842958,0.303027,0.748662,0.117741,-1.664217,-2.084108,1.037421,-2.216287,-0.370040,0.874260,-1.324921,-1.287111,-2.548947,4.064110,2.200719,1.187915,0.065235,-0.082274,-0.231372
9026.340000,1.664000,3,START d_bow,Note,59,B3,A,0.834958,0.303042,0.748381,0.117785,-1.664169,-2.084072,1.037404,-2.216506,-0.370752,0.875668,-1.325561,-1.287206,-2.549147,3.652572,1.771372,1.808819,0.063788,-0.129343,-0.284705
9026.348000,1.672000,3,START d_bow,Note,59,B3,A,0.826958,0.303041,0.748075,0.117828,-1.664090,-2.084037,1.037492,-2.216726,-0.371537,0.877224,-1.326201,-1.287330,-2.549367,3.992623,3.271401,0.937671,0.069667,-0.108955,-0.283605
9026.356000,1.680000,3,START d_bow,Note,59,B3,A,0.818958,0.303055,0.747732,0.117879,-1.664039,-2.083984,1.037473,-2.216989,-0.372407,0.878953,-1.326992,-1.287439,-2.549599,3.843365,3.774935,0.743151,0.089082,-0.107717,-0.301502
9026.364000,1.688000,3,START d_bow,Note,59,B3,A,0.810958,0.303038,0.747364,0.117877,-1.663956,-2.083982,1.037585,-2.217240,-0.373290,0.880844,-1.327854,-1.287618,-2.549847,3.487527,4.085933,0.977458,0.099988,-0.114126,-0.308648
9026.372000,1.696000,3,START d_bow,Note,59,B3,A,0.802958,0.303061,0.746946,0.117863,-1.663937,-2.083877,1.037692,-2.217571,-0.374237,0.882908,-1.328807,-1.287785,-2.550096,3.390491,3.592513,1.103724,0.102290,-0.100142,-0.300722
9026.380000,1.704000,3,START d_bow,Note,59,B3,A,0.794958,0.303028,0.746519,0.117877,-1.663774,-2.083941,1.037792,-2.217847,-0.375279,0.885101,-1.329806,-1.288004,-2.550431,3.215908,3.680172,0.923420,0.105754,-0.081885,-0.299640
9026.388000,1.712000,3,START d_bow,Note,59,B3,A,0.786958,0.303059,0.746051,0.117897,-1.663747,-2.083908,1.037755,-2.218222,-0.376373,0.887393,-1.330936,-1.288207,-2.550732,3.052263,3.253062,1.654081,0.104394,-0.080881,-0.289594
9026.396000,1.720000,3,START d_bow,Note,59,B3,A,0.778958,0.303094,0.745540,0.117970,-1.663710,-2.083894,1.037763,-2.218633,-0.377633,0.889884,-1.332063,-1.288462,-2.551069,2.837108,4.113769,0.574231,0.124224,-0.072177,-0.296862
9026.404000,1.728000,3,START d_bow,Note,59,B3,A,0.770958,0.303103,0.745016,0.118019,-1.663571,-2.083877,1.037773,-2.219022,-0.378903,0.892477,-1.333257,-1.288667,-2.551466,2.551732,3.335057,1.860150,0.137326,-0.063927,-0.263483
9026.412000,1.736000,3,START d_bow,Note,59,B3,A,0.762958,0.303160,0.744440,0.118083,-1.663522,-2.083867,1.037791,-2.219504,-0.380269,0.895217,-1.334504,-1.288973,-2.551865,2.493049,2.517303,1.842353,0.142473,-0.066512,-0.263515
9026.420000,1.744000,3,START d_bow,Note,59,B3,A,0.754958,0.303225,0.743835,0.118139,-1.663478,-2.083834,1.037757,-2.220014,-0.381676,0.898077,-1.335854,-1.289263,-2.552282,2.651792,3.628159,1.216278,0.138336,-0.047247,-0.257823
9026.428000,1.752000,3,START d_bow,Note,59,B3,A,0.746958,0.303285,0.743200,0.118247,-1.663395,-2.083839,1.037610,-2.220541,-0.383220,0.901099,-1.337294,-1.289542,-2.552750,2.222661,2.845151,1.729196,0.148490,-0.051645,-0.252113
9026.436000,1.760000,3,START d_bow,Note,59,B3,A,0.738958,0.303345,0.742517,0.118290,-1.663348,-2.083741,1.037709,-2.221107,-0.384793,0.904340,-1.338749,-1.289862,-2.553199,2.711809,3.305780,1.441668,0.150667,-0.053708,-0.253588
9026.444000,1.768000,3,START d_bow,Note,59,B3,A,0.730958,0.303388,0.741818,0.118341,-1.663266,-2.083654,1.037767,-2.221667,-0.386422,0.907691,-1.340278,-1.290160,-2.553671,2.378332,3.404480,1.398602,0.159043,-0.034381,-0.259397
9026.452000,1.776000,3,START d_bow,Note,59,B3,A,0.722958,0.303439,0.741067,0.118394,-1.663162,-2.083584,1.037880,-2.222273,-0.388154,0.911249,-1.341863,-1.290516,-2.554196,2.374530,2.755727,1.518940,0.142058,-0.040701,-0.246822
9026.460000,1.784000,3,START d_bow,Note,59,B3,A,0.714958,0.303478,0.740287,0.118480,-1.663012,-2.083502,1.038051,-2.222889,-0.390003,0.914961,-1.343433,-1.290875,-2.554759,2.187752,2.629569,1.473240,0.161543,-0.049007,-0.274458
9026.468000,1.792000,3,START d_bow,Note,59,B3,A,0.706958,0.303553,0.739483,0.118550,-1.662948,-2.083429,1.038054,-2.223563,-0.391844,0.918712,-1.345169,-1.291250,-2.555308,2.538229,2.518957,1.114268,0.161803,-0.033063,-0.268912
9026.476000,1.800000,3,START d_bow,Note,59,B3,A,0.698958,0.303630,0.738649,0.118666,-1.662891,-2.083360,1.038002,-2.224261,-0.393809,0.922602,-1.346953,-1.291626,-2.555873,1.867316,2.627042,1.440834,0.164627,-0.044122,-0.267651
9026.484000,1.808000,3,START d_bow,Note,59,B3,A,0.690958,0.303716,0.737785,0.118791,-1.662802,-2.083315,1.038032,-2.224991,-0.395833,0.926583,-1.348707,-1.292063,-2.556486,2.184910,1.750678,1.346847,0.144146,-0.040110,-0.260658
9026.492000,1.816000,3,START d_bow,Note,59,B3,A,0.682958,0.303769,0.736888,0.118910,-1.662654,-2.083291,1.038035,-2.225711,-0.397942,0.930771,-1.350591,-1.292482,-2.557138,2.555498,2.580479,0.734914,0.163109,-0.029715,-0.274826
9026.500000,1.824000,3,START d_bow,Note,59,B3,A,0.674958,0.303875,0.735951,0.119060,-1.662604,-2.083292,1.037821,-2.226521,-0.400122,0.935037,-1.352634,-1.292935,-2.557795,2.847028,2.372502,1.139974,0.161405,-0.037794,-0.272675
9026.508000,1.832000,3,START d_bow,Note,59,B3,A,0.666958,0.303980,0.734980,0.119234,-1.662549,-2.083264,1.037738,-2.227357,-0.402413,0.939454,-1.354621,-1.293430,-2.558468,2.627257,1.063877,1.150221,0.159275,-0.035521,-0.260944
9026.516000,1.840000,3,START d_bow,Note,59,B3,A,0.658958,0.304027,0.733989,0.119376,-1.662420,-2.083178,1.037698,-2.228146,-0.404749,0.944075,-1.356716,-1.293834,-2.559153,2.956948,1.927199,0.921723,0.164924,-0.029078,-0.266223
9026.548000,1.872000,3,START d_bow,Note,59,B3,A,0.626958,0.304326,0.730278,0.119844,-1.661929,-2.082919,1.037710,-2.231243,-0.413164,0.960821,-1.364219,-1.295557,-2.561830,2.480659,1.640788,1.036718,0.181950,-0.022909,-0.257228
9026.612000,1.936000,3,START d_bow,Note,59,B3,A,0.562958,0.304823,0.724316,0.120410,-1.661278,-2.082187,1.038269,-2.236296,-0.426160,0.987095,-1.375789,-1.298365,-2.566021,2.391339,0.668456,1.206069,0.196585,-0.015401,-0.261121
9026.644000,1.968000,3,START d_bow,Note,59,B3,A,0.530958,0.305084,0.722125,0.120840,-1.661213,-2.082075,1.037868,-2.238253,-0.431100,0.996488,-1.380060,-1.299434,-2.567547,2.316189,0.947077,1.638952,0.205539,-0.016968,-0.256870
9026.660000,1.984000,3,START d_bow,Note,59,B3,A,0.514958,0.305126,0.721226,0.120964,-1.661087,-2.082005,1.037954,-2.238989,-0.433102,1.000429,-1.381748,-1.299865,-2.568184,1.976994,1.267805,1.428832,0.217259,-0.019959,-0.255925
9026.668000,1.992000,3,START d_bow,Note,59,B3,A,0.506958,0.305171,0.720814,0.121041,-1.661054,-2.082003,1.037818,-2.239352,-0.434016,1.002183,-1.382592,-1.300049,-2.568488,2.053063,1.468389,1.321435,0.205131,-0.015155,-0.236734
9026.676000,2.000000,3,START d_bow,Note,59,B3,A,0.498958,0.305180,0.720445,0.121072,-1.660964,-2.081955,1.037870,-2.239644,-0.434808,1.003801,-1.383291,-1.300197,-2.568768,2.172213,1.758134,1.626182,0.201893,-0.024659,-0.248179
9026.684000,2.008000,3,START d_bow,Note,59,B3,A,0.490958,0.305209,0.720088,0.121080,-1.660929,-2.081836,1.038034,-2.239951,-0.435535,1.005330,-1.383894,-1.300357,-2.569005,1.683339,1.878835,1.545970,0.202968,-0.021734,-0.244496
9026.692000,2.016000,3,START d_bow,Note,59,B3,A,0.482958,0.305206,0.719783,0.121071,-1.660852,-2.081828,1.038106,-2.240184,-0.436146,1.006672,-1.384511,-1.300509,-2.569233,1.935924,1.454514,1.602333,0.194997,-0.020184,-0.243671
9026.700000,2.024000,3,START d_bow,Note,59,B3,A,0.474958,0.305229,0.719506,0.121082,-1.660828,-2.081812,1.038185,-2.240424,-0.436709,1.007842,-1.385010,-1.300680,-2.569425,1.881122,1.260753,1.555331,0.203785,-0.016177,-0.248904
9026.708000,2.032000,3,START d_bow,Note,59,B3,A,0.466958,0.305262,0.719264,0.121098,-1.660826,-2.081771,1.038162,-2.240645,-0.437197,1.008847,-1.385488,-1.300787,-2.569590,1.984174,1.676589,1.244800,0.204098,-0.012922,-0.251661
9026.716000,2.040000,3,START d_bow,Note,59,B3,A,0.458958,0.305241,0.719063,0.121105,-1.660759,-2.081748,1.038245,-2.240779,-0.437640,1.009780,-1.385876,-1.300867,-2.569734,1.943217,3.069046,1.026726,0.205075,-0.003373,-0.246983
9026.724000,2.048000,3,START d_bow,Note,59,B3,A,0.450958,0.305289,0.718868,0.121115,-1.660780,-2.081698,1.038224,-2.240981,-0.438008,1.010543,-1.386239,-1.300963,-2.569866,1.863075,1.543409,1.432077,0.203724,-0.016039,-0.251889
9026.732000,2.056000,3,START d_bow,Note,59,B3,A,0.442958,0.305291,0.718739,0.121134,-1.660761,-2.081711,1.038189,-2.241082,-0.438296,1.011112,-1.386519,-1.301023,-2.569959,1.836552,1.977361,1.253431,0.207135,-0.012479,-0.253933
9026.740000,2.064000,3,START d_bow,Note,59,B3,A,0.434958,0.305309,0.718618,0.121159,-1.660751,-2.081666,1.038190,-2.241194,-0.438564,1.011616,-1.386719,-1.301059,-2.570046,2.012639,2.049062,1.427919,0.209372,-0.016924,-0.255531
9026.748000,2.072000,3,START d_bow,Note,59,B3,A,0.426958,0.305315,0.718542,0.121182,-1.660790,-2.081645,1.038150,-2.241262,-0.438755,1.011963,-1.386893,-1.301086,-2.570067,1.982196,1.197609,1.725940,0.202896,-0.018271,-0.239220
9026.756000,2.080000,3,START d_bow,Note,59,B3,A,0.418958,0.305277,0.718515,0.121182,-1.660791,-2.081648,1.038224,-2.241246,-0.438856,1.012171,-1.386958,-1.301105,-2.570051,1.882584,1.416337,1.677657,0.201414,-0.019752,-0.241708
9026.764000,2.088000,3,START d_bow,Note,59,B3,A,0.410958,0.305260,0.718518,0.121190,-1.660778,-2.081645,1.038269,-2.241227,-0.438880,1.012196,-1.386931,-1.301102,-2.570044,1.885743,1.132031,1.654806,0.211282,-0.012812,-0.244093
9026.772000,2.096000,4,END d_bow,Note,59,B3,A,0.402958,0.305250,0.718529,0.121186,-1.660770,-2.081662,1.038215,-2.241207,-0.438859,1.012171,-1.386965,-1.301080,-2.570039,2.302316,2.131159,1.298336,0.197422,-0.004317,-0.238626
9026.780000,2.104000,4,END d_bow,Note,59,B3,A,0.394958,0.305222,0.718540,0.121183,-1.660704,-2.081662,1.038305,-2.241167,-0.438856,1.012167,-1.386898,-1.301064,-2.570055,1.533012,1.857453,1.160883,0.195805,-0.000559,-0.222405
9026.788000,2.112000,4,END d_bow,Note,59,B3,A,0.386958,0.305197,0.718554,0.121182,-1.660698,-2.081704,1.038325,-2.241132,-0.438852,1.012159,-1.386896,-1.301080,-2.570036,2.318051,1.934653,1.461344,0.198494,-0.013428,-0.234735
9026.796000,2.120000,3,START d_bow,Note,59,B3,A,0.878958,0.305213,0.718544,0.121161,-1.660719,-2.081662,1.038384,-2.241157,-0.438828,1.012163,-1.386879,-1.301091,-2.570032,1.960856,1.537941,1.512562,0.194629,-0.011151,-0.239389
9026.804000,2.128000,3,START d_bow,Note,59,B3,A,0.870958,0.305176,0.718614,0.121166,-1.660634,-2.081788,1.038328,-2.241060,-0.438712,1.011905,-1.386796,-1.301080,-2.570039,2.410425,0.709226,1.736771,0.208190,-0.009801,-0.239089
9026.812000,2.136000,3,START d_bow,Note,59,B3,A,0.862958,0.305136,0.718698,0.121109,-1.660582,-2.081839,1.038402,-2.240953,-0.438489,1.011590,-1.386676,-1.301059,-2.570000,2.414525,0.711326,1.843621,0.206343,-0.004002,-0.224629
9026.820000,2.144000,3,START d_bow,Note,59,B3,A,0.854958,0.305153,0.718791,0.121087,-1.660623,-2.081828,1.038383,-2.240898,-0.438253,1.011147,-1.386500,-1.301020,-2.569927,1.945348,0.496019,1.698320,0.222208,0.007951,-0.194693
9026.828000,2.152000,3,START d_bow,Note,59,B3,A,0.846958,0.305106,0.718939,0.121043,-1.660613,-2.081971,1.038367,-2.240736,-0.437923,1.010561,-1.386317,-1.301019,-2.569828,2.874912,1.075877,1.147466,0.226606,0.042305,-0.151815
9026.836000,2.160000,3,START d_bow,Note,59,B3,A,0.838958,0.305094,0.719100,0.121015,-1.660600,-2.081962,1.038400,-2.240597,-0.437563,1.009871,-1.385987,-1.300924,-2.569732,2.416266,0.327846,1.090270,0.241659,0.059038,-0.122176
9026.844000,2.168000,3,START d_bow,Note,59,B3,A,0.830958,0.305093,0.719291,0.121029,-1.660599,-2.082107,1.038202,-2.240445,-0.437176,1.009010,-1.385700,-1.300867,-2.569643,2.685038,-0.977020,1.862843,0.276744,0.065394,-0.099751
9026.852000,2.176000,3,START d_bow,Note,59,B3,A,0.822958,0.305066,0.719516,0.120993,-1.660630,-2.082111,1.038255,-2.240245,-0.436694,1.008071,-1.385259,-1.300765,-2.569467,2.549435,-1.232597,1.649655,0.293718,0.093415,-0.045399
9026.860000,2.184000,3,START d_bow,Note,59,B3,A,0.814958,0.305030,0.719782,0.120972,-1.660595,-2.082283,1.038171,-2.239999,-0.436135,1.006934,-1.384812,-1.300697,-2.569330,3.087345,-0.607979,0.508267,0.301524,0.155729,0.011001
9026.868000,2.192000,3,START d_bow,Note,59,B3,A,0.806958,0.305041,0.720059,0.120942,-1.660638,-2.082306,1.038182,-2.239795,-0.435509,1.005666,-1.384220,-1.300596,-2.569146,3.382326,-0.705009,0.653312,0.297454,0.163589,0.059462
9026.996000,2.320000,3,START d_bow,Note,59,B3,A,0.678958,0.304492,0.729021,0.119979,-1.661904,-2.082681,1.037905,-2.232372,-0.415911,0.966307,-1.366549,-1.296187,-2.562665,3.057499,-2.669607,1.469848,0.263099,0.117639,0.047796
9027.028000,2.352000,3,START d_bow,Note,59,B3,A,0.646958,0.304188,0.732556,0.119466,-1.662289,-2.082847,1.038079,-2.229390,-0.407860,0.950473,-1.359401,-1.294496,-2.560139,2.595292,-2.063481,1.397853,0.248954,0.106786,0.036353
9027.036000,2.360000,3,START d_bow,Note,59,B3,A,0.638958,0.304098,0.733540,0.119331,-1.662361,-2.082921,1.038112,-2.228557,-0.405604,0.946014,-1.357382,-1.294030,-2.559463,2.980034,-1.176921,0.685960,0.238857,0.136000,0.040696
9027.044000,2.368000,3,START d_bow,Note,59,B3,A,0.630958,0.304043,0.734542,0.119198,-1.662504,-2.082955,1.038113,-2.227750,-0.403276,0.941392,-1.355299,-1.293560,-2.558750,2.663776,-1.762219,1.413587,0.237626,0.111208,0.040408
9027.052000,2.376000,3,START d_bow,Note,59,B3,A,0.622958,0.303958,0.735515,0.119061,-1.662579,-2.083122,1.037965,-2.226931,-0.401007,0.936929,-1.353422,-1.293117,-2.558100,3.546006,0.404499,0.528117,0.222550,0.139798,0.064449
9027.060000,2.384000,3,START d_bow,Note,59,B3,A,0.614958,0.303894,0.736440,0.118925,-1.662686,-2.083069,1.038184,-2.226177,-0.398841,0.932647,-1.351338,-1.292678,-2.557436,2.926537,0.032487,0.665789,0.230331,0.139226,0.063886
9027.068000,2.392000,3,START d_bow,Note,59,B3,A,0.606958,0.303841,0.737340,0.118793,-1.662801,-2.083170,1.038099,-2.225450,-0.396697,0.928428,-1.349520,-1.292278,-2.556815,3.187388,0.258350,0.642405,0.230626,0.140626,0.066212
9027.076000,2.400000,3,START d_bow,Note,59,B3,A,0.598958,0.303768,0.738195,0.118618,-1.662862,-2.083143,1.038299,-2.224738,-0.394613,0.924441,-1.347648,-1.291868,-2.556221,3.166510,-0.140350,0.329068,0.230921,0.156695,0.076393
9027.084000,2.408000,3,START d_bow,Note,59,B3,A,0.590958,0.303697,0.739034,0.118469,-1.662956,-2.083094,1.038470,-2.224043,-0.392600,0.920536,-1.345804,-1.291450,-2.555614,2.494810,-1.386502,1.555046,0.236357,0.113323,0.048169
9027.092000,2.416000,3,START d_bow,Note,59,B3,A,0.582958,0.303594,0.739855,0.118325,-1.663003,-2.083228,1.038491,-2.223330,-0.390643,0.916746,-1.344146,-1.291102,-2.555052,2.689161,-0.177562,0.830870,0.225419,0.131096,0.057918
9027.100000,2.424000,3,START d_bow,Note,59,B3,A,0.574958,0.303537,0.740635,0.118241,-1.663105,-2.083282,1.038539,-2.222695,-0.388821,0.913063,-1.342425,-1.290770,-2.554500,2.793875,-0.210980,0.726472,0.205178,0.128737,0.070180
9027.108000,2.432000,3,START d_bow,Note,59,B3,A,0.566958,0.303494,0.741405,0.118238,-1.663262,-2.083459,1.038286,-2.222084,-0.387113,0.909414,-1.340851,-1.290467,-2.553948,3.420455,-0.608494,1.077580,0.206020,0.119989,0.061640
9027.116000,2.440000,3,START d_bow,Note,59,B3,A,0.558958,0.303460,0.742126,0.118219,-1.663378,-2.083509,1.038036,-2.221516,-0.385477,0.905980,-1.339371,-1.290073,-2.553448,3.022828,-0.025652,0.908762,0.197183,0.117842,0.064004
9027.124000,2.448000,3,START d_bow,Note,59,B3,A,0.550958,0.303399,0.742822,0.118223,-1.663429,-2.083649,1.037850,-2.220938,-0.383943,0.902693,-1.337899,-1.289750,-2.552995,2.923760,0.013787,1.137288,0.186988,0.120182,0.065780
9027.132000,2.456000,3,START d_bow,Note,59,B3,A,0.542958,0.303368,0.743472,0.118191,-1.663491,-2.083720,1.037744,-2.220426,-0.382430,0.899545,-1.336470,-1.289447,-2.552573,2.715482,-0.641634,1.780675,0.200386,0.101710,0.044777
9027.140000,2.464000,3,START d_bow,Note,59,B3,A,0.534958,0.303317,0.744106,0.118158,-1.663608,-2.083853,1.037592,-2.219910,-0.380976,0.896523,-1.335165,-1.289194,-2.552114,2.795984,-1.147804,1.981647,0.203985,0.094224,0.039015
9027.148000,2.472000,3,START d_bow,Note,59,B3,A,0.526958,0.303281,0.744689,0.118064,-1.663682,-2.083824,1.037693,-2.219446,-0.379535,0.893693,-1.333823,-1.288919,-2.551701,2.473283,-1.114124,1.997359,0.203233,0.093497,0.060896
9027.156000,2.480000,3,START d_bow,Note,59,B3,A,0.518958,0.303208,0.745245,0.117956,-1.663690,-2.083885,1.037785,-2.218963,-0.378160,0.891046,-1.332607,-1.288680,-2.551332,2.713657,-1.263637,2.108410,0.206900,0.099275,0.061938
9027.164000,2.488000,3,START d_bow,Note,59,B3,A,0.510958,0.303133,0.745780,0.117844,-1.663708,-2.083897,1.037976,-2.218496,-0.376838,0.888513,-1.331380,-1.288449,-2.550960,2.688235,-1.719345,1.924792,0.212938,0.099174,0.060923
9027.172000,2.496000,3,START d_bow,Note,59,B3,A,0.502958,0.303055,0.746287,0.117720,-1.663733,-2.083994,1.038036,-2.218046,-0.375556,0.886111,-1.330343,-1.288256,-2.550608,3.096554,-1.836731,2.115388,0.200968,0.106736,0.075748
9027.180000,2.504000,3,START d_bow,Note,59,B3,A,0.494958,0.303035,0.746739,0.117631,-1.663764,-2.083979,1.038093,-2.217695,-0.374385,0.883854,-1.329298,-1.288038,-2.550314,2.483398,-1.891207,2.190583,0.202134,0.097055,0.075721
9027.188000,2.512000,3,START d_bow,Note,59,B3,A,0.486958,0.303010,0.747182,0.117574,-1.663812,-2.084011,1.037935,-2.217344,-0.373287,0.881681,-1.328418,-1.287788,-2.550022,3.048088,-0.188774,1.705536,0.203277,0.112204,0.070621
9027.196000,2.520000,3,START d_bow,Note,59,B3,A,0.478958,0.302980,0.747579,0.117496,-1.663852,-2.084039,1.038010,-2.217024,-0.372272,0.879719,-1.327506,-1.287636,-2.549750,2.574749,-0.111376,1.827508,0.185029,0.109611,0.083801
9027.204000,2.528000,3,START d_bow,Note,59,B3,A,0.470958,0.302932,0.747973,0.117462,-1.663887,-2.084156,1.037879,-2.216688,-0.371337,0.877823,-1.326732,-1.287472,-2.549487,2.785010,-0.995809,2.271198,0.169505,0.102553,0.086368
9027.212000,2.536000,3,START d_bow,Note,59,B3,A,0.462958,0.302930,0.748282,0.117399,-1.663911,-2.084119,1.037980,-2.216460,-0.370518,0.876236,-1.325947,-1.287332,-2.549289,3.223468,0.776050,0.787191,0.180986,0.133087,0.080895
9027.220000,2.544000,3,START d_bow,Note,59,B3,A,0.454958,0.302881,0.748602,0.117357,-1.663884,-2.084178,1.037961,-2.216174,-0.369744,0.874704,-1.325266,-1.287172,-2.549100,3.052472,0.186330,1.377211,0.176913,0.125942,0.085860
9027.228000,2.552000,3,START d_bow,Note,59,B3,A,0.446958,0.302882,0.748862,0.117346,-1.663981,-2.084183,1.037915,-2.215988,-0.369120,0.873394,-1.324675,-1.287068,-2.548889,2.518446,-0.816455,1.957006,0.183909,0.100080,0.073290
9027.292000,2.616000,4,END d_bow,Note,59,B3,A,0.382958,0.302808,0.749829,0.117245,-1.664046,-2.084387,1.037935,-2.215211,-0.366737,0.868559,-1.322434,-1.286744,-2.548271,2.771335,-1.192132,2.166572,0.201172,0.098022,0.057835
9027.364000,2.688000,103,START d_to_a,Note,57,A3,A,1.310958,0.304139,0.749877,0.117964,-1.664389,-2.084011,1.037605,-2.216494,-0.366063,0.865002,-1.319501,-1.287309,-2.548971,0.939448,-0.074415,1.835416,0.024728,-0.002369,-0.085665
9027.380000,2.704000,103,START d_to_a,Note,57,A3,A,1.294958,0.305112,0.749902,0.118368,-1.664415,-2.083855,1.037700,-2.217430,-0.365360,0.862275,-1.317191,-1.287865,-2.549651,0.390551,0.029801,1.354987,0.028512,0.010235,-0.073588
9027.388000,2.712000,103,START d_to_a,Note,57,A3,A,1.286958,0.305653,0.749939,0.118605,-1.664409,-2.083834,1.037822,-2.217933,-0.364922,0.860607,-1.315770,-1.288235,-2.550036,-0.010486,0.209977,1.339494,0.029008,0.011631,-0.067076
9027.396000,2.720000,103,START d_to_a,Note,57,A3,A,1.278958,0.306248,0.749974,0.118898,-1.664370,-2.083797,1.037949,-2.218489,-0.364494,0.858803,-1.314176,-1.288617,-2.550484,-0.275982,-0.072289,0.986364,0.034029,0.016447,-0.068128
9027.404000,2.728000,103,START d_to_a,Note,57,A3,A,1.270958,0.306882,0.750044,0.119291,-1.664287,-2.083976,1.037852,-2.219052,-0.364042,0.856676,-1.312459,-1.289091,-2.551004,-0.416047,0.173708,1.027398,0.036055,0.010394,-0.071539
9027.412000,2.736000,103,START d_to_a,Note,57,A3,A,1.262958,0.307658,0.750078,0.119688,-1.664303,-2.084015,1.037808,-2.219785,-0.363524,0.854380,-1.310567,-1.289617,-2.551560,-0.241458,0.197745,0.408870,0.030361,0.002828,-0.067392
9027.420000,2.744000,103,START d_to_a,Note,57,A3,A,1.254958,0.308469,0.750143,0.120095,-1.664270,-2.084053,1.037895,-2.220527,-0.362887,0.851788,-1.308400,-1.290180,-2.552157,-0.549094,-0.390253,0.259492,0.025061,-0.013275,-0.058621
9027.428000,2.752000,103,START d_to_a,Note,57,A3,A,1.246958,0.309328,0.750202,0.120525,-1.664208,-2.084163,1.037843,-2.221318,-0.362216,0.849075,-1.306231,-1.290775,-2.552826,-0.338919,-0.451511,-0.146139,0.010512,-0.021052,-0.061461
9027.436000,2.760000,103,START d_to_a,Note,57,A3,A,1.238958,0.310297,0.750240,0.120970,-1.664161,-2.084135,1.038097,-2.222232,-0.361478,0.846143,-1.303665,-1.291455,-2.553550,-0.837534,-0.721961,-0.421187,-0.003792,-0.017387,-0.055619
9027.444000,2.768000,103,START d_to_a,Note,57,A3,A,1.230958,0.311334,0.750296,0.121483,-1.664138,-2.084183,1.038046,-2.223197,-0.360694,0.842945,-1.301085,-1.292134,-2.554315,-0.637052,-0.227335,-0.624899,-0.026665,-0.019034,-0.050871
9027.452000,2.776000,103,START d_to_a,Note,57,A3,A,1.222958,0.312436,0.750338,0.122011,-1.664112,-2.084236,1.038155,-2.224235,-0.359868,0.839593,-1.298278,-1.292922,-2.555132,-0.247047,-1.200599,-0.615100,-0.037207,-0.024504,-0.052396
9027.460000,2.784000,103,START d_to_a,Note,57,A3,A,1.214958,0.313652,0.750365,0.122549,-1.664152,-2.084130,1.038243,-2.225396,-0.358950,0.836024,-1.295317,-1.293678,-2.555977,-0.488723,-1.858107,-0.486386,-0.049961,-0.031552,-0.056338
9027.468000,2.792000,103,START d_to_a,Note,57,A3,A,1.206958,0.314911,0.750409,0.123140,-1.664087,-2.084164,1.038309,-2.226578,-0.357964,0.832161,-1.292143,-1.294522,-2.556933,-0.388687,-1.351251,-0.686039,-0.066544,-0.037343,-0.047686
9027.476000,2.800000,103,START d_to_a,Note,57,A3,A,1.198958,0.316255,0.750455,0.123808,-1.664086,-2.084112,1.038382,-2.227842,-0.356973,0.828068,-1.288722,-1.295375,-2.557894,-0.641193,-1.512723,-0.893678,-0.066019,-0.025217,-0.042630
9027.484000,2.808000,103,START d_to_a,Note,57,A3,A,1.190958,0.317528,0.750539,0.124453,-1.664042,-2.084253,1.038174,-2.229002,-0.355904,0.823906,-1.285541,-1.296202,-2.558839,-0.189072,-2.142930,0.061977,-0.062062,-0.027904,-0.034779
9027.492000,2.816000,103,START d_to_a,Note,57,A3,A,1.182958,0.318703,0.750618,0.125102,-1.663938,-2.084367,1.038379,-2.230071,-0.354972,0.819990,-1.282204,-1.297074,-2.559740,0.661902,-3.409288,-0.021617,-0.062329,-0.025536,-0.018216
9027.500000,2.824000,103,START d_to_a,Note,57,A3,A,1.174958,0.319924,0.750655,0.125709,-1.663982,-2.084348,1.038082,-2.231215,-0.354038,0.816249,-1.279359,-1.297754,-2.560593,0.389497,-2.174347,-0.084349,-0.049821,-0.016220,-0.020254
9027.508000,2.832000,103,START d_to_a,Note,57,A3,A,1.166958,0.321045,0.750698,0.126273,-1.663951,-2.084311,1.038152,-2.232256,-0.353146,0.812694,-1.276422,-1.298456,-2.561406,0.315685,-2.608835,-0.308291,-0.038395,-0.018583,-0.031652
9027.516000,2.840000,103,START d_to_a,Note,57,A3,A,1.158958,0.322111,0.750736,0.126794,-1.663982,-2.084329,1.038090,-2.233250,-0.352280,0.809325,-1.273768,-1.299145,-2.562148,0.082090,-1.475365,-0.295511,-0.024917,-0.009927,-0.020156
9027.524000,2.848000,103,START d_to_a,Note,57,A3,A,1.150958,0.323095,0.750772,0.127284,-1.663974,-2.084349,1.038052,-2.234164,-0.351469,0.806171,-1.271266,-1.299776,-2.562856,0.342895,-1.979751,0.056308,-0.009562,-0.017436,-0.032740
9027.532000,2.856000,103,START d_to_a,Note,57,A3,A,1.142958,0.323951,0.750826,0.127730,-1.663901,-2.084373,1.038142,-2.234937,-0.350716,0.803259,-1.268880,-1.300338,-2.563501,0.399310,-2.073691,0.085587,0.004110,-0.009956,-0.038101
9027.540000,2.864000,103,START d_to_a,Note,57,A3,A,1.134958,0.324786,0.750869,0.128168,-1.663868,-2.084403,1.038085,-2.235699,-0.350007,0.800484,-1.266693,-1.300857,-2.564114,-0.152609,-1.538596,0.171050,0.011561,-0.009811,-0.037883
9027.548000,2.872000,103,START d_to_a,Note,57,A3,A,1.126958,0.325577,0.750893,0.128538,-1.663899,-2.084375,1.038102,-2.236438,-0.349324,0.797949,-1.264683,-1.301360,-2.564651,0.089921,-1.826614,0.326401,0.027233,-0.010730,-0.055565
9027.556000,2.880000,103,START d_to_a,Note,57,A3,A,1.118958,0.326311,0.750920,0.128860,-1.663935,-2.084342,1.038066,-2.237117,-0.348643,0.795564,-1.262869,-1.301802,-2.565140,0.523613,-1.412982,-0.095217,0.033603,0.006098,-0.048840
9027.564000,2.888000,103,START d_to_a,Note,57,A3,A,1.110958,0.326983,0.750923,0.129137,-1.663969,-2.084259,1.038185,-2.237757,-0.348055,0.793488,-1.261169,-1.302230,-2.565588,0.727040,-1.527049,-0.174641,0.038269,0.004432,-0.062740
9027.572000,2.896000,103,START d_to_a,Note,57,A3,A,1.102958,0.327564,0.750940,0.129380,-1.663964,-2.084205,1.038305,-2.238297,-0.347503,0.791595,-1.259629,-1.302601,-2.565993,0.293673,-2.008497,0.343239,0.043420,-0.012867,-0.072615
9027.636000,2.960000,103,START d_to_a,Note,57,A3,A,1.038958,0.329744,0.751042,0.130470,-1.664175,-2.084148,1.037969,-2.240297,-0.345567,0.784347,-1.254174,-1.303883,-2.567369,0.454560,-1.336426,-0.121342,0.026923,0.002224,-0.047780
9027.708000,3.032000,103,START d_to_a,Note,57,A3,A,0.966958,0.327979,0.753462,0.128850,-1.656932,-2.105207,1.060208,-2.236875,-0.336312,0.765412,-1.234093,-1.324815,-2.571093,0.319643,-0.615880,0.053087,0.054695,-0.008039,-0.070982
9027.716000,3.040000,103,START d_to_a,Note,57,A3,A,0.958958,0.327644,0.753971,0.128414,-1.655260,-2.109908,1.065621,-2.236193,-0.334091,0.761017,-1.229323,-1.329712,-2.571937,-0.020593,-0.615033,-0.013120,0.060260,-0.004858,-0.073770
9027.724000,3.048000,103,START d_to_a,Note,57,A3,A,0.950958,0.327275,0.754540,0.127976,-1.653356,-2.115289,1.071631,-2.235435,-0.331638,0.756028,-1.223948,-1.335278,-2.572893,-0.213122,-0.655481,-0.332752,0.047971,-0.007007,-0.090201
9027.732000,3.056000,103,START d_to_a,Note,57,A3,A,0.942958,0.326883,0.755163,0.127533,-1.651356,-2.121197,1.078100,-2.234620,-0.328976,0.750520,-1.218104,-1.341391,-2.573863,-0.689268,-0.525472,-0.031645,0.043214,-0.013314,-0.092185
9027.740000,3.064000,103,START d_to_a,Note,57,A3,A,0.934958,0.326445,0.755848,0.127084,-1.649099,-2.127683,1.084870,-2.233710,-0.326080,0.744480,-1.211881,-1.347960,-2.574944,-0.412660,0.032504,0.239673,0.028528,-0.021911,-0.101702
9027.748000,3.072000,103,START d_to_a,Note,57,A3,A,0.926958,0.325962,0.756581,0.126623,-1.646591,-2.134666,1.092379,-2.232720,-0.322983,0.737941,-1.204997,-1.355099,-2.576096,0.012008,-0.496411,0.155752,0.018217,-0.035289,-0.098598
9027.756000,3.080000,103,START d_to_a,Note,57,A3,A,0.918958,0.325456,0.757369,0.126055,-1.644110,-2.141547,1.099986,-2.231670,-0.319595,0.731089,-1.198048,-1.362171,-2.577118,0.617247,-0.530317,0.371528,0.004987,-0.041004,-0.099951
9027.764000,3.088000,103,START d_to_a,Note,57,A3,A,0.910958,0.324861,0.758216,0.125426,-1.641423,-2.148482,1.108115,-2.230487,-0.316014,0.723955,-1.190699,-1.369345,-2.578108,-0.914305,-0.823093,0.880128,-0.012375,-0.039057,-0.086601
9027.772000,3.096000,103,START d_to_a,Note,57,A3,A,0.902958,0.324250,0.759135,0.124801,-1.638723,-2.155574,1.115641,-2.229231,-0.312201,0.716385,-1.183582,-1.376380,-2.579068,-0.799679,-0.152440,1.161013,-0.019913,-0.035860,-0.073540
9027.780000,3.104000,103,START d_to_a,Transition,transition,transition A->D,A-D,1.094958,0.323603,0.760072,0.124076,-1.635990,-2.162485,1.123750,-2.227932,-0.308220,0.708689,-1.176132,-1.383461,-2.579907,-0.289732,-0.535913,0.854174,-0.020929,-0.029295,-0.063591
9027.788000,3.112000,103,START d_to_a,Transition,transition,transition A->D,A-D,1.086958,0.322902,0.761083,0.123292,-1.633208,-2.169563,1.131579,-2.226523,-0.303953,0.700581,-1.168791,-1.390497,-2.580690,-0.383213,0.208287,0.269946,-0.019445,-0.033257,-0.057389
9027.796000,3.120000,103,START d_to_a,Transition,transition,transition A->D,A-D,1.078958,0.322205,0.762134,0.122492,-1.630452,-2.176499,1.139532,-2.225093,-0.299509,0.692135,-1.161210,-1.397467,-2.581369,0.165162,-0.039986,-0.278118,-0.027775,-0.026569,-0.031485
9027.804000,3.128000,103,START d_to_a,Transition,transition,transition A->D,A-D,1.070958,0.321435,0.763259,0.121645,-1.627558,-2.183514,1.147407,-2.223533,-0.294801,0.683286,-1.153557,-1.404355,-2.582023,0.691770,-0.454311,-0.592214,-0.038827,-0.028466,-0.023710
9027.812000,3.136000,103,START d_to_a,Transition,transition,transition A->D,A-D,1.062958,0.320634,0.764431,0.120816,-1.624672,-2.190569,1.155207,-2.221912,-0.289967,0.674123,-1.145800,-1.411220,-2.582591,0.600703,-0.727236,-0.252769,-0.035197,-0.015970,-0.017087
9027.820000,3.144000,103,START d_to_a,Transition,transition,transition A->D,A-D,1.054958,0.319781,0.765646,0.119866,-1.621716,-2.197497,1.163375,-2.220212,-0.284838,0.664650,-1.137788,-1.418057,-2.583060,-0.012363,-0.887411,0.001596,-0.038607,-0.033538,-0.003729
9027.828000,3.152000,103,START d_to_a,Transition,transition,transition A->D,A-D,1.046958,0.318915,0.766954,0.118942,-1.618735,-2.204413,1.171140,-2.218428,-0.279406,0.654514,-1.129671,-1.424675,-2.583488,0.503329,-1.553356,0.403916,-0.038842,-0.035131,-0.011291
9027.836000,3.160000,103,START d_to_a,Transition,transition,transition A->D,A-D,1.038958,0.318025,0.768283,0.117926,-1.615719,-2.211336,1.179190,-2.216612,-0.273717,0.644058,-1.121337,-1.431386,-2.583839,-0.339637,-0.582835,-0.357306,-0.043756,-0.031597,-0.008802
9027.844000,3.168000,103,START d_to_a,Transition,transition,transition A->D,A-D,1.030958,0.317072,0.769664,0.116832,-1.612664,-2.218323,1.187196,-2.214699,-0.267751,0.633232,-1.112965,-1.438066,-2.584115,-0.102179,-0.195508,0.252319,-0.038088,-0.036198,-0.026796
9027.852000,3.176000,103,START d_to_a,Transition,transition,transition A->D,A-D,1.022958,0.316155,0.771070,0.115821,-1.609591,-2.225261,1.195086,-2.212802,-0.261665,0.621946,-1.104318,-1.444679,-2.584382,-0.661484,-1.329794,0.073602,-0.042160,-0.040485,-0.030544
9027.860000,3.184000,103,START d_to_a,Transition,transition,transition A->D,A-D,1.014958,0.315198,0.772483,0.114914,-1.606515,-2.232217,1.203025,-2.210867,-0.255662,0.610544,-1.095463,-1.451308,-2.584575,-0.838385,-1.300578,0.156500,-0.050467,-0.047907,-0.038469
9027.868000,3.192000,103,START d_to_a,Transition,transition,transition A->D,A-D,1.006958,0.314207,0.773912,0.113950,-1.603347,-2.239322,1.210756,-2.208884,-0.249437,0.598851,-1.086696,-1.457931,-2.584790,-0.134360,-0.550183,-0.332653,-0.047227,-0.037983,-0.040373
9027.876000,3.200000,103,START d_to_a,Transition,transition,transition A->D,A-D,0.998958,0.313246,0.775334,0.112916,-1.600148,-2.246431,1.218529,-2.206935,-0.242951,0.586793,-1.077802,-1.464602,-2.585001,-0.246692,-0.059824,0.372157,-0.033252,-0.037040,-0.038181
9027.884000,3.208000,103,START d_to_a,Transition,transition,transition A->D,A-D,0.990958,0.312323,0.776695,0.111939,-1.596884,-2.253302,1.226500,-2.205067,-0.236579,0.574827,-1.068707,-1.471207,-2.585232,0.121160,1.011864,-0.573520,-0.034441,-0.035544,-0.044356
9027.892000,3.216000,103,START d_to_a,Transition,transition,transition A->D,A-D,0.982958,0.311439,0.777996,0.110953,-1.593504,-2.260038,1.234947,-2.203280,-0.230186,0.562812,-1.059257,-1.477931,-2.585484,-1.010886,-1.994684,-0.468272,-0.018594,-0.024260,-0.029351
9027.900000,3.224000,103,START d_to_a,Transition,transition,transition A->D,A-D,0.974958,0.310535,0.779279,0.110038,-1.590250,-2.267048,1.242733,-2.201487,-0.223882,0.550834,-1.050246,-1.484661,-2.585697,1.239914,1.153749,-1.318720,-0.012010,-0.016478,-0.050721
9027.908000,3.232000,103,START d_to_a,Transition,transition,transition A->D,A-D,0.966958,0.309682,0.780474,0.109076,-1.586748,-2.273897,1.251051,-2.199799,-0.217562,0.538928,-1.040934,-1.491496,-2.586028,-0.288485,-0.912128,-0.262387,-0.018161,-0.013633,-0.014449
9027.916000,3.240000,103,START d_to_a,Transition,transition,transition A->D,A-D,0.958958,0.308886,0.781642,0.108190,-1.583315,-2.280822,1.258999,-2.198186,-0.211227,0.526816,-1.031687,-1.498334,-2.586367,1.262540,-1.209073,0.458808,-0.013406,-0.024138,-0.035183
9027.988000,3.312000,103,START d_to_a,Transition,transition,transition A->D,A-D,0.886958,0.303452,0.789610,0.102616,-1.556729,-2.331646,1.318751,-2.187133,-0.162397,0.430620,-0.958181,-1.549763,-2.588660,1.453518,0.243800,1.566512,0.063112,-0.006866,-0.078237
9027.996000,3.320000,103,START d_to_a,Transition,transition,transition A->D,A-D,0.878958,0.302997,0.790224,0.102121,-1.554451,-2.335555,1.323679,-2.186242,-0.158094,0.422240,-0.951894,-1.553799,-2.588804,1.520056,-0.304552,1.692913,0.065632,0.005135,-0.068828
9028.004000,3.328000,103,START d_to_a,Transition,transition,transition A->D,A-D,0.870958,0.302638,0.790774,0.101725,-1.552456,-2.339156,1.327880,-2.185490,-0.154123,0.414376,-0.946180,-1.557462,-2.588955,2.285321,-0.071665,1.815625,0.072300,-0.000068,-0.087076
9028.012000,3.336000,103,START d_to_a,Transition,transition,transition A->D,A-D,0.862958,0.302273,0.791283,0.101333,-1.550543,-2.342336,1.332044,-2.184765,-0.150418,0.407096,-0.940715,-1.560802,-2.589059,2.208296,-1.322358,2.407163,0.071172,-0.010105,-0.079321
9028.020000,3.344000,103,START d_to_a,Transition,transition,transition A->D,A-D,0.854958,0.301982,0.791736,0.100991,-1.548972,-2.345262,1.335391,-2.184153,-0.147037,0.400435,-0.936006,-1.563767,-2.589139,2.454058,-0.033514,2.471160,0.085741,-0.007601,-0.095758
9028.028000,3.352000,103,START d_to_a,Transition,transition,transition A->D,A-D,0.846958,0.301661,0.792153,0.100697,-1.547461,-2.347818,1.338591,-2.183538,-0.144041,0.394505,-0.931645,-1.566379,-2.589195,1.542165,-0.347817,2.592799,0.073667,0.001843,-0.084042
9028.036000,3.360000,103,START d_to_a,Transition,transition,transition A->D,A-D,0.838958,0.301396,0.792499,0.100418,-1.546120,-2.350041,1.341298,-2.183026,-0.141423,0.389394,-0.927952,-1.568633,-2.589286,1.129504,0.261296,1.961445,0.090148,-0.007854,-0.093950
9028.044000,3.368000,103,START d_to_a,Transition,transition,transition A->D,A-D,0.830958,0.301198,0.792781,0.100187,-1.545081,-2.351869,1.343654,-2.182630,-0.139202,0.385028,-0.924758,-1.570574,-2.589303,1.294323,0.338068,2.077789,0.080045,-0.000709,-0.091053
9028.052000,3.376000,103,START d_to_a,Transition,transition,transition A->D,A-D,0.822958,0.301060,0.793021,0.100080,-1.544307,-2.353466,1.345273,-2.182322,-0.137404,0.381300,-0.922182,-1.572151,-2.589331,1.970081,-0.026057,2.270641,0.080663,0.003269,-0.096919
9028.060000,3.384000,103,START d_to_a,Transition,transition,transition A->D,A-D,0.814958,0.300944,0.793205,0.099977,-1.543692,-2.354719,1.346639,-2.182078,-0.135990,0.378405,-0.920140,-1.573422,-2.589336,1.732869,0.299681,2.149184,0.090822,-0.000112,-0.094695
9028.068000,3.392000,103,START d_to_a,Transition,transition,transition A->D,A-D,0.806958,0.300817,0.793347,0.099908,-1.543143,-2.355710,1.347638,-2.181848,-0.134990,0.376353,-0.918680,-1.574354,-2.589375,2.110634,-0.073409,2.348162,0.086236,0.009748,-0.090354
9028.076000,3.400000,103,START d_to_a,Transition,transition,transition A->D,A-D,0.798958,0.300730,0.793440,0.099867,-1.542809,-2.356240,1.348270,-2.181696,-0.134386,0.375112,-0.917763,-1.574859,-2.589387,1.864238,0.303855,1.797179,0.070613,-0.000376,-0.089273
9028.084000,3.408000,1,START a_bow,Transition,transition,transition A->D,A-D,0.790958,0.300748,0.793449,0.099863,-1.542737,-2.356362,1.348496,-2.181706,-0.134212,0.374730,-0.917446,-1.575045,-2.589399,1.996423,-0.056324,1.855788,0.074701,0.000337,-0.091162
9028.092000,3.416000,1,START a_bow,Transition,transition,transition A->D,A-D,0.782958,0.300727,0.793427,0.099863,-1.542676,-2.356365,1.348630,-2.181700,-0.134359,0.375032,-0.917516,-1.575084,-2.589411,1.769147,-0.422345,1.136398,0.081417,0.006547,-0.099476
9028.100000,3.424000,1,START a_bow,Transition,transition,transition A->D,A-D,0.774958,0.300810,0.793373,0.099927,-1.542776,-2.356401,1.348333,-2.181815,-0.134585,0.375358,-0.917810,-1.575104,-2.589471,2.113029,2.590872,1.124028,0.089446,-0.003478,-0.107784
9028.108000,3.432000,1,START a_bow,Transition,transition,transition A->D,A-D,0.766958,0.300886,0.793292,0.100038,-1.542734,-2.356445,1.348268,-2.181938,-0.134984,0.375916,-0.918010,-1.575200,-2.589589,0.922898,1.598626,1.052088,0.081983,-0.010419,-0.102923
9028.116000,3.440000,1,START a_bow,Transition,transition,transition A->D,A-D,0.758958,0.301006,0.793172,0.100114,-1.542760,-2.356427,1.348238,-2.182132,-0.135459,0.376717,-0.918354,-1.575328,-2.589699,1.727923,1.518473,1.226848,0.114776,0.002504,-0.125203
9028.124000,3.448000,1,START a_bow,Transition,transition,transition A->D,A-D,0.750958,0.301097,0.793044,0.100230,-1.542730,-2.356440,1.348193,-2.182301,-0.136096,0.377762,-0.918787,-1.575444,-2.589834,1.214919,1.794589,1.087378,0.112591,-0.001145,-0.126456
9028.132000,3.456000,1,START a_bow,Transition,transition,transition A->D,A-D,0.742958,0.301185,0.792892,0.100328,-1.542686,-2.356426,1.348324,-2.182484,-0.136830,0.379044,-0.919250,-1.575616,-2.589954,0.926401,1.539186,1.286020,0.132984,-0.002522,-0.135536
9028.140000,3.464000,1,START a_bow,Transition,transition,transition A->D,A-D,0.734958,0.301285,0.792717,0.100397,-1.542706,-2.356447,1.348295,-2.182696,-0.137644,0.380576,-0.919994,-1.575787,-2.590077,0.937433,2.015991,0.921707,0.139633,-0.000923,-0.147751
9028.148000,3.472000,1,START a_bow,Transition,transition,transition A->D,A-D,0.726958,0.301348,0.792523,0.100430,-1.542633,-2.356389,1.348514,-2.182884,-0.138566,0.382420,-0.920767,-1.575955,-2.590202,0.424151,1.743739,0.979898,0.147215,-0.008544,-0.152414
9028.156000,3.480000,1,START a_bow,Transition,transition,transition A->D,A-D,0.718958,0.301461,0.792292,0.100497,-1.542566,-2.356285,1.348621,-2.183142,-0.139630,0.384491,-0.921677,-1.576095,-2.590389,0.969802,1.789794,0.516971,0.157963,0.005514,-0.168436
9028.164000,3.488000,1,START a_bow,Transition,transition,transition A->D,A-D,0.710958,0.301540,0.792050,0.100553,-1.542458,-2.356270,1.348806,-2.183375,-0.140784,0.386767,-0.922675,-1.576311,-2.590572,0.738645,1.682332,0.894246,0.154387,-0.011560,-0.158975
9028.172000,3.496000,1,START a_bow,Transition,transition,transition A->D,A-D,0.702958,0.301625,0.791786,0.100583,-1.542404,-2.356253,1.348926,-2.183630,-0.142020,0.389289,-0.923881,-1.576527,-2.590744,0.555405,2.281974,0.072332,0.155069,0.001882,-0.160474
9028.180000,3.504000,1,START a_bow,Transition,transition,transition A->D,A-D,0.694958,0.301725,0.791492,0.100669,-1.542251,-2.356313,1.349027,-2.183914,-0.143408,0.391991,-0.925129,-1.576801,-2.591007,1.658964,1.776480,0.068820,0.152546,0.004220,-0.183740
9028.188000,3.512000,1,START a_bow,Transition,transition,transition A->D,A-D,0.686958,0.301845,0.791175,0.100766,-1.542169,-2.356213,1.349182,-2.184237,-0.144928,0.394940,-0.926434,-1.577010,-2.591235,0.638494,1.630487,0.444722,0.162644,-0.015295,-0.172397
9028.300000,3.624000,1,START a_bow,Transition,transition,transition A->D,A-D,0.574958,0.305089,0.783824,0.103759,-1.540480,-2.355458,1.351053,-2.192187,-0.177443,0.455666,-0.953178,-1.582869,-2.596980,0.748908,1.330575,0.516613,0.153824,-0.009591,-0.165025
9028.340000,3.664000,1,START a_bow,Transition,transition,transition A->D,A-D,0.534958,0.306822,0.779973,0.105418,-1.539611,-2.354970,1.352105,-2.196419,-0.193036,0.484205,-0.965306,-1.585962,-2.600003,0.956930,1.214162,0.169486,0.145906,-0.018182,-0.164195
9028.348000,3.672000,1,START a_bow,Transition,transition,transition A->D,A-D,0.526958,0.307169,0.779221,0.105730,-1.539496,-2.354974,1.351981,-2.197254,-0.195968,0.489590,-0.967820,-1.586531,-2.600626,1.756045,2.454593,0.306941,0.152810,-0.010388,-0.165223
9028.356000,3.680000,1,START a_bow,Transition,transition,transition A->D,A-D,0.518958,0.307527,0.778478,0.106060,-1.539367,-2.354789,1.352264,-2.198100,-0.198828,0.494753,-0.969903,-1.587119,-2.601185,1.179669,1.171483,0.670436,0.137662,-0.016092,-0.151647
9028.364000,3.688000,1,START a_bow,Transition,transition,transition A->D,A-D,0.510958,0.307878,0.777749,0.106342,-1.539271,-2.354711,1.352419,-2.198930,-0.201550,0.499750,-0.972066,-1.587737,-2.601737,1.116834,1.370987,0.770169,0.139645,-0.016404,-0.142870
9028.372000,3.696000,1,START a_bow,Transition,transition,transition A->D,A-D,0.502958,0.308205,0.777044,0.106632,-1.539112,-2.354544,1.352686,-2.199721,-0.204198,0.504573,-0.974031,-1.588285,-2.602284,0.601771,0.888099,1.195329,0.133584,-0.019178,-0.139124
9028.380000,3.704000,1,START a_bow,Transition,transition,transition A->D,A-D,0.494958,0.308506,0.776363,0.106871,-1.538988,-2.354458,1.352904,-2.200472,-0.206707,0.509234,-0.976026,-1.588856,-2.602792,1.136264,1.383214,0.541727,0.130255,-0.002141,-0.147858
9028.388000,3.712000,1,START a_bow,Transition,transition,transition A->D,A-D,0.486958,0.308820,0.775715,0.107139,-1.538828,-2.354366,1.353015,-2.201209,-0.209073,0.513529,-0.977853,-1.589361,-2.603338,0.862710,1.135719,1.215342,0.136728,-0.026575,-0.144217
9028.396000,3.720000,1,START a_bow,Transition,transition,transition A->D,A-D,0.478958,0.309091,0.775102,0.107382,-1.538692,-2.354301,1.353166,-2.201885,-0.211331,0.517656,-0.979606,-1.589861,-2.603821,0.998867,1.663548,0.722034,0.129836,-0.011219,-0.147350
9028.404000,3.728000,1,START a_bow,Transition,transition,transition A->D,A-D,0.470958,0.309329,0.774523,0.107640,-1.538516,-2.354261,1.353396,-2.202504,-0.213511,0.521571,-0.981181,-1.590362,-2.604281,0.997923,1.887995,0.458176,0.123999,-0.010480,-0.144938
9028.412000,3.736000,1,START a_bow,Transition,transition,transition A->D,A-D,0.462958,0.309552,0.773966,0.107850,-1.538342,-2.354172,1.353614,-2.203096,-0.215556,0.525334,-0.982732,-1.590799,-2.604724,0.617471,2.351906,0.361877,0.123781,-0.011276,-0.151506
9028.420000,3.744000,1,START a_bow,Transition,transition,transition A->D,A-D,0.454958,0.309834,0.773415,0.108067,-1.538313,-2.354034,1.353707,-2.203745,-0.217493,0.528852,-0.984229,-1.591218,-2.605128,0.612380,2.378865,0.055149,0.122060,-0.006965,-0.154523
9028.428000,3.752000,1,START a_bow,Transition,transition,transition A->D,A-D,0.446958,0.310033,0.772914,0.108274,-1.538175,-2.354064,1.353816,-2.204276,-0.219335,0.532190,-0.985656,-1.591669,-2.605531,0.780170,2.101426,0.191741,0.122227,-0.010212,-0.158045
9028.436000,3.760000,1,START a_bow,Transition,transition,transition A->D,A-D,0.438958,0.310275,0.772412,0.108489,-1.538099,-2.353942,1.353926,-2.204852,-0.221124,0.535401,-0.986982,-1.592042,-2.605919,0.648103,1.625183,0.768575,0.134468,-0.017095,-0.155859
9028.444000,3.768000,1,START a_bow,Transition,transition,transition A->D,A-D,0.430958,0.310474,0.771949,0.108691,-1.537973,-2.353884,1.354115,-2.205359,-0.222797,0.538394,-0.988166,-1.592438,-2.606282,0.611078,1.621035,0.472534,0.120182,-0.024474,-0.154628
9028.452000,3.776000,1,START a_bow,Transition,transition,transition A->D,A-D,0.422958,0.310715,0.771492,0.108876,-1.537939,-2.353804,1.354189,-2.205905,-0.224354,0.541193,-0.989348,-1.592816,-2.606629,0.767061,1.594617,1.186798,0.133155,-0.029255,-0.152927
9028.460000,3.784000,1,START a_bow,Transition,transition,transition A->D,A-D,0.414958,0.310913,0.771070,0.109039,-1.537776,-2.353728,1.354375,-2.206381,-0.225791,0.543800,-0.990374,-1.593164,-2.606999,0.624590,1.336582,1.227409,0.135485,-0.030533,-0.153632
9028.468000,3.792000,1,START a_bow,Transition,transition,transition A->D,A-D,0.406958,0.311123,0.770686,0.109214,-1.537853,-2.353656,1.354286,-2.206852,-0.227136,0.546176,-0.991457,-1.593448,-2.607257,0.594616,1.799680,1.121556,0.135175,-0.029237,-0.146576
9028.476000,3.800000,1,START a_bow,Transition,transition,transition A->D,A-D,0.398958,0.311277,0.770331,0.109351,-1.537750,-2.353592,1.354472,-2.207243,-0.228365,0.548404,-0.992323,-1.593753,-2.607533,0.633975,1.400037,1.255470,0.139330,-0.031350,-0.157975
9028.484000,3.808000,1,START a_bow,Transition,transition,transition A->D,A-D,0.390958,0.311417,0.769992,0.109437,-1.537607,-2.353529,1.354634,-2.207607,-0.229478,0.550530,-0.993212,-1.594020,-2.607824,0.633970,1.628037,0.761232,0.133704,-0.027150,-0.164807
9028.492000,3.816000,1,START a_bow,Transition,transition,transition A->D,A-D,0.382958,0.311551,0.769687,0.109555,-1.537551,-2.353479,1.354737,-2.207946,-0.230534,0.552445,-0.993995,-1.594271,-2.608052,0.796638,1.683221,0.702608,0.128794,-0.029765,-0.169001
9028.500000,3.824000,1,START a_bow,Transition,transition,transition A->D,A-D,0.374958,0.311655,0.769419,0.109671,-1.537442,-2.353477,1.354786,-2.208227,-0.231487,0.554157,-0.994712,-1.594484,-2.608291,0.804358,1.695654,0.458265,0.129908,-0.020704,-0.169265
9028.508000,3.832000,1,START a_bow,Transition,transition,transition A->D,A-D,0.366958,0.311779,0.769154,0.109739,-1.537388,-2.353332,1.354951,-2.208530,-0.232344,0.555786,-0.995349,-1.594656,-2.608483,0.544633,2.012107,-0.033789,0.120505,-0.021279,-0.162019
9028.516000,3.840000,1,START a_bow,Transition,transition,transition A->D,A-D,0.358958,0.311861,0.768941,0.109859,-1.537383,-2.353386,1.354926,-2.208757,-0.233152,0.557170,-0.995956,-1.594864,-2.608631,0.686979,2.794865,-0.201204,0.108539,-0.009123,-0.155684
9028.524000,3.848000,1,START a_bow,Transition,transition,transition A->D,A-D,0.350958,0.311949,0.768730,0.109939,-1.537294,-2.353351,1.355065,-2.208985,-0.233869,0.558467,-0.996438,-1.595051,-2.608806,0.542209,2.136929,0.532955,0.125005,-0.024681,-0.158812
9028.532000,3.856000,1,START a_bow,Transition,transition,transition A->D,A-D,0.342958,0.312019,0.768560,0.110036,-1.537336,-2.353333,1.355077,-2.209173,-0.234517,0.559573,-0.996895,-1.595194,-2.608891,0.618208,1.861413,0.734797,0.125758,-0.031954,-0.155519
9028.540000,3.864000,1,START a_bow,Transition,transition,transition A->D,A-D,0.334958,0.312101,0.768406,0.110138,-1.537299,-2.353345,1.355039,-2.209357,-0.235073,0.560479,-0.997267,-1.595323,-2.609038,0.735030,1.738147,0.868448,0.121837,-0.036142,-0.162417
9028.604000,3.928000,2,END a_bow,Transition,transition,transition A->D,A-D,0.270958,0.312162,0.768100,0.110233,-1.537148,-2.353269,1.355260,-2.209624,-0.236205,0.562618,-0.998108,-1.595527,-2.609263,1.035161,1.604979,0.731383,0.128236,-0.026176,-0.170485
9028.684000,4.008000,1,START a_bow,Transition,transition,transition A->D,A-D,0.190958,0.311582,0.769259,0.109739,-1.537205,-2.353880,1.354774,-2.208256,-0.232242,0.555563,-0.995438,-1.594781,-2.608473,2.427629,0.370302,0.364632,0.175966,0.214290,0.065236
9028.692000,4.016000,1,START a_bow,Transition,transition,transition A->D,A-D,0.182958,0.311466,0.769510,0.109609,-1.537231,-2.353867,1.354823,-2.207973,-0.231338,0.553994,-0.994742,-1.594578,-2.608269,2.212183,0.179495,0.669097,0.178885,0.218318,0.068847
9028.700000,4.024000,1,START a_bow,Transition,transition,transition A->D,A-D,0.174958,0.311349,0.769780,0.109488,-1.537266,-2.353914,1.354718,-2.207673,-0.230375,0.552288,-0.994071,-1.594350,-2.608081,2.265870,0.685245,0.179973,0.169748,0.214790,0.071385
9028.708000,4.032000,1,START a_bow,Transition,transition,transition A->D,A-D,0.166958,0.311209,0.770085,0.109366,-1.537357,-2.353936,1.354660,-2.207331,-0.229333,0.550406,-0.993279,-1.594098,-2.607818,1.922267,-0.062410,0.493302,0.181472,0.210642,0.050498
9028.716000,4.040000,1,START a_bow,Transition,transition,transition A->D,A-D,0.158958,0.311079,0.770415,0.109268,-1.537458,-2.353962,1.354546,-2.206981,-0.228210,0.548294,-0.992372,-1.593822,-2.607554,2.376826,0.139647,0.149376,0.170419,0.217743,0.059508
9028.724000,4.048000,1,START a_bow,Transition,transition,transition A->D,A-D,0.150958,0.310953,0.770758,0.109137,-1.537606,-2.353859,1.354466,-2.206628,-0.227002,0.546095,-0.991417,-1.593464,-2.607251,2.482355,-0.750151,1.521605,0.185492,0.187800,0.054385
9028.732000,4.056000,1,START a_bow,Transition,transition,transition A->D,A-D,0.142958,0.310780,0.771139,0.109007,-1.537694,-2.353938,1.354353,-2.206201,-0.225706,0.543697,-0.990409,-1.593171,-2.606948,2.303713,-0.267746,0.617114,0.176943,0.196188,0.046260
9028.740000,4.064000,1,START a_bow,Transition,transition,transition A->D,A-D,0.134958,0.310617,0.771546,0.108888,-1.537819,-2.353986,1.354120,-2.205767,-0.224313,0.541079,-0.989341,-1.592805,-2.606640,2.621393,-1.293244,2.062776,0.205011,0.172674,0.041158
9028.748000,4.072000,1,START a_bow,Transition,transition,transition A->D,A-D,0.126958,0.310435,0.771982,0.108730,-1.537891,-2.354033,1.353940,-2.205291,-0.222773,0.538257,-0.988176,-1.592418,-2.606332,2.163757,0.256812,0.839965,0.179163,0.192197,0.052587
9028.756000,4.080000,1,START a_bow,Transition,transition,transition A->D,A-D,0.118958,0.310233,0.772444,0.108520,-1.537998,-2.354012,1.353952,-2.204785,-0.221094,0.535258,-0.986854,-1.592037,-2.605941,2.155573,0.135596,0.054296,0.180330,0.225579,0.049480
9028.764000,4.088000,1,START a_bow,Transition,transition,transition A->D,A-D,0.110958,0.310037,0.772930,0.108329,-1.538140,-2.354029,1.353754,-2.204265,-0.219341,0.532070,-0.985550,-1.591598,-2.605562,2.263134,-0.600971,1.200852,0.193637,0.189443,0.037289
9028.772000,4.096000,1,START a_bow,Transition,transition,transition A->D,A-D,0.102958,0.309804,0.773449,0.108090,-1.538290,-2.354063,1.353602,-2.203690,-0.217450,0.528710,-0.984193,-1.591152,-2.605132,2.283017,0.010837,0.630242,0.190511,0.202470,0.046687
9028.780000,4.104000,1,START a_bow,Note,55,G3,D,0.894958,0.309557,0.773991,0.107838,-1.538369,-2.354072,1.353589,-2.203084,-0.215450,0.525149,-0.982646,-1.590703,-2.604704,2.329705,-0.563842,0.874460,0.200835,0.204308,0.048222
9028.788000,4.112000,1,START a_bow,Note,55,G3,D,0.886958,0.309293,0.774561,0.107549,-1.538511,-2.354080,1.353531,-2.202446,-0.213317,0.521406,-0.981085,-1.590224,-2.604221,2.472598,-0.319137,0.466499,0.191505,0.217752,0.055674
9028.796000,4.120000,1,START a_bow,Note,55,G3,D,0.878958,0.309029,0.775142,0.107241,-1.538592,-2.354103,1.353481,-2.201798,-0.211085,0.517509,-0.979458,-1.589739,-2.603773,2.896105,-0.109883,0.550956,0.192807,0.218747,0.052686
9028.804000,4.128000,1,START a_bow,Note,55,G3,D,0.870958,0.308736,0.775758,0.106922,-1.538697,-2.354106,1.353483,-2.201101,-0.208744,0.513403,-0.977700,-1.589228,-2.603266,2.194475,-0.933773,1.574255,0.206544,0.196241,0.048650
9028.812000,4.136000,1,START a_bow,Note,55,G3,D,0.862958,0.308426,0.776416,0.106653,-1.538824,-2.354108,1.353373,-2.200358,-0.206329,0.509015,-0.975802,-1.588638,-2.602739,2.503045,-0.889310,1.103177,0.206729,0.207145,0.045907
9028.820000,4.144000,1,START a_bow,Note,55,G3,D,0.854958,0.308115,0.777095,0.106352,-1.539001,-2.354172,1.353214,-2.199603,-0.203770,0.504405,-0.973877,-1.588081,-2.602181,2.703236,-0.899694,0.600760,0.207004,0.213856,0.045460
9028.828000,4.152000,1,START a_bow,Note,55,G3,D,0.846958,0.307807,0.777800,0.106086,-1.539191,-2.354264,1.352968,-2.198833,-0.201128,0.499531,-0.971829,-1.587503,-2.601621,2.482571,-1.559386,1.683646,0.219273,0.181948,0.034840
9028.836000,4.160000,1,START a_bow,Note,55,G3,D,0.838958,0.307474,0.778533,0.105841,-1.539397,-2.354427,1.352603,-2.198019,-0.198428,0.494483,-0.969753,-1.586903,-2.601046,2.512513,0.247156,0.154359,0.185076,0.222348,0.064206
9028.844000,4.168000,1,START a_bow,Note,55,G3,D,0.830958,0.307130,0.779282,0.105544,-1.539589,-2.354484,1.352496,-2.197189,-0.195577,0.489235,-0.967453,-1.586309,-2.600420,2.877888,-0.994217,1.162852,0.200602,0.201874,0.049026
9028.852000,4.176000,1,START a_bow,Note,55,G3,D,0.822958,0.306801,0.780051,0.105289,-1.539816,-2.354621,1.352168,-2.196358,-0.192648,0.483728,-0.965123,-1.585696,-2.599812,2.574444,-1.446921,1.514883,0.202343,0.183112,0.048213
9028.860000,4.184000,1,START a_bow,Note,55,G3,D,0.814958,0.306417,0.780866,0.104978,-1.539982,-2.354717,1.351987,-2.195444,-0.189508,0.477917,-0.962597,-1.585033,-2.599165,3.099633,-1.404313,1.483268,0.198507,0.184538,0.034217
9028.868000,4.192000,1,START a_bow,Note,55,G3,D,0.806958,0.306062,0.781669,0.104667,-1.540228,-2.354901,1.351520,-2.194566,-0.186343,0.472069,-0.960256,-1.584370,-2.598542,3.338369,-0.849378,1.289795,0.205286,0.192427,0.036486
9028.876000,4.200000,1,START a_bow,Note,55,G3,D,0.798958,0.305748,0.782421,0.104339,-1.540403,-2.354808,1.351552,-2.193767,-0.183246,0.466385,-0.957647,-1.583731,-2.597919,2.414548,-1.897949,1.314178,0.204267,0.190611,0.039646
9028.884000,4.208000,1,START a_bow,Note,55,G3,D,0.790958,0.305392,0.783168,0.104011,-1.540528,-2.355017,1.351293,-2.192925,-0.180194,0.460808,-0.955335,-1.583179,-2.597360,3.154698,-0.061994,0.179443,0.183071,0.215103,0.051991
9028.980000,4.304000,1,START a_bow,Note,55,G3,D,0.694958,0.302217,0.790085,0.101218,-1.542004,-2.355828,1.349626,-2.185314,-0.150386,0.405259,-0.930926,-1.577656,-2.591933,2.949659,0.058142,-0.048902,0.146044,0.195711,0.057135
9029.020000,4.344000,1,START a_bow,Note,55,G3,D,0.654958,0.301373,0.791862,0.100356,-1.542295,-2.355969,1.349344,-2.183342,-0.141923,0.389675,-0.924036,-1.576213,-2.590559,3.047813,-0.702394,1.079660,0.157295,0.173416,0.059364
9029.028000,4.352000,1,START a_bow,Note,55,G3,D,0.646958,0.301238,0.792130,0.100217,-1.542260,-2.356018,1.349348,-2.183033,-0.140591,0.387233,-0.922929,-1.576013,-2.590390,2.898966,0.288757,-0.264585,0.136917,0.189676,0.056347
9029.036000,4.360000,1,START a_bow,Note,55,G3,D,0.638958,0.301118,0.792388,0.100130,-1.542333,-2.356066,1.349205,-2.182750,-0.139394,0.384940,-0.921938,-1.575794,-2.590191,2.684626,-0.701634,1.264521,0.167472,0.156269,0.038610
9029.044000,4.368000,1,START a_bow,Note,55,G3,D,0.630958,0.301013,0.792628,0.100117,-1.542450,-2.356141,1.348997,-2.182494,-0.138375,0.382832,-0.921002,-1.575601,-2.589991,3.365973,-0.807423,0.516861,0.141461,0.172076,0.036655
9029.052000,4.376000,1,START a_bow,Note,55,G3,D,0.622958,0.300918,0.792833,0.100077,-1.542515,-2.356258,1.348757,-2.182267,-0.137453,0.381001,-0.920269,-1.575443,-2.589851,3.004723,0.090679,0.709382,0.143788,0.162645,0.052415
9029.060000,4.384000,1,START a_bow,Note,55,G3,D,0.614958,0.300841,0.793011,0.100059,-1.542582,-2.356320,1.348692,-2.182080,-0.136661,0.379374,-0.919496,-1.575338,-2.589700,3.233631,-1.086291,1.473751,0.145386,0.150137,0.049959
9029.068000,4.392000,1,START a_bow,Note,55,G3,D,0.606958,0.300779,0.793162,0.100043,-1.542609,-2.356417,1.348501,-2.181919,-0.135967,0.377964,-0.918916,-1.575225,-2.589618,3.057737,-0.496198,1.029150,0.157741,0.157798,0.042347
9029.076000,4.400000,1,START a_bow,Note,55,G3,D,0.598958,0.300725,0.793282,0.100004,-1.542662,-2.356423,1.348493,-2.181792,-0.135400,0.376865,-0.918398,-1.575141,-2.589503,3.214232,-0.326177,0.442575,0.145730,0.174237,0.051920
9029.084000,4.408000,1,START a_bow,Note,55,G3,D,0.590958,0.300673,0.793384,0.099993,-1.542651,-2.356471,1.348379,-2.181672,-0.134949,0.375954,-0.918013,-1.575042,-2.589459,3.038756,-1.149033,1.481186,0.154039,0.160880,0.050988
9029.092000,4.416000,1,START a_bow,Note,55,G3,D,0.582958,0.300635,0.793446,0.099944,-1.542627,-2.356524,1.348437,-2.181595,-0.134608,0.375357,-0.917733,-1.575045,-2.589416,3.203249,-1.234200,1.422882,0.152269,0.152107,0.049396
9029.100000,4.424000,1,START a_bow,Note,55,G3,D,0.574958,0.300644,0.793476,0.099926,-1.542616,-2.356533,1.348464,-2.181583,-0.134381,0.374923,-0.917511,-1.575053,-2.589411,2.975110,-0.861263,0.868432,0.141982,0.170214,0.059477
9029.108000,4.432000,1,START a_bow,Note,55,G3,D,0.566958,0.300645,0.793484,0.099900,-1.542635,-2.356523,1.348482,-2.181579,-0.134296,0.374810,-0.917473,-1.575053,-2.589392,2.787167,-0.806851,0.815492,0.137414,0.163424,0.059068
9029.116000,4.440000,2,END a_bow,Note,55,G3,D,0.558958,0.300639,0.793475,0.099865,-1.542580,-2.356447,1.348582,-2.181579,-0.134300,0.374913,-0.917487,-1.575018,-2.589411,2.687152,-0.020319,0.002857,0.130634,0.161298,0.062161
9029.124000,4.448000,2,END a_bow,Note,55,G3,D,0.550958,0.300672,0.793472,0.099897,-1.542693,-2.356498,1.348374,-2.181615,-0.134316,0.374865,-0.917573,-1.575029,-2.589395,3.057702,0.695739,0.444927,0.139778,0.157560,0.057399
9029.132000,4.456000,2,END a_bow,Note,55,G3,D,0.542958,0.300700,0.793462,0.099913,-1.542726,-2.356431,1.348409,-2.181650,-0.134340,0.374873,-0.917525,-1.575022,-2.589388,2.816327,-0.592296,1.125932,0.141901,0.144288,0.046107
9029.140000,4.464000,1,START a_bow,Note,55,G3,D,0.534958,0.300716,0.793455,0.099940,-1.542748,-2.356446,1.348357,-2.181670,-0.134380,0.374888,-0.917538,-1.575033,-2.589395,3.101714,-0.575159,1.285620,0.148520,0.146679,0.042198
9029.148000,4.472000,1,START a_bow,Note,55,G3,D,0.526958,0.300767,0.793405,0.099977,-1.542791,-2.356377,1.348317,-2.181754,-0.134611,0.375281,-0.917713,-1.575033,-2.589427,3.151659,-0.659561,0.955433,0.154264,0.152091,0.035777
9029.156000,4.480000,1,START a_bow,Note,55,G3,D,0.518958,0.300803,0.793354,0.100048,-1.542854,-2.356361,1.348207,-2.181823,-0.134936,0.375788,-0.917962,-1.575042,-2.589447,2.905460,0.830243,-0.006919,0.135954,0.173057,0.047321
9029.164000,4.488000,1,START a_bow,Note,55,G3,D,0.510958,0.300867,0.793259,0.100064,-1.542867,-2.356237,1.348387,-2.181950,-0.135328,0.376558,-0.918210,-1.575112,-2.589483,2.497309,0.115369,0.748012,0.143953,0.130218,0.019573
9029.172000,4.496000,1,START a_bow,Note,55,G3,D,0.502958,0.300873,0.793169,0.100117,-1.542769,-2.356258,1.348462,-2.182011,-0.135858,0.377539,-0.918609,-1.575185,-2.589574,2.345455,0.183505,1.049159,0.143773,0.110282,-0.008969
9029.180000,4.504000,1,START a_bow,Note,55,G3,D,0.494958,0.301009,0.793008,0.100150,-1.542826,-2.356053,1.348543,-2.182251,-0.136484,0.378773,-0.919129,-1.575244,-2.589670,1.612811,0.952992,0.749428,0.133086,0.078708,-0.028177
9029.188000,4.512000,1,START a_bow,Note,55,G3,D,0.486958,0.301046,0.792865,0.100191,-1.542776,-2.355936,1.348726,-2.182381,-0.137237,0.380249,-0.919712,-1.575309,-2.589750,1.609403,0.685225,0.566316,0.136792,0.058573,-0.058533
9029.196000,4.520000,1,START a_bow,Note,55,G3,D,0.478958,0.301139,0.792675,0.100226,-1.542754,-2.355846,1.348859,-2.182597,-0.138091,0.381949,-0.920457,-1.575448,-2.589873,2.013907,1.255699,0.073625,0.129823,0.036148,-0.104747
9029.204000,4.528000,1,START a_bow,Note,55,G3,D,0.470958,0.301239,0.792462,0.100253,-1.542692,-2.355688,1.349021,-2.182832,-0.139033,0.383869,-0.921295,-1.575549,-2.590033,1.367609,1.961475,-0.171315,0.117622,0.003397,-0.141378
9029.212000,4.536000,1,START a_bow,Note,55,G3,D,0.462958,0.301328,0.792241,0.100355,-1.542696,-2.355634,1.349062,-2.183063,-0.140169,0.385993,-0.922248,-1.575698,-2.590166,1.443317,1.392977,-0.205010,0.103514,-0.041713,-0.174856
9029.220000,4.544000,1,START a_bow,Note,55,G3,D,0.454958,0.301434,0.791986,0.100457,-1.542621,-2.355651,1.349123,-2.183331,-0.141406,0.388332,-0.923308,-1.575924,-2.590372,1.009727,1.197971,0.107438,0.108248,-0.063897,-0.188079
9029.228000,4.552000,1,START a_bow,Note,55,G3,D,0.446958,0.301581,0.791701,0.100619,-1.542673,-2.355706,1.349002,-2.183661,-0.142821,0.390890,-0.924544,-1.576183,-2.590565,1.024865,1.332210,0.494410,0.118123,-0.059307,-0.176204
9029.260000,4.584000,1,START a_bow,Note,55,G3,D,0.414958,0.302109,0.790340,0.101213,-1.542292,-2.355711,1.349254,-2.185051,-0.149452,0.403319,-0.930145,-1.577267,-2.591643,1.052210,1.364437,-0.125239,0.120849,-0.036738,-0.178234
9029.324000,4.648000,1,START a_bow,Note,54,F#3,D,0.850958,0.303922,0.786258,0.102772,-1.541204,-2.355516,1.350301,-2.189464,-0.167458,0.437204,-0.945235,-1.580674,-2.594935,1.213109,1.400158,0.161661,0.141854,-0.017121,-0.165734
9029.372000,4.696000,1,START a_bow,Note,54,F#3,D,0.802958,0.305808,0.782095,0.104588,-1.540214,-2.355171,1.351303,-2.194031,-0.184864,0.469158,-0.959007,-1.584090,-2.598262,1.185796,1.145361,0.549994,0.134984,-0.016107,-0.166280
9029.380000,4.704000,1,START a_bow,Note,54,F#3,D,0.794958,0.306182,0.781306,0.104968,-1.540070,-2.355088,1.351441,-2.194917,-0.188075,0.474935,-0.961461,-1.584729,-2.598885,1.061450,1.645587,0.087658,0.131604,-0.010477,-0.161423
9029.388000,4.712000,1,START a_bow,Note,54,F#3,D,0.786958,0.306530,0.780500,0.105306,-1.539842,-2.355026,1.351689,-2.195789,-0.191288,0.480825,-0.963953,-1.585400,-2.599536,0.606157,1.237618,0.644100,0.149208,-0.025593,-0.170113
9029.396000,4.720000,1,START a_bow,Note,54,F#3,D,0.778958,0.306870,0.779731,0.105596,-1.539671,-2.354924,1.351936,-2.196630,-0.194271,0.486354,-0.966314,-1.586028,-2.600128,0.640795,-0.143511,1.026641,0.135503,-0.021883,-0.144521
9029.404000,4.728000,1,START a_bow,Note,54,F#3,D,0.770958,0.307227,0.778968,0.105914,-1.539510,-2.354875,1.352109,-2.197485,-0.197200,0.491698,-0.968602,-1.586682,-2.600735,1.498887,0.817764,0.639429,0.134018,-0.015150,-0.154801
9029.412000,4.736000,1,START a_bow,Note,54,F#3,D,0.762958,0.307587,0.778222,0.106193,-1.539333,-2.354746,1.352320,-2.198332,-0.199977,0.496825,-0.970781,-1.587277,-2.601341,0.387829,0.611365,1.007598,0.132865,-0.019126,-0.141703
9029.420000,4.744000,1,START a_bow,Note,54,F#3,D,0.754958,0.307936,0.777506,0.106519,-1.539218,-2.354647,1.352446,-2.199149,-0.202702,0.501719,-0.972845,-1.587852,-2.601904,1.201173,0.938915,0.934517,0.134699,-0.017912,-0.154556
9029.428000,4.752000,1,START a_bow,Note,54,F#3,D,0.746958,0.308249,0.776809,0.106778,-1.539062,-2.354554,1.352661,-2.199921,-0.205284,0.506485,-0.974867,-1.588425,-2.602448,0.812565,0.888357,0.759757,0.131053,-0.019360,-0.144279
9029.436000,4.760000,1,START a_bow,Note,54,F#3,D,0.738958,0.308563,0.776134,0.107016,-1.538917,-2.354429,1.352858,-2.200679,-0.207736,0.511036,-0.976808,-1.588957,-2.602979,1.168067,1.333635,0.603907,0.130201,-0.013364,-0.155490
9029.444000,4.768000,1,START a_bow,Note,54,F#3,D,0.730958,0.308837,0.775517,0.107307,-1.538771,-2.354414,1.352973,-2.201358,-0.210077,0.515210,-0.978558,-1.589484,-2.603478,0.717088,1.409590,0.671093,0.126654,-0.022048,-0.146257
9029.452000,4.776000,1,START a_bow,Note,54,F#3,D,0.722958,0.309084,0.774923,0.107568,-1.538597,-2.354447,1.353039,-2.201994,-0.212310,0.519240,-0.980306,-1.589991,-2.603980,0.552687,2.363661,0.101152,0.128335,-0.014795,-0.154390
9029.460000,4.784000,1,START a_bow,Note,54,F#3,D,0.714958,0.309349,0.774339,0.107786,-1.538479,-2.354276,1.353327,-2.202648,-0.214415,0.523101,-0.981844,-1.590448,-2.604409,0.735619,1.694511,0.606642,0.128566,-0.018299,-0.155699
9029.468000,4.792000,1,START a_bow,Note,54,F#3,D,0.706958,0.309590,0.773787,0.108023,-1.538357,-2.354204,1.353537,-2.203255,-0.216444,0.526750,-0.983317,-1.590919,-2.604828,0.557720,0.756532,1.013776,0.133358,-0.033069,-0.158697
9029.476000,4.800000,1,START a_bow,Note,54,F#3,D,0.698958,0.309861,0.773239,0.108209,-1.538273,-2.354169,1.353617,-2.203889,-0.218321,0.530223,-0.984854,-1.591393,-2.605264,1.067645,1.546476,0.476215,0.126535,-0.021287,-0.159339
9029.484000,4.808000,1,START a_bow,Note,54,F#3,D,0.690958,0.310085,0.772729,0.108414,-1.538140,-2.354039,1.353842,-2.204452,-0.220152,0.533545,-0.986170,-1.591786,-2.605659,0.957142,1.225158,0.707950,0.124264,-0.027783,-0.159904
9029.492000,4.816000,1,START a_bow,Note,54,F#3,D,0.682958,0.310278,0.772256,0.108633,-1.538020,-2.354036,1.353948,-2.204959,-0.221904,0.536662,-0.987463,-1.592193,-2.606035,0.564179,1.683502,0.661560,0.119856,-0.032148,-0.149942
9029.500000,4.824000,1,START a_bow,Note,54,F#3,D,0.674958,0.310514,0.771794,0.108838,-1.537941,-2.353983,1.353990,-2.205500,-0.223517,0.539531,-0.988676,-1.592568,-2.606417,0.625965,1.428802,0.366529,0.118476,-0.019208,-0.156624
9029.508000,4.832000,1,START a_bow,Note,54,F#3,D,0.666958,0.310732,0.771357,0.109015,-1.537868,-2.353865,1.354162,-2.206010,-0.225023,0.542239,-0.989746,-1.592921,-2.606749,0.420404,1.469967,0.731344,0.130253,-0.030294,-0.152983
9029.516000,4.840000,1,START a_bow,Note,54,F#3,D,0.658958,0.310910,0.770960,0.109180,-1.537815,-2.353832,1.354220,-2.206454,-0.226428,0.544767,-0.990826,-1.593249,-2.607050,0.615045,0.774003,1.246303,0.133007,-0.033913,-0.156013
9029.524000,4.848000,1,START a_bow,Note,54,F#3,D,0.650958,0.311128,0.770565,0.109335,-1.537769,-2.353751,1.354314,-2.206936,-0.227736,0.547118,-0.991795,-1.593584,-2.607361,0.700658,1.477637,1.015641,0.134061,-0.029970,-0.166648
9029.532000,4.856000,1,START a_bow,Note,54,F#3,D,0.642958,0.311265,0.770230,0.109490,-1.537698,-2.353758,1.354342,-2.207296,-0.228948,0.549269,-0.992714,-1.593864,-2.607628,0.568234,1.257386,0.526594,0.124732,-0.022219,-0.163256
9029.540000,4.864000,1,START a_bow,Note,54,F#3,D,0.634958,0.311418,0.769903,0.109608,-1.537601,-2.353681,1.354487,-2.207667,-0.230049,0.551280,-0.993513,-1.594128,-2.607896,0.784038,1.661592,0.177458,0.121900,-0.020137,-0.167785
9029.548000,4.872000,1,START a_bow,Note,54,F#3,D,0.626958,0.311553,0.769600,0.109700,-1.537538,-2.353602,1.354630,-2.208006,-0.231054,0.553155,-0.994276,-1.594371,-2.608120,0.614492,2.058121,-0.114725,0.122117,-0.009164,-0.164677
9029.556000,4.880000,1,START a_bow,Note,54,F#3,D,0.618958,0.311661,0.769336,0.109801,-1.537449,-2.353542,1.354722,-2.208290,-0.231975,0.554837,-0.994960,-1.594560,-2.608339,0.457634,2.320906,-0.039446,0.109670,-0.015831,-0.154221
9029.564000,4.888000,1,START a_bow,Note,54,F#3,D,0.610958,0.311753,0.769106,0.109906,-1.537450,-2.353554,1.354737,-2.208538,-0.232808,0.556313,-0.995602,-1.594768,-2.608489,0.312894,2.012375,0.510105,0.121619,-0.025838,-0.157157
9029.572000,4.896000,1,START a_bow,Note,54,F#3,D,0.602958,0.311860,0.768874,0.109984,-1.537370,-2.353508,1.354843,-2.208800,-0.233573,0.557722,-0.996166,-1.594960,-2.608684,0.225407,1.497724,0.902720,0.133605,-0.042120,-0.168534
9029.700000,5.024000,1,START a_bow,Note,54,F#3,D,0.474958,0.311878,0.768471,0.110113,-1.536994,-2.353721,1.355088,-2.209083,-0.235122,0.560650,-0.997405,-1.595375,-2.609067,1.416131,0.691220,0.787217,0.133731,0.042372,-0.087155
9029.708000,5.032000,1,START a_bow,Note,54,F#3,D,0.466958,0.311843,0.768596,0.110072,-1.537022,-2.353713,1.355037,-2.208962,-0.234673,0.559813,-0.997047,-1.595260,-2.608983,1.548900,-0.101176,1.435872,0.143836,0.055343,-0.056262
9029.716000,5.040000,1,START a_bow,Note,54,F#3,D,0.458958,0.311736,0.768773,0.110010,-1.537026,-2.353876,1.354958,-2.208736,-0.234114,0.558793,-0.996671,-1.595187,-2.608857,1.825073,-0.522098,1.858631,0.156467,0.086175,-0.025961
9029.724000,5.048000,1,START a_bow,Note,54,F#3,D,0.450958,0.311651,0.768961,0.109953,-1.537035,-2.353977,1.354828,-2.208521,-0.233486,0.557624,-0.996227,-1.595052,-2.608744,1.956318,-0.583183,1.780405,0.157000,0.113792,0.012662
9029.732000,5.056000,1,START a_bow,Note,54,F#3,D,0.442958,0.311561,0.769177,0.109871,-1.537096,-2.354060,1.354669,-2.208285,-0.232743,0.556275,-0.995738,-1.594885,-2.608588,2.572191,-1.327950,2.245064,0.191791,0.147937,0.032329
9029.740000,5.064000,1,START a_bow,Note,54,F#3,D,0.434958,0.311488,0.769403,0.109807,-1.537166,-2.354063,1.354574,-2.208061,-0.231958,0.554790,-0.995101,-1.594690,-2.608420,2.645581,-0.337433,0.808714,0.169670,0.215863,0.074934
9029.748000,5.072000,1,START a_bow,Note,54,F#3,D,0.426958,0.311349,0.769671,0.109644,-1.537205,-2.354097,1.354567,-2.207743,-0.230987,0.553169,-0.994464,-1.594477,-2.608197,2.228333,0.614133,0.091402,0.168551,0.217821,0.071707
9029.756000,5.080000,1,START a_bow,Note,54,F#3,D,0.418958,0.311243,0.769958,0.109534,-1.537305,-2.354093,1.354484,-2.207446,-0.229971,0.551316,-0.993684,-1.594231,-2.607961,2.501070,-0.031765,0.647811,0.166199,0.208028,0.059079
9029.764000,5.088000,1,START a_bow,Note,54,F#3,D,0.410958,0.311094,0.770274,0.109416,-1.537395,-2.354110,1.354435,-2.207088,-0.228910,0.549382,-0.992853,-1.593967,-2.607687,2.239358,0.435443,-0.162548,0.159206,0.222009,0.062236
9029.772000,5.096000,1,START a_bow,Note,54,F#3,D,0.402958,0.310969,0.770605,0.109308,-1.537471,-2.354124,1.354302,-2.206740,-0.227754,0.547232,-0.991945,-1.593671,-2.607446,2.518777,-1.110747,1.715956,0.186171,0.177722,0.052335
9029.780000,5.104000,1,START a_bow,Note,54,F#3,D,0.894958,0.310851,0.770962,0.109193,-1.537679,-2.354083,1.354151,-2.206388,-0.226501,0.544890,-0.990958,-1.593347,-2.607116,2.543289,-0.940358,1.454714,0.181875,0.179047,0.047259
9029.788000,5.112000,1,START a_bow,Note,54,F#3,D,0.886958,0.310686,0.771358,0.109089,-1.537760,-2.354132,1.353959,-2.205957,-0.225172,0.542369,-0.989893,-1.592993,-2.606832,2.498084,-0.261782,0.527324,0.167229,0.208738,0.062283
9029.796000,5.120000,1,START a_bow,Note,54,F#3,D,0.878958,0.310516,0.771766,0.108911,-1.537886,-2.354155,1.353900,-2.205518,-0.223701,0.539725,-0.988773,-1.592675,-2.606484,2.513179,0.294319,0.078470,0.166854,0.219603,0.059901
9029.804000,5.128000,1,START a_bow,Note,54,F#3,D,0.870958,0.310285,0.772233,0.108748,-1.537934,-2.354253,1.353724,-2.204973,-0.222116,0.536818,-0.987576,-1.592272,-2.606149,2.529712,0.866735,0.162753,0.168639,0.211575,0.070120
9029.812000,5.136000,1,START a_bow,Note,54,F#3,D,0.862958,0.310117,0.772702,0.108540,-1.538122,-2.354164,1.353613,-2.204496,-0.220368,0.533680,-0.986249,-1.591825,-2.605746,2.104307,0.114777,0.426047,0.175655,0.204244,0.063724
9029.820000,5.144000,1,START a_bow,Note,54,F#3,D,0.854958,0.309866,0.773215,0.108324,-1.538174,-2.354258,1.353492,-2.203903,-0.218545,0.530405,-0.984889,-1.591406,-2.605366,2.338220,0.055448,0.398335,0.181949,0.210643,0.056766
9029.828000,5.152000,1,START a_bow,Note,54,F#3,D,0.846958,0.309643,0.773738,0.108080,-1.538318,-2.354230,1.353393,-2.203335,-0.216609,0.526966,-0.983450,-1.590934,-2.604935,2.170284,-0.481279,0.922791,0.189852,0.207815,0.049443
9029.836000,5.160000,1,START a_bow,Note,54,F#3,D,0.838958,0.309387,0.774293,0.107813,-1.538409,-2.354254,1.353358,-2.202712,-0.214549,0.523317,-0.981893,-1.590479,-2.604492,2.279687,0.281153,0.154056,0.181548,0.223066,0.066161
9029.844000,5.168000,1,START a_bow,Note,54,F#3,D,0.830958,0.309132,0.774871,0.107514,-1.538566,-2.354264,1.353261,-2.202078,-0.212349,0.519460,-0.980310,-1.589991,-2.604009,2.208025,-0.109291,0.697726,0.194627,0.220090,0.063240
9029.852000,5.176000,1,START a_bow,Note,54,F#3,D,0.822958,0.308842,0.775472,0.107219,-1.538642,-2.354295,1.353244,-2.201392,-0.210096,0.515482,-0.978606,-1.589496,-2.603533,2.722138,-0.724111,0.781250,0.195428,0.216127,0.050209
9029.860000,5.184000,1,START a_bow,Note,54,F#3,D,0.814958,0.308544,0.776108,0.106899,-1.538770,-2.354291,1.353196,-2.200677,-0.207681,0.511226,-0.976802,-1.588949,-2.603011,2.728680,-0.982009,1.098180,0.206884,0.203753,0.041066
9029.868000,5.192000,1,START a_bow,Note,54,F#3,D,0.806958,0.308240,0.776768,0.106616,-1.538885,-2.354311,1.353125,-2.199939,-0.205212,0.506757,-0.974858,-1.588393,-2.602487,2.134128,-1.385070,1.000620,0.203478,0.198066,0.044773
9029.876000,5.200000,1,START a_bow,Note,54,F#3,D,0.798958,0.307931,0.777463,0.106339,-1.539092,-2.354379,1.352936,-2.199176,-0.202613,0.501997,-0.972846,-1.587827,-2.601909,2.528623,-1.990035,1.797878,0.208953,0.190316,0.049457
9029.884000,5.208000,1,START a_bow,Note,54,F#3,D,0.790958,0.307606,0.778188,0.106079,-1.539297,-2.354571,1.352538,-2.198375,-0.199920,0.497005,-0.970845,-1.587247,-2.601349,2.860813,-0.418558,0.072057,0.181345,0.226338,0.066163
9029.892000,5.216000,1,START a_bow,Note,54,F#3,D,0.782958,0.307283,0.778921,0.105803,-1.539533,-2.354603,1.352358,-2.197576,-0.197149,0.491876,-0.968626,-1.586635,-2.600726,2.858953,-0.875276,0.871086,0.196923,0.204814,0.058190
9029.900000,5.224000,1,START a_bow,Note,54,F#3,D,0.774958,0.306931,0.779692,0.105549,-1.539752,-2.354767,1.352037,-2.196721,-0.194271,0.486472,-0.966349,-1.586027,-2.600108,2.852985,-1.570108,1.315853,0.203063,0.183221,0.038252
9029.908000,5.232000,1,START a_bow,Note,54,F#3,D,0.766958,0.306562,0.780484,0.105247,-1.539887,-2.354880,1.351833,-2.195835,-0.191224,0.480838,-0.963919,-1.585384,-2.599504,2.572506,-1.749698,1.312400,0.196729,0.185638,0.044121
